; G-Code generated by Simplify3D(R) Version 4.0.1
; Jan 17, 2018 at 6:15:07 PM
; Settings Summary
;   processName,Process1
;   applyToModels,midi_thru
;   profileName,Chris Elkins CR-10 (modified)
;   profileVersion,2017-09-03 13:44:15
;   baseProfile,Creality CR-10(2)
;   printMaterial,PLA
;   printQuality,High
;   printExtruders,
;   extruderName,Primary Extruder
;   extruderToolheadNumber,0
;   extruderDiameter,0.4
;   extruderAutoWidth,0
;   extruderWidth,0.4
;   extrusionMultiplier,0.97
;   extruderUseRetract,1
;   extruderRetractionDistance,6.5
;   extruderExtraRestartDistance,-0.1
;   extruderRetractionZLift,0
;   extruderRetractionSpeed,5100
;   extruderUseCoasting,1
;   extruderCoastingDistance,0.2
;   extruderUseWipe,1
;   extruderWipeDistance,4
;   primaryExtruder,0
;   layerHeight,0.2
;   topSolidLayers,2
;   bottomSolidLayers,2
;   perimeterOutlines,2
;   printPerimetersInsideOut,1
;   startPointOption,1
;   startPointOriginX,0
;   startPointOriginY,500
;   sequentialIslands,0
;   spiralVaseMode,0
;   firstLayerHeightPercentage,140
;   firstLayerWidthPercentage,120
;   firstLayerUnderspeed,0.25
;   useRaft,0
;   raftExtruder,0
;   raftTopLayers,2
;   raftBaseLayers,1
;   raftOffset,10
;   raftSeparationDistance,0.14
;   raftTopInfill,100
;   aboveRaftSpeedMultiplier,0.3
;   useSkirt,1
;   skirtExtruder,0
;   skirtLayers,1
;   skirtOutlines,2
;   skirtOffset,15
;   usePrimePillar,0
;   primePillarExtruder,999
;   primePillarWidth,12
;   primePillarLocation,7
;   primePillarSpeedMultiplier,1
;   useOozeShield,0
;   oozeShieldExtruder,999
;   oozeShieldOffset,2
;   oozeShieldOutlines,1
;   oozeShieldSidewallShape,1
;   oozeShieldSidewallAngle,30
;   oozeShieldSpeedMultiplier,1
;   infillExtruder,0
;   internalInfillPattern,Rectilinear
;   externalInfillPattern,Rectilinear
;   infillPercentage,40
;   outlineOverlapPercentage,15
;   infillExtrusionWidthPercentage,100
;   minInfillLength,5
;   infillLayerInterval,1
;   internalInfillAngles,45,-45
;   overlapInternalInfillAngles,0
;   externalInfillAngles,45,-45
;   generateSupport,0
;   supportExtruder,0
;   supportInfillPercentage,30
;   supportExtraInflation,0
;   supportBaseLayers,0
;   denseSupportExtruder,0
;   denseSupportLayers,0
;   denseSupportInfillPercentage,70
;   supportLayerInterval,1
;   supportHorizontalPartOffset,0.4
;   supportUpperSeparationLayers,1
;   supportLowerSeparationLayers,1
;   supportType,1
;   supportGridSpacing,4.5
;   maxOverhangAngle,60
;   supportAngles,0
;   temperatureName,Primary Extruder,Heated Bed
;   temperatureNumber,0,0
;   temperatureSetpointCount,1,1
;   temperatureSetpointLayers,1,1
;   temperatureSetpointTemperatures,210,55
;   temperatureStabilizeAtStartup,1,1
;   temperatureHeatedBed,0,1
;   temperatureRelayBetweenLayers,0,0
;   temperatureRelayBetweenLoops,0,0
;   fanLayers,1,2,3
;   fanSpeeds,0,50,100
;   blipFanToFullPower,1
;   adjustSpeedForCooling,1
;   minSpeedLayerTime,15
;   minCoolingSpeedSlowdown,20
;   increaseFanForCooling,0
;   minFanLayerTime,45
;   maxCoolingFanSpeed,100
;   increaseFanForBridging,1
;   bridgingFanSpeed,100
;   use5D,1
;   relativeEdistances,0
;   allowEaxisZeroing,1
;   independentExtruderAxes,0
;   includeM10123,0
;   stickySupport,1
;   applyToolheadOffsets,0
;   gcodeXoffset,0
;   gcodeYoffset,0
;   gcodeZoffset,0
;   overrideMachineDefinition,1
;   machineTypeOverride,0
;   strokeXoverride,300
;   strokeYoverride,300
;   strokeZoverride,400
;   originOffsetXoverride,0
;   originOffsetYoverride,0
;   originOffsetZoverride,0
;   homeXdirOverride,-1
;   homeYdirOverride,-1
;   homeZdirOverride,-1
;   flipXoverride,1
;   flipYoverride,-1
;   flipZoverride,1
;   toolheadOffsets,0,0|0,0|0,0|0,0|0,0|0,0
;   overrideFirmwareConfiguration,1
;   firmwareTypeOverride,RepRap (Marlin/Repetier/Sprinter)
;   GPXconfigOverride,r2
;   baudRateOverride,115200
;   overridePrinterModels,1
;   printerModelsOverride
;   startingGcode,G28 ; home all axes,M117 Purge extruder,G92 E0 ; reset extruder,G1 Z1.0 F3000 ; move z up little to prevent scratching of surface,G1 X0.1 Y20 Z0.3 F5000.0 ; move to start-line position,G1 X0.1 Y200.0 Z0.3 F1500.0 E15 ; draw 1st line,G1 X0.4 Y200.0 Z0.3 F5000.0 ; move to side a little,G1 X0.4 Y20 Z0.3 F1500.0 E30 ; draw 2nd line,; G1 E27 F3000 ; retract filament 3mm,G92 E0 ; reset extruder,; done purging extruder,G1 Z1.0 F3000 ; move z up little to prevent scratching of surface,M117 Chris Elkins Rocks!
;   layerChangeGcode,
;   retractionGcode,
;   toolChangeGcode,
;   endingGcode,M104 S0; turn off extruder,M140 S0 ; turn off bed,G1 X0 Y0 F1000 ; prepare for part removal,M84 ; disable motors,M106 S0 ; turn off fan,,M300 S294 P200 ;D4: 294,M300 S588 P200 ;D5: 588,M300 S440 P200 ;A4: 440,M300 S392 P200 ;G4: 392,M300 S784 P200 ;G5: 784,M300 S440 P200 ;A4: 440,M300 S740 P200 ;F#5: 740,M300 S440 P200 ;A4: 440
;   exportFileFormat,gcode
;   celebration,0
;   celebrationSong,Star Wars
;   postProcessing,
;   defaultSpeed,3600
;   outlineUnderspeed,0.5
;   solidInfillUnderspeed,0.8
;   supportUnderspeed,0.8
;   rapidXYspeed,7200
;   rapidZspeed,1002
;   minBridgingArea,50
;   bridgingExtraInflation,0
;   bridgingExtrusionMultiplier,1
;   bridgingSpeedMultiplier,1
;   useFixedBridgingAngle,0
;   fixedBridgingAngle,0
;   applyBridgingToPerimeters,1
;   filamentDiameters,1.75|1.75|1.75|1.75|1.75|1.75
;   filamentPricesPerKg,17.99|46|46|46|46|46
;   filamentDensities,1.25|1.25|1.25|1.25|1.25|1.25
;   useMinPrintHeight,0
;   minPrintHeight,0
;   useMaxPrintHeight,0
;   maxPrintHeight,23.8
;   useDiaphragm,0
;   diaphragmLayerInterval,20
;   robustSlicing,1
;   mergeAllIntoSolid,0
;   onlyRetractWhenCrossingOutline,0
;   retractBetweenLayers,1
;   useRetractionMinTravel,1
;   retractionMinTravel,3
;   retractWhileWiping,1
;   onlyWipeOutlines,1
;   avoidCrossingOutline,1
;   maxMovementDetourFactor,3
;   toolChangeRetractionDistance,12
;   toolChangeExtraRestartDistance,-0.5
;   toolChangeRetractionSpeed,600
;   externalThinWallType,0
;   internalThinWallType,2
;   thinWallAllowedOverlapPercentage,15
;   singleExtrusionMinLength,1
;   singleExtrusionMinPrintingWidthPercentage,50
;   singleExtrusionMaxPrintingWidthPercentage,200
;   singleExtrusionEndpointExtension,0.2
;   horizontalSizeCompensation,0
G90
M82
M106 S255
G4 P500
M106 S0
M140 S55
M190 S55
M104 S210 T0
M109 S210 T0
G28 ; home all axes
M117 Purge extruder
G92 E0 ; reset extruder
G1 Z1.0 F3000 ; move z up little to prevent scratching of surface
G1 X0.1 Y20 Z0.3 F5000.0 ; move to start-line position
G1 X0.1 Y200.0 Z0.3 F1500.0 E15 ; draw 1st line
G1 X0.4 Y200.0 Z0.3 F5000.0 ; move to side a little
G1 X0.4 Y20 Z0.3 F1500.0 E30 ; draw 2nd line
; G1 E27 F3000 ; retract filament 3mm
G92 E0 ; reset extruder
; done purging extruder
G1 Z1.0 F3000 ; move z up little to prevent scratching of surface
M117 Chris Elkins Rocks!
G92 E0
G1 E-6.5000 F5100
G1 Z0.280 F1002
; process Process1
; layer 1, Z = 0.280
T0
; tool H0.280 W0.480
; skirt
G1 X83.041 Y85.708 F7200
G1 E-0.1000 F1530
G92 E0
G1 X91.997 Y76.753 E0.6865 F900
G1 X92.217 Y76.662 E0.6994
G1 X207.837 Y76.662 E6.9661
G1 X208.058 Y76.753 E6.9790
G1 X217.013 Y85.708 E7.6655
G1 X217.105 Y85.929 E7.6784
G1 X217.105 Y150.968 E11.2036
G1 X217.050 Y151.099 E11.2113
G1 X217.050 Y214.071 E14.6244
G1 X216.959 Y214.292 E14.6373
G1 X208.003 Y223.247 E15.3238
G1 X207.783 Y223.338 E15.3367
G1 X92.163 Y223.338 E21.6034
G1 X91.942 Y223.247 E21.6164
G1 X82.987 Y214.292 E22.3028
G1 X82.895 Y214.071 E22.3158
G1 X82.895 Y149.032 E25.8409
G1 X82.950 Y148.901 E25.8486
G1 X82.950 Y85.929 E29.2617
G1 X82.965 Y85.893 E29.2638
G1 X83.041 Y85.708 F900
G1 X83.380 Y85.935 F7200
G92 E0
G1 X92.223 Y77.092 E0.6778 F900
G1 X92.297 Y77.062 E0.6821
G1 X207.758 Y77.062 E6.9402
G1 X207.831 Y77.092 E6.9445
G1 X216.674 Y85.935 E7.6224
G1 X216.705 Y86.009 E7.6267
G1 X216.705 Y150.888 E11.1432
G1 X216.674 Y150.962 E11.1475
G1 X216.650 Y150.986 E11.1494
G1 X216.650 Y213.991 E14.5643
G1 X216.620 Y214.065 E14.5686
G1 X207.777 Y222.908 E15.2464
G1 X207.703 Y222.938 E15.2508
G1 X92.242 Y222.938 E21.5088
G1 X92.169 Y222.908 E21.5131
G1 X83.326 Y214.065 E22.1910
G1 X83.295 Y213.991 E22.1953
G1 X83.295 Y149.112 E25.7118
G1 X83.326 Y149.038 E25.7161
G1 X83.350 Y149.014 E25.7180
G1 X83.350 Y86.129 E29.1264
G1 X83.350 Y86.009 F900
G1 X83.380 Y85.935 F900
G92 E0
G1 E-6.5000 F5100
; inner perimeter
G1 X98.785 Y92.497 F7200
G1 X98.785 Y93.543 F7200
G1 X138.736 Y113.272 F7200
G1 X138.736 Y112.028 F7200
G1 X141.601 Y112.028 F7200
G1 X141.601 Y114.687 F7200
G1 X200.785 Y143.915 F7200
G1 E-0.1000 F5100
G92 E0
G1 X99.270 Y143.915 E5.5022 F675
G1 X99.270 Y92.982 E8.2628
G1 X200.785 Y92.982 E13.7650
G1 X200.785 Y143.715 E16.5148
G1 X200.785 Y143.915 F675
; outer perimeter
G1 X201.265 Y144.395 F7200
G92 E0
G1 X98.790 Y144.395 E5.5542 F450
G1 X98.790 Y92.502 E8.3669
G1 X201.265 Y92.502 E13.9211
G1 X201.265 Y144.195 E16.7229
G1 X201.265 Y144.395 F450
G92 E0
G1 X196.677 Y144.395 E-6.5000 F3600
; inner perimeter
G1 X187.515 Y124.359 F7200
G1 X187.342 Y124.359 F7200
G1 X187.100 Y123.451 F7200
G1 X182.953 Y114.381 F7200
G1 E-0.1000 F5100
G92 E0
G1 X182.595 Y114.336 E0.0195 F675
G1 X182.595 Y111.543 E0.1710
G1 X178.930 Y111.543 E0.3696
G1 X178.930 Y124.844 E1.0905
G1 X183.798 Y124.844 E1.3543
G1 X185.218 Y119.443 E1.6570
G1 X185.532 Y119.442 E1.6740
G1 X186.969 Y124.844 E1.9770
G1 X191.827 Y124.844 E2.2403
G1 X191.827 Y111.543 E2.9612
G1 X188.162 Y111.543 E3.1598
G1 X188.162 Y114.312 E3.3099
G1 X187.804 Y114.356 E3.3294
G1 X187.097 Y111.543 E3.4866
G1 X183.669 Y111.543 E3.6725
G1 X183.002 Y114.187 E3.8203
G1 X182.953 Y114.381 F675
; outer perimeter
G1 X182.115 Y112.023 F7200
G92 E0
G1 X179.410 Y112.023 E0.1466 F450
G1 X179.410 Y124.364 E0.8155
G1 X183.428 Y124.364 E1.0332
G1 X185.372 Y116.972 E1.4475
G1 X187.338 Y124.364 E1.8621
G1 X191.347 Y124.364 E2.0794
G1 X191.347 Y112.023 E2.7483
G1 X188.642 Y112.023 E2.8949
G1 X188.642 Y119.660 E3.3088
G1 X186.723 Y112.023 E3.7356
G1 X184.043 Y112.023 E3.8808
G1 X182.115 Y119.666 E4.3081
G1 X182.115 Y112.223 E4.7115
G1 X182.115 Y112.023 F450
G92 E0
G1 X179.410 Y112.023 E-3.8320 F3600
G1 X179.410 Y113.906 E-6.5000
; inner perimeter
G1 X177.580 Y113.071 F7200
G1 X177.580 Y112.028 F7200
G1 X175.292 Y112.028 F7200
G1 X174.230 Y111.543 F7200
G1 E-0.1000 F5100
G92 E0
G1 X174.230 Y124.844 E0.7209 F675
G1 X178.065 Y124.844 E0.9288
G1 X178.065 Y111.543 E1.6497
G1 X174.430 Y111.543 E1.8467
G1 X174.230 Y111.543 F675
; outer perimeter
G1 X174.710 Y112.023 F7200
G92 E0
G1 X174.710 Y124.364 E0.6689 F450
G1 X177.585 Y124.364 E0.8247
G1 X177.585 Y112.023 E1.4936
G1 X174.910 Y112.023 E1.6386
G1 X174.710 Y112.023 F450
G92 E0
G1 X174.710 Y116.611 E-6.5000 F3600
; inner perimeter
G1 X172.911 Y116.611 F7200
G1 X172.911 Y112.028 F7200
G1 X168.164 Y112.028 F7200
G1 X166.947 Y112.092 F7200
G1 X165.980 Y112.288 F7200
G1 X164.982 Y112.715 F7200
G1 X164.202 Y113.290 F7200
G1 X163.435 Y114.261 F7200
G1 X162.873 Y115.479 F7200
G1 X162.607 Y116.610 F7200
G1 X162.109 Y116.610 F7200
G1 E-0.1000 F5100
G92 E0
G1 X162.011 Y118.079 E0.0798 F675
G1 X162.115 Y119.718 E0.1688
G1 X162.436 Y121.115 E0.2465
G1 X162.976 Y122.302 E0.3172
G1 X163.731 Y123.308 E0.3854
G1 X164.694 Y124.090 E0.4526
G1 X165.831 Y124.591 E0.5199
G1 X166.915 Y124.784 E0.5797
G1 X168.284 Y124.844 E0.6539
G1 X173.396 Y124.844 E0.9310
G1 X173.396 Y111.543 E1.6519
G1 X168.151 Y111.543 E1.9362
G1 X166.885 Y111.609 E2.0049
G1 X165.835 Y111.823 E2.0630
G1 X164.739 Y112.291 E2.1276
G1 X163.862 Y112.938 E2.1867
G1 X163.019 Y114.005 E2.2604
G1 X162.413 Y115.320 E2.3389
G1 X162.155 Y116.415 E2.3998
G1 X162.109 Y116.610 F675
; outer perimeter
G1 X162.586 Y116.681 F7200
G92 E0
G1 X162.492 Y118.080 E0.0760 F450
G1 X162.592 Y119.649 E0.1612
G1 X162.893 Y120.961 E0.2342
G1 X163.391 Y122.055 E0.2993
G1 X164.080 Y122.973 E0.3615
G1 X164.947 Y123.677 E0.4221
G1 X165.972 Y124.128 E0.4827
G1 X166.968 Y124.306 E0.5376
G1 X168.294 Y124.364 E0.6095
G1 X172.916 Y124.364 E0.8601
G1 X172.916 Y112.023 E1.5290
G1 X168.163 Y112.023 E1.7866
G1 X166.946 Y112.087 E1.8526
G1 X165.978 Y112.283 E1.9062
G1 X164.979 Y112.710 E1.9650
G1 X164.199 Y113.286 E2.0176
G1 X163.431 Y114.258 E2.0848
G1 X162.869 Y115.477 E2.1575
G1 X162.632 Y116.486 E2.2137
G1 X162.586 Y116.681 F450
G92 E0
G1 X162.492 Y118.080 E-1.9857 F3600
G1 X162.592 Y119.649 E-4.2133
G1 X162.893 Y120.961 E-6.1201
G1 X163.004 Y121.205 E-6.5000
; inner perimeter
G1 X161.010 Y122.562 F7200
G1 X161.010 Y124.359 F7200
G1 X158.372 Y124.359 F7200
G1 X157.660 Y124.844 F7200
G1 E-0.1000 F5100
G92 E0
G1 X161.495 Y124.844 E0.2079 F675
G1 X161.495 Y111.543 E0.9288
G1 X157.660 Y111.543 E1.1366
G1 X157.660 Y124.644 E1.8467
G1 X157.660 Y124.844 F675
; outer perimeter
G1 X158.140 Y124.364 F7200
G92 E0
G1 X161.015 Y124.364 E0.1558 F450
G1 X161.015 Y112.023 E0.8247
G1 X158.140 Y112.023 E0.9805
G1 X158.140 Y124.164 E1.6386
G1 X158.140 Y124.364 F450
G92 E0
G1 X161.015 Y124.364 E-4.0727 F3600
G1 X161.015 Y122.650 E-6.5000
; inner perimeter
G1 X161.010 Y122.650 F7200
G1 X161.010 Y124.359 F7200
G1 X158.145 Y124.359 F7200
G1 X158.145 Y122.338 F7200
G1 X138.251 Y120.175 F7200
G1 E-0.1000 F5100
G92 E0
G1 X138.251 Y124.844 E0.2530 F675
G1 X153.065 Y124.844 E1.0559
G1 X153.065 Y121.397 E1.2427
G1 X149.545 Y121.397 E1.4335
G1 X149.545 Y111.543 E1.9676
G1 X145.710 Y111.543 E2.1755
G1 X145.710 Y121.397 E2.7096
G1 X142.086 Y121.397 E2.9060
G1 X142.086 Y111.543 E3.4402
G1 X138.251 Y111.543 E3.6480
G1 X138.251 Y116.729 E3.9291
G1 X134.998 Y116.729 E4.1054
G1 X134.998 Y111.543 E4.3865
G1 X131.163 Y111.543 E4.5943
G1 X131.163 Y124.844 E5.3152
G1 X134.998 Y124.844 E5.5231
G1 X134.998 Y120.175 E5.7761
G1 X138.051 Y120.175 E5.9416
G1 X138.251 Y120.175 F675
; outer perimeter
G1 X138.731 Y119.695 F7200
G92 E0
G1 X138.731 Y124.364 E0.2530 F450
G1 X141.606 Y124.364 E0.4088
G1 X141.606 Y112.023 E1.0777
G1 X138.731 Y112.023 E1.2335
G1 X138.731 Y117.209 E1.5146
G1 X134.518 Y117.209 E1.7430
G1 X134.518 Y112.023 E2.0240
G1 X131.643 Y112.023 E2.1799
G1 X131.643 Y124.364 E2.8487
G1 X134.518 Y124.364 E3.0046
G1 X134.518 Y119.695 E3.2576
G1 X138.531 Y119.695 E3.4751
G1 X138.731 Y119.695 F450
G92 E0
G1 X138.731 Y124.284 E-6.5000 F3600
G1 X138.736 Y124.284 F7200
G1 X138.736 Y124.359 F7200
G1 X141.601 Y124.359 F7200
G1 X141.601 Y124.300 F7200
G1 X142.684 Y124.306 F7200
G1 X142.684 Y124.359 F7200
G1 X151.754 Y124.359 F7200
G1 X152.585 Y124.364 F7200
G1 E-0.1000 F5100
G92 E0
G1 X152.585 Y121.877 E0.1348 F450
G1 X149.065 Y121.877 E0.3255
G1 X149.065 Y112.023 E0.8596
G1 X146.190 Y112.023 E1.0155
G1 X146.190 Y121.877 E1.5496
G1 X142.679 Y121.877 E1.7399
G1 X142.679 Y124.364 E1.8747
G1 X152.385 Y124.364 E2.4007
G1 X152.585 Y124.364 F450
G92 E0
G1 X152.585 Y121.877 E-3.5225 F3600
G1 X150.483 Y121.877 E-6.5000
; inner perimeter
G1 X121.230 Y117.187 F7200
G1 E-0.1000 F5100
G92 E0
G1 X120.499 Y117.614 E0.0459 F675
G1 X119.949 Y118.106 E0.0859
G1 X119.519 Y118.687 E0.1251
G1 X119.200 Y119.365 E0.1657
G1 X118.971 Y120.787 E0.2438
G1 X119.128 Y121.988 E0.3094
G1 X119.603 Y123.059 E0.3729
G1 X120.357 Y123.925 E0.4352
G1 X121.336 Y124.485 E0.4963
G1 X122.624 Y124.760 E0.5677
G1 X124.342 Y124.844 E0.6609
G1 X130.120 Y124.844 E0.9740
G1 X130.120 Y111.543 E1.6949
G1 X126.285 Y111.543 E1.9028
G1 X126.285 Y116.464 E2.1695
G1 X125.572 Y116.385 E2.2084
G1 X125.104 Y116.064 E2.2392
G1 X123.922 Y114.432 E2.3484
G1 X121.984 Y111.543 E2.5369
G1 X118.312 Y111.543 E2.7360
G1 X117.901 Y112.285 E2.7820
G1 X119.585 Y114.976 E2.9540
G1 X121.006 Y116.983 E3.0873
G1 X121.082 Y117.052 E3.0929
G1 X121.230 Y117.187 F675
; outer perimeter
G1 X121.368 Y117.662 F7200
G92 E0
G1 X120.783 Y118.004 E0.0367 F450
G1 X120.305 Y118.431 E0.0715
G1 X119.933 Y118.934 E0.1054
G1 X119.664 Y119.508 E0.1397
G1 X119.456 Y120.795 E0.2104
G1 X119.595 Y121.857 E0.2684
G1 X120.012 Y122.798 E0.3242
G1 X120.666 Y123.548 E0.3782
G1 X121.509 Y124.031 E0.4308
G1 X122.687 Y124.283 E0.4961
G1 X124.353 Y124.364 E0.5865
G1 X129.640 Y124.364 E0.8730
G1 X129.640 Y112.023 E1.5419
G1 X126.765 Y112.023 E1.6977
G1 X126.765 Y116.974 E1.9661
