(.../pcb-gcode-3.6.2.4/pcb-gcode.ulp)
(Copyright 2005 - 2012 by John Johnson)
(See readme.txt for licensing terms.)
(This file generated from the board:)
(.../eurorack/midi_thru/eagle/midi_thru.brd)
(Current profile is .../pcb-gcode-3.6.2.4/profiles/mach.pp  )
(This file generated 9/11/16 10:24 AM)
(Settings from pcb-machine.h)
(spindle on time = 0.0000)
(  Tool Size)
(0.0030  )
(spindle speed = 30000.0000)
(tool change at 0.0000  0.0000  1.5000  )
(feed rate xy = F20    )
(feed rate z  = F10    )
(Z Axis Settings)
(  High     Up        Down     Drill)
(0.2500  	0.0500  	-0.0035 	-0.0710 )
(Settings from pcb-defaults.h)
(isolate min = 0.0040)
(isolate max = 0.0200)
(isolate step = 0.0025)
(Generated bottom outlines, bottom drill, )
(Unit of measure: inch)
(Inch Mode)
G20
(Absolute Coordinates)
G90
S30000
G00 Z0.2500  
G00 X0.0000  Y0.0000  
M03
G04 P0.000000
G00 Z0.0500  
G00 X-0.3515 Y0.0831  
G01 Z-0.0035 F10    
G01 X-0.3799 Y0.0546  F20    
G01 X-0.4201 Y0.0546  
G01 X-0.4485 Y0.0831  
G01 X-0.4485 Y0.0910  
G01 X-0.4515 Y0.0910  
G01 X-0.4515 Y0.0831  
G01 X-0.4799 Y0.0546  
G01 X-0.5201 Y0.0546  
G01 X-0.5485 Y0.0831  
G01 X-0.5485 Y0.0910  
G01 X-0.6515 Y0.0910  
G01 X-0.6515 Y0.0831  
G01 X-0.6799 Y0.0546  
G01 X-0.7201 Y0.0546  
G01 X-0.7485 Y0.0831  
G01 X-0.7485 Y0.0910  
G01 X-0.7515 Y0.0910  
G01 X-0.7515 Y0.0831  
G01 X-0.7799 Y0.0546  
G01 X-0.8201 Y0.0546  
G01 X-0.8485 Y0.0831  
G01 X-0.8485 Y0.0910  
G01 X-1.2015 Y0.0910  
G01 X-1.2015 Y0.0831  
G01 X-1.2299 Y0.0546  
G01 X-1.2701 Y0.0546  
G01 X-1.2985 Y0.0831  
G01 X-1.2985 Y0.0910  
G01 X-1.3015 Y0.0910  
G01 X-1.3015 Y0.0831  
G01 X-1.3299 Y0.0546  
G01 X-1.3701 Y0.0546  
G01 X-1.3985 Y0.0831  
G01 X-1.3985 Y0.0910  
G01 X-1.5015 Y0.0910  
G01 X-1.5015 Y0.0831  
G01 X-1.5299 Y0.0546  
G01 X-1.5701 Y0.0546  
G01 X-1.5985 Y0.0831  
G01 X-1.5985 Y0.0910  
G01 X-1.6015 Y0.0910  
G01 X-1.6015 Y0.0831  
G01 X-1.6299 Y0.0546  
G01 X-1.6701 Y0.0546  
G01 X-1.6985 Y0.0831  
G01 X-1.6985 Y0.0910  
G01 X-1.8599 Y0.0910  
G01 X-1.8617 Y0.0900  
G01 X-1.8672 Y0.0885  
G01 X-1.8728 Y0.0885  
G01 X-1.8783 Y0.0900  
G01 X-1.8801 Y0.0910  
G01 X-2.0515 Y0.0910  
G01 X-2.0515 Y0.0831  
G01 X-2.0799 Y0.0546  
G01 X-2.1201 Y0.0546  
G01 X-2.1485 Y0.0831  
G01 X-2.1485 Y0.0910  
G01 X-2.1515 Y0.0910  
G01 X-2.1515 Y0.0831  
G01 X-2.1799 Y0.0546  
G01 X-2.2201 Y0.0546  
G01 X-2.2485 Y0.0831  
G01 X-2.2485 Y0.0910  
G01 X-2.3515 Y0.0910  
G01 X-2.3515 Y0.0831  
G01 X-2.3799 Y0.0546  
G01 X-2.4201 Y0.0546  
G01 X-2.4485 Y0.0831  
G01 X-2.4485 Y0.0910  
G01 X-2.4515 Y0.0910  
G01 X-2.4515 Y0.0831  
G01 X-2.4799 Y0.0546  
G01 X-2.5201 Y0.0546  
G01 X-2.5485 Y0.0831  
G01 X-2.5485 Y0.0910  
G01 X-2.9015 Y0.0910  
G01 X-2.9015 Y0.0831  
G01 X-2.9299 Y0.0546  
G01 X-2.9701 Y0.0546  
G01 X-2.9985 Y0.0831  
G01 X-2.9985 Y0.0910  
G01 X-3.0015 Y0.0910  
G01 X-3.0015 Y0.0831  
G01 X-3.0299 Y0.0546  
G01 X-3.0701 Y0.0546  
G01 X-3.0985 Y0.0831  
G01 X-3.0985 Y0.0910  
G01 X-3.2015 Y0.0910  
G01 X-3.2015 Y0.0831  
G01 X-3.2299 Y0.0546  
G01 X-3.2701 Y0.0546  
G01 X-3.2985 Y0.0831  
G01 X-3.2985 Y0.0867  
G01 X-3.3015 Y0.0865  
G01 X-3.3015 Y0.0831  
G01 X-3.3299 Y0.0546  
G01 X-3.3701 Y0.0546  
G01 X-3.3985 Y0.0831  
G01 X-3.3985 Y0.0913  
G01 X-3.5155 Y0.2449  
G01 X-3.6122 Y0.3222  
G01 X-3.6132 Y0.3228  
G01 X-3.6144 Y0.3240  
G01 X-3.6156 Y0.3250  
G01 X-3.6164 Y0.3259  
G01 X-3.6172 Y0.3268  
G01 X-3.6180 Y0.3282  
G01 X-3.6190 Y0.3295  
G01 X-3.6194 Y0.3307  
G01 X-3.6200 Y0.3317  
G01 X-3.6205 Y0.3333  
G01 X-3.6211 Y0.3348  
G01 X-3.6212 Y0.3360  
G01 X-3.6215 Y0.3372  
G01 X-3.6215 Y0.3388  
G01 X-3.6217 Y0.3404  
G01 X-3.6215 Y0.3416  
G01 X-3.6215 Y1.0528  
G01 X-3.6200 Y1.0583  
G01 X-3.6172 Y1.0632  
G01 X-3.6132 Y1.0672  
G01 X-3.4547 Y1.2257  
G01 X-3.4507 Y1.2297  
G01 X-3.4458 Y1.2325  
G01 X-3.4403 Y1.2340  
G01 X-3.2847 Y1.2340  
G01 X-3.2792 Y1.2325  
G01 X-3.2743 Y1.2297  
G01 X-3.2703 Y1.2257  
G01 X-3.2675 Y1.2208  
G01 X-3.2660 Y1.2153  
G01 X-3.2660 Y1.1222  
G01 X-3.2675 Y1.1167  
G01 X-3.2703 Y1.1118  
G01 X-3.2743 Y1.1078  
G01 X-3.3085 Y1.0736  
G01 X-3.3090 Y1.0728  
G01 X-3.3105 Y1.0716  
G01 X-3.3118 Y1.0703  
G01 X-3.3126 Y1.0698  
G01 X-3.4110 Y0.9875  
G01 X-3.4110 Y0.9185  
G01 X-3.3701 Y0.8990  
G01 X-3.1990 Y0.8990  
G01 X-3.1990 Y0.9980  
G01 X-3.1991 Y0.9987  
G01 X-3.1990 Y1.0008  
G01 X-3.1990 Y1.0028  
G01 X-3.1988 Y1.0036  
G01 X-3.1987 Y1.0044  
G01 X-3.1981 Y1.0063  
G01 X-3.1975 Y1.0083  
G01 X-3.1971 Y1.0090  
G01 X-3.1969 Y1.0097  
G01 X-3.1957 Y1.0114  
G01 X-3.1947 Y1.0132  
G01 X-3.1941 Y1.0138  
G01 X-3.1937 Y1.0144  
G01 X-3.1921 Y1.0158  
G01 X-3.1907 Y1.0172  
G01 X-3.1900 Y1.0176  
G01 X-3.1894 Y1.0181  
G01 X-3.1876 Y1.0190  
G01 X-3.1858 Y1.0200  
G01 X-3.1850 Y1.0202  
G01 X-3.1215 Y1.0510  
G01 X-3.1215 Y1.1010  
G01 X-3.1245 Y1.1039  
G01 X-3.1279 Y1.1091  
G01 X-3.1303 Y1.1148  
G01 X-3.1315 Y1.1209  
G01 X-3.1315 Y1.1791  
G01 X-3.1303 Y1.1852  
G01 X-3.1279 Y1.1909  
G01 X-3.1245 Y1.1961  
G01 X-3.1201 Y1.2005  
G01 X-3.1149 Y1.2039  
G01 X-3.1092 Y1.2063  
G01 X-3.1031 Y1.2075  
G01 X-3.0969 Y1.2075  
G01 X-3.0908 Y1.2063  
G01 X-3.0851 Y1.2039  
G01 X-3.0799 Y1.2005  
G01 X-3.0755 Y1.1961  
G01 X-3.0721 Y1.1909  
G01 X-3.0697 Y1.1852  
G01 X-3.0685 Y1.1791  
G01 X-3.0685 Y1.1209  
G01 X-3.0697 Y1.1148  
G01 X-3.0721 Y1.1091  
G01 X-3.0755 Y1.1039  
G01 X-3.0785 Y1.1010  
G01 X-3.0785 Y1.0395  
G01 X-3.0784 Y1.0388  
G01 X-3.0785 Y1.0367  
G01 X-3.0785 Y1.0347  
G01 X-3.0787 Y1.0339  
G01 X-3.0788 Y1.0331  
G01 X-3.0794 Y1.0312  
G01 X-3.0800 Y1.0292  
G01 X-3.0804 Y1.0285  
G01 X-3.0806 Y1.0278  
G01 X-3.0818 Y1.0261  
G01 X-3.0828 Y1.0243  
G01 X-3.0834 Y1.0237  
G01 X-3.0838 Y1.0231  
G01 X-3.0854 Y1.0217  
G01 X-3.0868 Y1.0203  
G01 X-3.0875 Y1.0199  
G01 X-3.0881 Y1.0194  
G01 X-3.0899 Y1.0185  
G01 X-3.0917 Y1.0175  
G01 X-3.0925 Y1.0173  
G01 X-3.1560 Y0.9865  
G01 X-3.1560 Y0.8786  
G01 X-3.1237 Y0.5741  
G01 X-3.1210 Y0.5722  
G01 X-3.1161 Y0.5672  
G01 X-3.1119 Y0.5615  
G01 X-3.1088 Y0.5553  
G01 X-3.1066 Y0.5486  
G01 X-3.1055 Y0.5417  
G01 X-3.1055 Y0.4567  
G01 X-3.1066 Y0.4498  
G01 X-3.1088 Y0.4431  
G01 X-3.1119 Y0.4369  
G01 X-3.1161 Y0.4312  
G01 X-3.1210 Y0.4263  
G01 X-3.1267 Y0.4222  
G01 X-3.1329 Y0.4190  
G01 X-3.1396 Y0.4168  
G01 X-3.1465 Y0.4157  
G01 X-3.1535 Y0.4157  
G01 X-3.1604 Y0.4168  
G01 X-3.1671 Y0.4190  
G01 X-3.1733 Y0.4222  
G01 X-3.1790 Y0.4263  
G01 X-3.1839 Y0.4312  
G01 X-3.1881 Y0.4369  
G01 X-3.1912 Y0.4431  
G01 X-3.1934 Y0.4498  
G01 X-3.1945 Y0.4567  
G01 X-3.1945 Y0.5417  
G01 X-3.1934 Y0.5486  
G01 X-3.1912 Y0.5553  
G01 X-3.1881 Y0.5615  
G01 X-3.1839 Y0.5672  
G01 X-3.1790 Y0.5722  
G01 X-3.1733 Y0.5763  
G01 X-3.1675 Y0.5792  
G01 X-3.1968 Y0.8560  
G01 X-3.3742 Y0.8560  
G01 X-3.3762 Y0.8558  
G01 X-3.3770 Y0.8560  
G01 X-3.3778 Y0.8560  
G01 X-3.3798 Y0.8565  
G01 X-3.3817 Y0.8569  
G01 X-3.3825 Y0.8572  
G01 X-3.3833 Y0.8575  
G01 X-3.3850 Y0.8585  
G01 X-3.4400 Y0.8847  
G01 X-3.4408 Y0.8850  
G01 X-3.4425 Y0.8860  
G01 X-3.4443 Y0.8868  
G01 X-3.4450 Y0.8874  
G01 X-3.4457 Y0.8878  
G01 X-3.4471 Y0.8892  
G01 X-3.4486 Y0.8905  
G01 X-3.4491 Y0.8912  
G01 X-3.4497 Y0.8918  
G01 X-3.4507 Y0.8935  
G01 X-3.4518 Y0.8952  
G01 X-3.4521 Y0.8960  
G01 X-3.4525 Y0.8967  
G01 X-3.4531 Y0.8986  
G01 X-3.4537 Y0.9005  
G01 X-3.4538 Y0.9014  
G01 X-3.4540 Y0.9022  
G01 X-3.4540 Y0.9042  
G01 X-3.4542 Y0.9062  
G01 X-3.4540 Y0.9070  
G01 X-3.4540 Y0.9956  
G01 X-3.4542 Y0.9966  
G01 X-3.4540 Y0.9985  
G01 X-3.4540 Y1.0003  
G01 X-3.4538 Y1.0013  
G01 X-3.4537 Y1.0022  
G01 X-3.4530 Y1.0040  
G01 X-3.4525 Y1.0058  
G01 X-3.4521 Y1.0066  
G01 X-3.4517 Y1.0075  
G01 X-3.4506 Y1.0091  
G01 X-3.4497 Y1.0107  
G01 X-3.4490 Y1.0114  
G01 X-3.4485 Y1.0122  
G01 X-3.4470 Y1.0134  
G01 X-3.4457 Y1.0147  
G01 X-3.4449 Y1.0152  
G01 X-3.3395 Y1.1034  
G01 X-3.3090 Y1.1339  
G01 X-3.3090 Y1.1910  
G01 X-3.4286 Y1.1910  
G01 X-3.5785 Y1.0411  
G01 X-3.5785 Y0.3503  
G01 X-3.4867 Y0.2769  
G01 X-3.4846 Y0.2753  
G01 X-3.4845 Y0.2751  
G01 X-3.4844 Y0.2750  
G01 X-3.4828 Y0.2729  
G01 X-3.3816 Y0.1401  
G01 X-3.3701 Y0.1516  
G01 X-3.3299 Y0.1516  
G01 X-3.3123 Y0.1340  
G01 X-3.2877 Y0.1340  
G01 X-3.2701 Y0.1516  
G01 X-3.2299 Y0.1516  
G01 X-3.2123 Y0.1340  
G01 X-3.0877 Y0.1340  
G01 X-3.0701 Y0.1516  
G01 X-3.0299 Y0.1516  
G01 X-3.0123 Y0.1340  
G01 X-2.9877 Y0.1340  
G01 X-2.9701 Y0.1516  
G01 X-2.9299 Y0.1516  
G01 X-2.9123 Y0.1340  
G01 X-2.5377 Y0.1340  
G01 X-2.5201 Y0.1516  
G01 X-2.4799 Y0.1516  
G01 X-2.4623 Y0.1340  
G01 X-2.4377 Y0.1340  
G01 X-2.4201 Y0.1516  
G01 X-2.3799 Y0.1516  
G01 X-2.3623 Y0.1340  
G01 X-2.2377 Y0.1340  
G01 X-2.2201 Y0.1516  
G01 X-2.1799 Y0.1516  
G01 X-2.1623 Y0.1340  
G01 X-2.1377 Y0.1340  
G01 X-2.1201 Y0.1516  
G01 X-2.0799 Y0.1516  
G01 X-2.0623 Y0.1340  
G01 X-1.8915 Y0.1340  
G01 X-1.8915 Y0.6560  
G01 X-1.9631 Y0.6560  
G01 X-1.9640 Y0.6558  
G01 X-1.9659 Y0.6560  
G01 X-1.9678 Y0.6560  
G01 X-1.9687 Y0.6562  
G01 X-2.0534 Y0.6635  
G01 X-2.1247 Y0.6635  
G01 X-2.2106 Y0.6409  
G01 X-2.2703 Y0.5715  
G01 X-2.2661 Y0.5672  
G01 X-2.2619 Y0.5615  
G01 X-2.2588 Y0.5553  
G01 X-2.2566 Y0.5486  
G01 X-2.2555 Y0.5417  
G01 X-2.2555 Y0.4567  
G01 X-2.2566 Y0.4498  
G01 X-2.2588 Y0.4431  
G01 X-2.2619 Y0.4369  
G01 X-2.2661 Y0.4312  
G01 X-2.2710 Y0.4263  
G01 X-2.2767 Y0.4222  
G01 X-2.2829 Y0.4190  
G01 X-2.2896 Y0.4168  
G01 X-2.2965 Y0.4157  
G01 X-2.3035 Y0.4157  
G01 X-2.3104 Y0.4168  
G01 X-2.3171 Y0.4190  
G01 X-2.3233 Y0.4222  
G01 X-2.3290 Y0.4263  
G01 X-2.3339 Y0.4312  
G01 X-2.3381 Y0.4369  
G01 X-2.3412 Y0.4431  
G01 X-2.3434 Y0.4498  
G01 X-2.3445 Y0.4567  
G01 X-2.3445 Y0.5417  
G01 X-2.3434 Y0.5486  
G01 X-2.3412 Y0.5553  
G01 X-2.3381 Y0.5615  
G01 X-2.3339 Y0.5672  
G01 X-2.3290 Y0.5722  
G01 X-2.3233 Y0.5763  
G01 X-2.3201 Y0.5779  
G01 X-2.3200 Y0.5783  
G01 X-2.3190 Y0.5801  
G01 X-2.3181 Y0.5819  
G01 X-2.3176 Y0.5825  
G01 X-2.3172 Y0.5832  
G01 X-2.3158 Y0.5846  
G01 X-2.2401 Y0.6725  
G01 X-2.2396 Y0.6733  
G01 X-2.2382 Y0.6747  
G01 X-2.2369 Y0.6762  
G01 X-2.2362 Y0.6767  
G01 X-2.2356 Y0.6773  
G01 X-2.2339 Y0.6782  
G01 X-2.2323 Y0.6794  
G01 X-2.2315 Y0.6796  
G01 X-2.2307 Y0.6801  
G01 X-2.2288 Y0.6806  
G01 X-2.2269 Y0.6812  
G01 X-2.2261 Y0.6813  
G01 X-2.1330 Y0.7058  
G01 X-2.1303 Y0.7065  
G01 X-2.1275 Y0.7065  
G01 X-2.0544 Y0.7065  
G01 X-2.0535 Y0.7067  
G01 X-2.0516 Y0.7065  
G01 X-2.0497 Y0.7065  
G01 X-2.0488 Y0.7063  
G01 X-1.9641 Y0.6990  
G01 X-1.7473 Y0.6990  
G01 X-1.7467 Y0.6991  
G01 X-1.7444 Y0.6990  
G01 X-1.7422 Y0.6990  
G01 X-1.7416 Y0.6989  
G01 X-1.6976 Y0.6965  
G01 X-1.5540 Y0.7052  
G01 X-1.5540 Y0.7076  
G01 X-1.5540 Y0.7103  
G01 X-1.5540 Y0.7105  
G01 X-1.5540 Y0.7106  
G01 X-1.5532 Y0.7132  
G01 X-1.5525 Y0.7158  
G01 X-1.5525 Y0.7159  
G01 X-1.5524 Y0.7160  
G01 X-1.5511 Y0.7184  
G01 X-1.5497 Y0.7207  
G01 X-1.4590 Y0.8734  
G01 X-1.4590 Y0.9854  
G01 X-1.4623 Y1.0020  
G01 X-1.6111 Y0.9863  
G01 X-1.6122 Y0.9860  
G01 X-1.6136 Y0.9860  
G01 X-1.6428 Y0.9568  
G01 X-1.6468 Y0.9528  
G01 X-1.6517 Y0.9500  
G01 X-1.6572 Y0.9485  
G01 X-1.8685 Y0.9485  
G01 X-1.8685 Y0.9449  
G01 X-1.8697 Y0.9388  
G01 X-1.8721 Y0.9331  
G01 X-1.8755 Y0.9279  
G01 X-1.8799 Y0.9235  
G01 X-1.8851 Y0.9201  
G01 X-1.8908 Y0.9177  
G01 X-1.8969 Y0.9165  
G01 X-1.9031 Y0.9165  
G01 X-1.9092 Y0.9177  
G01 X-1.9149 Y0.9201  
G01 X-1.9201 Y0.9235  
G01 X-1.9245 Y0.9279  
G01 X-1.9279 Y0.9331  
G01 X-1.9303 Y0.9388  
G01 X-1.9315 Y0.9449  
G01 X-1.9315 Y1.0031  
G01 X-1.9303 Y1.0092  
G01 X-1.9279 Y1.0149  
G01 X-1.9245 Y1.0201  
G01 X-1.9201 Y1.0245  
G01 X-1.9149 Y1.0279  
G01 X-1.9092 Y1.0303  
G01 X-1.9031 Y1.0315  
G01 X-1.8969 Y1.0315  
G01 X-1.8908 Y1.0303  
G01 X-1.8851 Y1.0279  
G01 X-1.8799 Y1.0245  
G01 X-1.8755 Y1.0201  
G01 X-1.8721 Y1.0149  
G01 X-1.8697 Y1.0092  
G01 X-1.8685 Y1.0031  
G01 X-1.8685 Y0.9989  
G01 X-1.8611 Y0.9915  
G01 X-1.6689 Y0.9915  
G01 X-1.6357 Y1.0247  
G01 X-1.6308 Y1.0275  
G01 X-1.6253 Y1.0290  
G01 X-1.6161 Y1.0290  
G01 X-1.4434 Y1.0472  
G01 X-1.4340 Y1.1018  
G01 X-1.4340 Y1.1028  
G01 X-1.4335 Y1.1046  
G01 X-1.4332 Y1.1064  
G01 X-1.4328 Y1.1073  
G01 X-1.4325 Y1.1083  
G01 X-1.4316 Y1.1099  
G01 X-1.4315 Y1.1101  
G01 X-1.4315 Y1.1130  
G01 X-1.4130 Y1.1315  
G01 X-1.3989 Y1.1315  
G01 X-1.3672 Y1.1632  
G01 X-1.3632 Y1.1672  
G01 X-1.3583 Y1.1700  
G01 X-1.3528 Y1.1715  
G01 X-1.2230 Y1.1715  
G01 X-1.2130 Y1.1815  
G01 X-1.1870 Y1.1815  
G01 X-1.1770 Y1.1715  
G01 X-1.1215 Y1.1715  
G01 X-1.1215 Y1.2911  
G01 X-1.1234 Y1.2924  
G01 X-1.1284 Y1.2974  
G01 X-1.1322 Y1.3032  
G01 X-1.1349 Y1.3096  
G01 X-1.1363 Y1.3165  
G01 X-1.1363 Y1.3835  
G01 X-1.1349 Y1.3904  
G01 X-1.1322 Y1.3968  
G01 X-1.1284 Y1.4026  
G01 X-1.1234 Y1.4076  
G01 X-1.1176 Y1.4115  
G01 X-1.1111 Y1.4141  
G01 X-1.1043 Y1.4155  
G01 X-1.0973 Y1.4155  
G01 X-1.0904 Y1.4141  
G01 X-1.0840 Y1.4115  
G01 X-1.0782 Y1.4076  
G01 X-1.0732 Y1.4026  
G01 X-1.0693 Y1.3968  
G01 X-1.0667 Y1.3904  
G01 X-1.0653 Y1.3835  
G01 X-1.0653 Y1.3165  
G01 X-1.0667 Y1.3096  
G01 X-1.0693 Y1.3032  
G01 X-1.0732 Y1.2974  
G01 X-1.0782 Y1.2924  
G01 X-1.0785 Y1.2922  
G01 X-1.0785 Y1.1738  
G01 X-1.0653 Y1.1870  
G01 X-1.0347 Y1.1870  
G01 X-1.0130 Y1.1653  
G01 X-1.0130 Y1.1347  
G01 X-1.0347 Y1.1130  
G01 X-1.0653 Y1.1130  
G01 X-1.0808 Y1.1285  
G01 X-1.1770 Y1.1285  
G01 X-1.1870 Y1.1185  
G01 X-1.2130 Y1.1185  
G01 X-1.2230 Y1.1285  
G01 X-1.3411 Y1.1285  
G01 X-1.3685 Y1.1011  
G01 X-1.3685 Y1.0870  
G01 X-1.3870 Y1.0685  
G01 X-1.3961 Y1.0685  
G01 X-1.4038 Y1.0242  
G01 X-1.4041 Y1.0218  
G01 X-1.4042 Y1.0216  
G01 X-1.4042 Y1.0213  
G01 X-1.4043 Y1.0212  
G01 X-1.4043 Y1.0211  
G01 X-1.4053 Y1.0188  
G01 X-1.4063 Y1.0165  
G01 X-1.4064 Y1.0164  
G01 X-1.4065 Y1.0162  
G01 X-1.4066 Y1.0161  
G01 X-1.4067 Y1.0159  
G01 X-1.4082 Y1.0140  
G01 X-1.4098 Y1.0121  
G01 X-1.4099 Y1.0119  
G01 X-1.4101 Y1.0118  
G01 X-1.4102 Y1.0117  
G01 X-1.4103 Y1.0116  
G01 X-1.4123 Y1.0101  
G01 X-1.4143 Y1.0086  
G01 X-1.4145 Y1.0086  
G01 X-1.4146 Y1.0084  
G01 X-1.4148 Y1.0084  
G01 X-1.4149 Y1.0083  
G01 X-1.4172 Y1.0074  
G01 X-1.4194 Y1.0066  
G01 X-1.4166 Y0.9924  
G01 X-1.4160 Y0.9903  
G01 X-1.4160 Y0.9896  
G01 X-1.4159 Y0.9889  
G01 X-1.4160 Y0.9868  
G01 X-1.4160 Y0.8702  
G01 X-1.4160 Y0.8701  
G01 X-1.4160 Y0.8674  
G01 X-1.4160 Y0.8647  
G01 X-1.4160 Y0.8645  
G01 X-1.4160 Y0.8644  
G01 X-1.4168 Y0.8618  
G01 X-1.4175 Y0.8592  
G01 X-1.4175 Y0.8591  
G01 X-1.4176 Y0.8590  
G01 X-1.4189 Y0.8566  
G01 X-1.4203 Y0.8543  
G01 X-1.5110 Y0.7016  
G01 X-1.5110 Y0.6899  
G01 X-1.4593 Y0.5818  
G01 X-1.4535 Y0.5827  
G01 X-1.4465 Y0.5827  
G01 X-1.4396 Y0.5816  
G01 X-1.4329 Y0.5795  
G01 X-1.4267 Y0.5763  
G01 X-1.4210 Y0.5722  
G01 X-1.4161 Y0.5672  
G01 X-1.4119 Y0.5615  
G01 X-1.4088 Y0.5553  
G01 X-1.4066 Y0.5486  
G01 X-1.4055 Y0.5417  
G01 X-1.4055 Y0.4567  
G01 X-1.4066 Y0.4498  
G01 X-1.4088 Y0.4431  
G01 X-1.4119 Y0.4369  
G01 X-1.4161 Y0.4312  
G01 X-1.4210 Y0.4263  
G01 X-1.4267 Y0.4222  
G01 X-1.4329 Y0.4190  
G01 X-1.4396 Y0.4168  
G01 X-1.4465 Y0.4157  
G01 X-1.4535 Y0.4157  
G01 X-1.4604 Y0.4168  
G01 X-1.4671 Y0.4190  
G01 X-1.4733 Y0.4222  
G01 X-1.4790 Y0.4263  
G01 X-1.4839 Y0.4312  
G01 X-1.4881 Y0.4369  
G01 X-1.4912 Y0.4431  
G01 X-1.4934 Y0.4498  
G01 X-1.4945 Y0.4567  
G01 X-1.4945 Y0.5417  
G01 X-1.4934 Y0.5486  
G01 X-1.4925 Y0.5515  
G01 X-1.5456 Y0.6627  
G01 X-1.6946 Y0.6536  
G01 X-1.6958 Y0.6534  
G01 X-1.6974 Y0.6535  
G01 X-1.6990 Y0.6534  
G01 X-1.7002 Y0.6536  
G01 X-1.7456 Y0.6560  
G01 X-1.8485 Y0.6560  
G01 X-1.8485 Y0.1340  
G01 X-1.6877 Y0.1340  
G01 X-1.6701 Y0.1516  
G01 X-1.6299 Y0.1516  
G01 X-1.6123 Y0.1340  
G01 X-1.5877 Y0.1340  
G01 X-1.5701 Y0.1516  
G01 X-1.5299 Y0.1516  
G01 X-1.5123 Y0.1340  
G01 X-1.3877 Y0.1340  
G01 X-1.3701 Y0.1516  
G01 X-1.3299 Y0.1516  
G01 X-1.3123 Y0.1340  
G01 X-1.2877 Y0.1340  
G01 X-1.2701 Y0.1516  
G01 X-1.2299 Y0.1516  
G01 X-1.2123 Y0.1340  
G01 X-0.8377 Y0.1340  
G01 X-0.8201 Y0.1516  
G01 X-0.7799 Y0.1516  
G01 X-0.7623 Y0.1340  
G01 X-0.7377 Y0.1340  
G01 X-0.7201 Y0.1516  
G01 X-0.6799 Y0.1516  
G01 X-0.6623 Y0.1340  
G01 X-0.6215 Y0.1340  
G01 X-0.6215 Y0.4212  
G01 X-0.6233 Y0.4222  
G01 X-0.6290 Y0.4263  
G01 X-0.6339 Y0.4312  
G01 X-0.6381 Y0.4369  
G01 X-0.6412 Y0.4431  
G01 X-0.6434 Y0.4498  
G01 X-0.6445 Y0.4567  
G01 X-0.6445 Y0.5417  
G01 X-0.6434 Y0.5486  
G01 X-0.6412 Y0.5553  
G01 X-0.6381 Y0.5615  
G01 X-0.6339 Y0.5672  
G01 X-0.6290 Y0.5722  
G01 X-0.6233 Y0.5763  
G01 X-0.6171 Y0.5795  
G01 X-0.6104 Y0.5816  
G01 X-0.6035 Y0.5827  
G01 X-0.5965 Y0.5827  
G01 X-0.5896 Y0.5816  
G01 X-0.5829 Y0.5795  
G01 X-0.5767 Y0.5763  
G01 X-0.5710 Y0.5722  
G01 X-0.5661 Y0.5672  
G01 X-0.5619 Y0.5615  
G01 X-0.5588 Y0.5553  
G01 X-0.5566 Y0.5486  
G01 X-0.5555 Y0.5417  
G01 X-0.5555 Y0.4567  
G01 X-0.5566 Y0.4498  
G01 X-0.5588 Y0.4431  
G01 X-0.5619 Y0.4369  
G01 X-0.5661 Y0.4312  
G01 X-0.5710 Y0.4263  
G01 X-0.5767 Y0.4222  
G01 X-0.5785 Y0.4212  
G01 X-0.5785 Y0.1340  
G01 X-0.5377 Y0.1340  
G01 X-0.5201 Y0.1516  
G01 X-0.4799 Y0.1516  
G01 X-0.4623 Y0.1340  
G01 X-0.4377 Y0.1340  
G01 X-0.4215 Y0.1502  
G01 X-0.4215 Y0.2028  
G01 X-0.4200 Y0.2083  
G01 X-0.4172 Y0.2132  
G01 X-0.4132 Y0.2172  
G01 X-0.1340 Y0.4964  
G01 X-0.1340 Y0.9623  
G01 X-0.1516 Y0.9799  
G01 X-0.1516 Y1.0201  
G01 X-0.1232 Y1.0485  
G01 X-0.1215 Y1.0485  
G01 X-0.1215 Y1.0515  
G01 X-0.1232 Y1.0515  
G01 X-0.1516 Y1.0799  
G01 X-0.1516 Y1.1201  
G01 X-0.1232 Y1.1485  
G01 X-0.1215 Y1.1485  
G01 X-0.1215 Y1.2515  
G01 X-0.1232 Y1.2515  
G01 X-0.1516 Y1.2799  
G01 X-0.1516 Y1.3201  
G01 X-0.1232 Y1.3485  
G01 X-0.1215 Y1.3485  
G01 X-0.1215 Y1.3515  
G01 X-0.1232 Y1.3515  
G01 X-0.1516 Y1.3799  
G01 X-0.1516 Y1.4201  
G01 X-0.1232 Y1.4485  
G01 X-0.0831 Y1.4485  
G01 X-0.0546 Y1.4201  
G01 X-0.0546 Y1.3799  
G01 X-0.0785 Y1.3561  
G01 X-0.0785 Y1.3439  
G01 X-0.0546 Y1.3201  
G01 X-0.0546 Y1.2799  
G01 X-0.0785 Y1.2561  
G01 X-0.0785 Y1.1439  
G01 X-0.0546 Y1.1201  
G01 X-0.0546 Y1.0799  
G01 X-0.0785 Y1.0561  
G01 X-0.0785 Y1.0439  
G01 X-0.0546 Y1.0201  
G01 X-0.0546 Y0.9799  
G01 X-0.0831 Y0.9515  
G01 X-0.0910 Y0.9515  
G01 X-0.0910 Y0.4847  
G01 X-0.0925 Y0.4792  
G01 X-0.0953 Y0.4743  
G01 X-0.3785 Y0.1911  
G01 X-0.3785 Y0.1502  
G01 X-0.3515 Y0.1232  
G01 X-0.3515 Y0.0831  
G00 Z0.0500  
G00 X-0.3240 Y0.4468  
G01 Z-0.0035 F10    
G01 X-0.3524 Y0.4752  F20    
G01 X-0.3524 Y0.5154  
G01 X-0.3240 Y0.5438  
G01 X-0.2838 Y0.5438  
G01 X-0.2554 Y0.5154  
G01 X-0.2554 Y0.4752  
G01 X-0.2838 Y0.4468  
G01 X-0.3240 Y0.4468  
G00 Z0.0500  
G00 X-0.3515 Y0.5712  
G01 Z-0.0035 F10    
G01 X-0.3799 Y0.5428  F20    
G01 X-0.4201 Y0.5428  
G01 X-0.4485 Y0.5712  
G01 X-0.4485 Y0.6114  
G01 X-0.4201 Y0.6398  
G01 X-0.3819 Y0.6398  
G01 X-0.3215 Y0.7002  
G01 X-0.3215 Y1.5373  
G01 X-0.4856 Y1.6285  
G01 X-1.8982 Y1.6285  
G01 X-2.1954 Y1.5790  
G01 X-2.1972 Y1.5785  
G01 X-2.1982 Y1.5785  
G01 X-2.1993 Y1.5783  
G01 X-2.2010 Y1.5785  
G01 X-2.3770 Y1.5785  
G01 X-2.3870 Y1.5685  
G01 X-2.4130 Y1.5685  
G01 X-2.4315 Y1.5870  
G01 X-2.4315 Y1.6130  
G01 X-2.4130 Y1.6315  
G01 X-2.3870 Y1.6315  
G01 X-2.3770 Y1.6215  
G01 X-2.2018 Y1.6215  
G01 X-1.9046 Y1.6710  
G01 X-1.9028 Y1.6715  
G01 X-1.9018 Y1.6715  
G01 X-1.9007 Y1.6717  
G01 X-1.8990 Y1.6715  
G01 X-0.4802 Y1.6715  
G01 X-0.4775 Y1.6715  
G01 X-0.4773 Y1.6715  
G01 X-0.4772 Y1.6715  
G01 X-0.4746 Y1.6708  
G01 X-0.4720 Y1.6702  
G01 X-0.4719 Y1.6701  
G01 X-0.4717 Y1.6700  
G01 X-0.4694 Y1.6687  
G01 X-0.2919 Y1.5701  
G01 X-0.2917 Y1.5700  
G01 X-0.2894 Y1.5687  
G01 X-0.2871 Y1.5674  
G01 X-0.2870 Y1.5673  
G01 X-0.2868 Y1.5672  
G01 X-0.2849 Y1.5653  
G01 X-0.2830 Y1.5635  
G01 X-0.2829 Y1.5633  
G01 X-0.2828 Y1.5632  
G01 X-0.2815 Y1.5609  
G01 X-0.2801 Y1.5586  
G01 X-0.2801 Y1.5585  
G01 X-0.2800 Y1.5583  
G01 X-0.2793 Y1.5557  
G01 X-0.2785 Y1.5532  
G01 X-0.2785 Y1.5530  
G01 X-0.2785 Y1.5528  
G01 X-0.2785 Y1.5502  
G01 X-0.2785 Y1.5475  
G01 X-0.2785 Y1.5473  
G01 X-0.2785 Y0.6885  
G01 X-0.2800 Y0.6830  
G01 X-0.2828 Y0.6781  
G01 X-0.3515 Y0.6094  
G01 X-0.3515 Y0.5712  
G00 Z0.0500  
G00 X-0.7515 Y0.5712  
G01 Z-0.0035 F10    
G01 X-0.7799 Y0.5428  F20    
G01 X-0.8201 Y0.5428  
G01 X-0.8485 Y0.5712  
G01 X-0.8485 Y0.6114  
G01 X-0.8201 Y0.6398  
G01 X-0.7970 Y0.6398  
G01 X-0.6815 Y0.7938  
G01 X-0.6815 Y0.8130  
G01 X-0.6630 Y0.8315  
G01 X-0.6370 Y0.8315  
G01 X-0.6185 Y0.8130  
G01 X-0.6185 Y0.7870  
G01 X-0.6370 Y0.7685  
G01 X-0.6468 Y0.7685  
G01 X-0.7590 Y0.6189  
G01 X-0.7515 Y0.6114  
G01 X-0.7515 Y0.5712  
G00 Z0.0500  
G00 X-0.8799 Y0.5438  
G01 Z-0.0035 F10    
G01 X-0.8515 Y0.5154  F20    
G01 X-0.8515 Y0.4752  
G01 X-0.8799 Y0.4468  
G01 X-0.9201 Y0.4468  
G01 X-0.9485 Y0.4752  
G01 X-0.9485 Y0.5154  
G01 X-0.9201 Y0.5438  
G01 X-0.8799 Y0.5438  
G00 Z0.0500  
G00 X-1.0228 Y0.5432  
G01 Z-0.0035 F10    
G01 X-1.0200 Y0.5383  F20    
G01 X-1.0185 Y0.5328  
G01 X-1.0185 Y0.4172  
G01 X-1.0200 Y0.4117  
G01 X-1.0228 Y0.4068  
G01 X-1.0728 Y0.3568  
G01 X-1.0768 Y0.3528  
G01 X-1.0817 Y0.3500  
G01 X-1.0872 Y0.3485  
G01 X-1.5828 Y0.3485  
G01 X-1.5883 Y0.3500  
G01 X-1.5932 Y0.3528  
G01 X-1.6632 Y0.4228  
G01 X-1.6672 Y0.4268  
G01 X-1.6700 Y0.4317  
G01 X-1.6715 Y0.4372  
G01 X-1.6715 Y0.5442  
G01 X-1.6985 Y0.5712  
G01 X-1.6985 Y0.6114  
G01 X-1.6701 Y0.6398  
G01 X-1.6299 Y0.6398  
G01 X-1.6015 Y0.6114  
G01 X-1.6015 Y0.5712  
G01 X-1.6285 Y0.5442  
G01 X-1.6285 Y0.4489  
G01 X-1.5711 Y0.3915  
G01 X-1.0989 Y0.3915  
G01 X-1.0615 Y0.4289  
G01 X-1.0615 Y0.5211  
G01 X-1.1172 Y0.5768  
G01 X-1.1200 Y0.5817  
G01 X-1.1215 Y0.5872  
G01 X-1.1215 Y0.6270  
G01 X-1.1315 Y0.6370  
G01 X-1.1315 Y0.6630  
G01 X-1.1130 Y0.6815  
G01 X-1.0870 Y0.6815  
G01 X-1.0685 Y0.6630  
G01 X-1.0685 Y0.6370  
G01 X-1.0785 Y0.6270  
G01 X-1.0785 Y0.5989  
G01 X-1.0268 Y0.5472  
G01 X-1.0228 Y0.5432  
G00 Z0.0500  
G00 X-1.1054 Y0.5154  
G01 Z-0.0035 F10    
G01 X-1.1054 Y0.4752  F20    
G01 X-1.1338 Y0.4468  
G01 X-1.1740 Y0.4468  
G01 X-1.2024 Y0.4752  
G01 X-1.2024 Y0.5154  
G01 X-1.1740 Y0.5438  
G01 X-1.1338 Y0.5438  
G01 X-1.1054 Y0.5154  
G00 Z0.0500  
G00 X-1.2015 Y0.5712  
G01 Z-0.0035 F10    
G01 X-1.2299 Y0.5428  F20    
G01 X-1.2701 Y0.5428  
G01 X-1.2985 Y0.5712  
G01 X-1.2985 Y0.5785  
G01 X-1.3478 Y0.5785  
G01 X-1.3484 Y0.5784  
G01 X-1.3506 Y0.5785  
G01 X-1.3528 Y0.5785  
G01 X-1.3534 Y0.5787  
G01 X-1.3541 Y0.5787  
G01 X-1.3562 Y0.5794  
G01 X-1.3583 Y0.5800  
G01 X-1.3589 Y0.5803  
G01 X-1.3595 Y0.5805  
G01 X-1.3613 Y0.5817  
G01 X-1.3632 Y0.5828  
G01 X-1.3637 Y0.5832  
G01 X-1.3642 Y0.5836  
G01 X-1.3656 Y0.5852  
G01 X-1.3672 Y0.5868  
G01 X-1.3675 Y0.5874  
G01 X-1.3679 Y0.5878  
G01 X-1.3689 Y0.5898  
G01 X-1.3700 Y0.5917  
G01 X-1.3702 Y0.5923  
G01 X-1.3705 Y0.5929  
G01 X-1.3709 Y0.5950  
G01 X-1.3715 Y0.5972  
G01 X-1.3715 Y0.5978  
G01 X-1.3716 Y0.5984  
G01 X-1.3715 Y0.6006  
G01 X-1.3715 Y0.6028  
G01 X-1.3713 Y0.6034  
G01 X-1.3628 Y0.7483  
G01 X-1.3715 Y0.7570  
G01 X-1.3715 Y0.7830  
G01 X-1.3530 Y0.8015  
G01 X-1.3270 Y0.8015  
G01 X-1.3085 Y0.7830  
G01 X-1.3085 Y0.7570  
G01 X-1.3199 Y0.7456  
G01 X-1.3272 Y0.6215  
G01 X-1.2884 Y0.6215  
G01 X-1.2701 Y0.6398  
G01 X-1.2299 Y0.6398  
G01 X-1.2015 Y0.6114  
G01 X-1.2015 Y0.5712  
G00 Z0.0500  
G00 X-1.2285 Y0.9070  
G01 Z-0.0035 F10    
G01 X-1.2470 Y0.8885  F20    
G01 X-1.2730 Y0.8885  
G01 X-1.2915 Y0.9070  
G01 X-1.2915 Y0.9330  
G01 X-1.2730 Y0.9515  
G01 X-1.2691 Y0.9515  
G01 X-1.2303 Y1.0357  
G01 X-1.2315 Y1.0370  
G01 X-1.2315 Y1.0630  
G01 X-1.2130 Y1.0815  
G01 X-1.1870 Y1.0815  
G01 X-1.1770 Y1.0715  
G01 X-1.0801 Y1.0715  
G01 X-1.0787 Y1.0736  
G01 X-1.0736 Y1.0787  
G01 X-1.0675 Y1.0828  
G01 X-1.0608 Y1.0856  
G01 X-1.0536 Y1.0870  
G01 X-1.0464 Y1.0870  
G01 X-1.0392 Y1.0856  
G01 X-1.0343 Y1.0836  
G01 X-0.9965 Y1.1214  
G01 X-0.9965 Y1.4285  
G01 X-1.3514 Y1.4285  
G01 X-1.5797 Y1.1090  
G01 X-1.5315 Y1.1090  
G01 X-1.5315 Y1.1130  
G01 X-1.5130 Y1.1315  
G01 X-1.4870 Y1.1315  
G01 X-1.4685 Y1.1130  
G01 X-1.4685 Y1.0870  
G01 X-1.4870 Y1.0685  
G01 X-1.5024 Y1.0685  
G01 X-1.5042 Y1.0675  
G01 X-1.5097 Y1.0660  
G01 X-1.6411 Y1.0660  
G01 X-1.6548 Y1.0523  
G01 X-1.6554 Y1.0514  
G01 X-1.6568 Y1.0503  
G01 X-1.6580 Y1.0490  
G01 X-1.6590 Y1.0485  
G01 X-1.6598 Y1.0478  
G01 X-1.6614 Y1.0471  
G01 X-1.6630 Y1.0462  
G01 X-1.6640 Y1.0459  
G01 X-1.6649 Y1.0455  
G01 X-1.6667 Y1.0452  
G01 X-1.6684 Y1.0448  
G01 X-1.6695 Y1.0448  
G01 X-1.6705 Y1.0446  
G01 X-1.6723 Y1.0448  
G01 X-1.6741 Y1.0448  
G01 X-1.6751 Y1.0450  
G01 X-1.8385 Y1.0610  
G01 X-2.1785 Y1.0610  
G01 X-2.1785 Y1.0230  
G01 X-2.1755 Y1.0201  
G01 X-2.1721 Y1.0149  
G01 X-2.1697 Y1.0092  
G01 X-2.1685 Y1.0031  
G01 X-2.1685 Y0.9449  
G01 X-2.1697 Y0.9388  
G01 X-2.1721 Y0.9331  
G01 X-2.1755 Y0.9279  
G01 X-2.1799 Y0.9235  
G01 X-2.1851 Y0.9201  
G01 X-2.1908 Y0.9177  
G01 X-2.1969 Y0.9165  
G01 X-2.2031 Y0.9165  
G01 X-2.2092 Y0.9177  
G01 X-2.2149 Y0.9201  
G01 X-2.2201 Y0.9235  
G01 X-2.2245 Y0.9279  
G01 X-2.2279 Y0.9331  
G01 X-2.2303 Y0.9388  
G01 X-2.2315 Y0.9449  
G01 X-2.2315 Y0.9602  
G01 X-2.3685 Y0.8917  
G01 X-2.3685 Y0.8870  
G01 X-2.3870 Y0.8685  
G01 X-2.4130 Y0.8685  
G01 X-2.4182 Y0.8736  
G01 X-2.4352 Y0.8696  
G01 X-2.4355 Y0.8695  
G01 X-2.4379 Y0.8690  
G01 X-2.4403 Y0.8684  
G01 X-2.4407 Y0.8684  
G01 X-2.5483 Y0.8469  
G01 X-2.5485 Y0.8468  
G01 X-2.5510 Y0.8464  
G01 X-2.5536 Y0.8459  
G01 X-2.5538 Y0.8459  
G01 X-2.6885 Y0.8221  
G01 X-2.6885 Y0.8170  
G01 X-2.7070 Y0.7985  
G01 X-2.7330 Y0.7985  
G01 X-2.7515 Y0.8170  
G01 X-2.7515 Y0.8430  
G01 X-2.7330 Y0.8615  
G01 X-2.7127 Y0.8615  
G01 X-2.5590 Y0.8886  
G01 X-2.4471 Y0.9110  
G01 X-2.4294 Y0.9152  
G01 X-2.4130 Y0.9315  
G01 X-2.3870 Y0.9315  
G01 X-2.3863 Y0.9309  
G01 X-2.2304 Y1.0089  
G01 X-2.2303 Y1.0092  
G01 X-2.2279 Y1.0149  
G01 X-2.2245 Y1.0201  
G01 X-2.2215 Y1.0230  
G01 X-2.2215 Y1.1411  
G01 X-2.4799 Y1.3995  
G01 X-2.4851 Y1.3961  
G01 X-2.4908 Y1.3937  
G01 X-2.4969 Y1.3925  
G01 X-2.5031 Y1.3925  
G01 X-2.5092 Y1.3937  
G01 X-2.5149 Y1.3961  
G01 X-2.5201 Y1.3995  
G01 X-2.5245 Y1.4039  
G01 X-2.5279 Y1.4091  
G01 X-2.5303 Y1.4148  
G01 X-2.5315 Y1.4209  
G01 X-2.5315 Y1.4791  
G01 X-2.5303 Y1.4852  
G01 X-2.5279 Y1.4909  
G01 X-2.5245 Y1.4961  
G01 X-2.5215 Y1.4990  
G01 X-2.5215 Y1.5818  
G01 X-2.5245 Y1.5851  
G01 X-2.5420 Y1.6031  
G01 X-2.5603 Y1.6201  
G01 X-2.5795 Y1.6361  
G01 X-2.5996 Y1.6511  
G01 X-2.6203 Y1.6650  
G01 X-2.6261 Y1.6685  
G01 X-2.7749 Y1.6685  
G01 X-2.8498 Y1.6311  
G01 X-2.8517 Y1.6300  
G01 X-2.8523 Y1.6298  
G01 X-2.8529 Y1.6295  
G01 X-2.8551 Y1.6291  
G01 X-2.8572 Y1.6285  
G01 X-2.8578 Y1.6285  
G01 X-2.8585 Y1.6284  
G01 X-2.8606 Y1.6285  
G01 X-3.2911 Y1.6285  
G01 X-3.6685 Y1.2511  
G01 X-3.6685 Y0.7630  
G01 X-3.6585 Y0.7530  
G01 X-3.6585 Y0.7270  
G01 X-3.6770 Y0.7085  
G01 X-3.7030 Y0.7085  
G01 X-3.7215 Y0.7270  
G01 X-3.7215 Y0.7530  
G01 X-3.7115 Y0.7630  
G01 X-3.7115 Y1.2628  
G01 X-3.7100 Y1.2683  
G01 X-3.7072 Y1.2732  
G01 X-3.7032 Y1.2772  
G01 X-3.3172 Y1.6632  
G01 X-3.3132 Y1.6672  
G01 X-3.3083 Y1.6700  
G01 X-3.3028 Y1.6715  
G01 X-2.8651 Y1.6715  
G01 X-2.7902 Y1.7089  
G01 X-2.7883 Y1.7100  
G01 X-2.7877 Y1.7102  
G01 X-2.7871 Y1.7105  
G01 X-2.7849 Y1.7109  
G01 X-2.7828 Y1.7115  
G01 X-2.7822 Y1.7115  
G01 X-2.7815 Y1.7116  
G01 X-2.7794 Y1.7115  
G01 X-2.6227 Y1.7115  
G01 X-2.6225 Y1.7115  
G01 X-2.6199 Y1.7115  
G01 X-2.6172 Y1.7115  
G01 X-2.6170 Y1.7115  
G01 X-2.6169 Y1.7115  
G01 X-2.6143 Y1.7107  
G01 X-2.6117 Y1.7100  
G01 X-2.6116 Y1.7100  
G01 X-2.6114 Y1.7099  
G01 X-2.6091 Y1.7085  
G01 X-2.6068 Y1.7072  
G01 X-2.6067 Y1.7071  
G01 X-2.5973 Y1.7015  
G01 X-2.5746 Y1.6863  
G01 X-2.5528 Y1.6700  
G01 X-2.5318 Y1.6525  
G01 X-2.5118 Y1.6340  
G01 X-2.4928 Y1.6144  
G01 X-2.4843 Y1.6047  
G01 X-2.4828 Y1.6032  
G01 X-2.4824 Y1.6026  
G01 X-2.4820 Y1.6020  
G01 X-2.4810 Y1.6001  
G01 X-2.4800 Y1.5983  
G01 X-2.4798 Y1.5976  
G01 X-2.4795 Y1.5969  
G01 X-2.4790 Y1.5949  
G01 X-2.4785 Y1.5928  
G01 X-2.4785 Y1.5921  
G01 X-2.4784 Y1.5914  
G01 X-2.4785 Y1.5893  
G01 X-2.4785 Y1.4990  
G01 X-2.4755 Y1.4961  
G01 X-2.4721 Y1.4909  
G01 X-2.4697 Y1.4852  
G01 X-2.4685 Y1.4791  
G01 X-2.4685 Y1.4489  
G01 X-2.1868 Y1.1672  
G01 X-2.1828 Y1.1632  
G01 X-2.1800 Y1.1583  
G01 X-2.1785 Y1.1528  
G01 X-2.1785 Y1.1040  
G01 X-1.8393 Y1.1040  
G01 X-1.8382 Y1.1042  
G01 X-1.8365 Y1.1040  
G01 X-1.8347 Y1.1040  
G01 X-1.8336 Y1.1037  
G01 X-1.6793 Y1.0886  
G01 X-1.6632 Y1.1047  
G01 X-1.6583 Y1.1075  
G01 X-1.6528 Y1.1090  
G01 X-1.6321 Y1.1090  
G01 X-1.6320 Y1.1092  
G01 X-1.6316 Y1.1102  
G01 X-1.6306 Y1.1117  
G01 X-1.6297 Y1.1132  
G01 X-1.6290 Y1.1139  
G01 X-1.3806 Y1.4617  
G01 X-1.3797 Y1.4632  
G01 X-1.3790 Y1.4639  
G01 X-1.3784 Y1.4648  
G01 X-1.3770 Y1.4659  
G01 X-1.3757 Y1.4672  
G01 X-1.3748 Y1.4677  
G01 X-1.3740 Y1.4684  
G01 X-1.3723 Y1.4691  
G01 X-1.3708 Y1.4700  
G01 X-1.3698 Y1.4703  
G01 X-1.3688 Y1.4707  
G01 X-1.3671 Y1.4710  
G01 X-1.3653 Y1.4715  
G01 X-1.3643 Y1.4715  
G01 X-1.3632 Y1.4717  
G01 X-1.3615 Y1.4715  
G01 X-0.9722 Y1.4715  
G01 X-0.9667 Y1.4700  
G01 X-0.9618 Y1.4672  
G01 X-0.9578 Y1.4632  
G01 X-0.9550 Y1.4583  
G01 X-0.9535 Y1.4528  
G01 X-0.9535 Y1.1097  
G01 X-0.9550 Y1.1042  
G01 X-0.9578 Y1.0993  
G01 X-0.9618 Y1.0953  
G01 X-1.0133 Y1.0437  
G01 X-0.9911 Y1.0215  
G01 X-0.9039 Y1.0215  
G01 X-0.8994 Y1.0260  
G01 X-0.8939 Y1.0297  
G01 X-0.8878 Y1.0322  
G01 X-0.8813 Y1.0335  
G01 X-0.8187 Y1.0335  
G01 X-0.8122 Y1.0322  
G01 X-0.8061 Y1.0297  
G01 X-0.8006 Y1.0260  
G01 X-0.7960 Y1.0214  
G01 X-0.7923 Y1.0159  
G01 X-0.7898 Y1.0098  
G01 X-0.7885 Y1.0033  
G01 X-0.7885 Y0.9967  
G01 X-0.7898 Y0.9902  
G01 X-0.7923 Y0.9841  
G01 X-0.7960 Y0.9786  
G01 X-0.8006 Y0.9740  
G01 X-0.8061 Y0.9703  
G01 X-0.8122 Y0.9678  
G01 X-0.8187 Y0.9665  
G01 X-0.8813 Y0.9665  
G01 X-0.8878 Y0.9678  
G01 X-0.8939 Y0.9703  
G01 X-0.8994 Y0.9740  
G01 X-0.9039 Y0.9785  
G01 X-1.0028 Y0.9785  
G01 X-1.0083 Y0.9800  
G01 X-1.0132 Y0.9828  
G01 X-1.0439 Y1.0135  
G01 X-1.0464 Y1.0130  
G01 X-1.0536 Y1.0130  
G01 X-1.0608 Y1.0144  
G01 X-1.0675 Y1.0172  
G01 X-1.0736 Y1.0213  
G01 X-1.0787 Y1.0264  
G01 X-1.0801 Y1.0285  
G01 X-1.1770 Y1.0285  
G01 X-1.1870 Y1.0185  
G01 X-1.1909 Y1.0185  
G01 X-1.2126 Y0.9715  
G01 X-1.1230 Y0.9715  
G01 X-1.1130 Y0.9815  
G01 X-1.0870 Y0.9815  
G01 X-1.0685 Y0.9630  
G01 X-1.0685 Y0.9489  
G01 X-0.9511 Y0.8315  
G01 X-0.9370 Y0.8315  
G01 X-0.9185 Y0.8130  
G01 X-0.9185 Y0.7870  
G01 X-0.9370 Y0.7685  
G01 X-0.9630 Y0.7685  
G01 X-0.9815 Y0.7870  
G01 X-0.9815 Y0.8011  
G01 X-1.0989 Y0.9185  
G01 X-1.1130 Y0.9185  
G01 X-1.1230 Y0.9285  
G01 X-1.2211 Y0.9285  
G01 X-1.2285 Y0.9211  
G01 X-1.2285 Y0.9070  
G00 Z0.0500  
G00 X-1.5285 Y0.9070  
G01 Z-0.0035 F10    
G01 X-1.5470 Y0.8885  F20    
G01 X-1.5730 Y0.8885  
G01 X-1.5755 Y0.8909  
G01 X-1.6599 Y0.8716  
G01 X-1.7945 Y0.8367  
G01 X-1.7972 Y0.8360  
G01 X-1.7973 Y0.8360  
G01 X-1.8001 Y0.8360  
G01 X-1.9910 Y0.8360  
G01 X-1.9923 Y0.8358  
G01 X-1.9927 Y0.8359  
G01 X-2.5520 Y0.7765  
G01 X-2.6879 Y0.7182  
G01 X-2.6892 Y0.7175  
G01 X-2.6904 Y0.7171  
G01 X-2.6916 Y0.7166  
G01 X-2.6932 Y0.7164  
G01 X-2.6947 Y0.7160  
G01 X-2.6960 Y0.7160  
G01 X-2.6972 Y0.7158  
G01 X-2.6988 Y0.7160  
G01 X-2.7403 Y0.7160  
G01 X-2.7458 Y0.7175  
G01 X-2.7507 Y0.7203  
G01 X-2.8132 Y0.7828  
G01 X-2.8172 Y0.7868  
G01 X-2.8200 Y0.7917  
G01 X-2.8215 Y0.7972  
G01 X-2.8215 Y0.8853  
G01 X-2.8200 Y0.8908  
G01 X-2.8172 Y0.8957  
G01 X-2.8085 Y0.9044  
G01 X-2.8074 Y0.9057  
G01 X-2.8065 Y0.9064  
G01 X-2.8057 Y0.9072  
G01 X-2.8042 Y0.9081  
G01 X-2.6246 Y1.0385  
G01 X-2.6243 Y1.0388  
G01 X-2.6223 Y1.0402  
G01 X-2.6203 Y1.0416  
G01 X-2.6199 Y1.0417  
G01 X-2.5661 Y1.0776  
G01 X-2.5315 Y1.1382  
G01 X-2.5315 Y1.1791  
G01 X-2.5303 Y1.1852  
G01 X-2.5279 Y1.1909  
G01 X-2.5245 Y1.1961  
G01 X-2.5201 Y1.2005  
G01 X-2.5149 Y1.2039  
G01 X-2.5092 Y1.2063  
G01 X-2.5031 Y1.2075  
G01 X-2.4969 Y1.2075  
G01 X-2.4908 Y1.2063  
G01 X-2.4851 Y1.2039  
G01 X-2.4799 Y1.2005  
G01 X-2.4755 Y1.1961  
G01 X-2.4721 Y1.1909  
G01 X-2.4697 Y1.1852  
G01 X-2.4685 Y1.1791  
G01 X-2.4685 Y1.1209  
G01 X-2.4697 Y1.1148  
G01 X-2.4721 Y1.1091  
G01 X-2.4755 Y1.1039  
G01 X-2.4799 Y1.0995  
G01 X-2.4851 Y1.0961  
G01 X-2.4908 Y1.0937  
G01 X-2.4969 Y1.0925  
G01 X-2.5031 Y1.0925  
G01 X-2.5076 Y1.0934  
G01 X-2.5310 Y1.0524  
G01 X-2.5320 Y1.0504  
G01 X-2.5324 Y1.0499  
G01 X-2.5327 Y1.0494  
G01 X-2.5343 Y1.0478  
G01 X-2.5357 Y1.0462  
G01 X-2.5363 Y1.0458  
G01 X-2.5367 Y1.0454  
G01 X-2.5386 Y1.0443  
G01 X-2.5977 Y1.0049  
G01 X-2.7785 Y0.8736  
G01 X-2.7785 Y0.8089  
G01 X-2.7286 Y0.7590  
G01 X-2.7019 Y0.7590  
G01 X-2.5682 Y0.8163  
G01 X-2.5679 Y0.8165  
G01 X-2.5656 Y0.8174  
G01 X-2.5634 Y0.8184  
G01 X-2.5630 Y0.8184  
G01 X-2.5626 Y0.8186  
G01 X-2.5602 Y0.8188  
G01 X-2.5578 Y0.8192  
G01 X-2.5574 Y0.8191  
G01 X-2.0169 Y0.8765  
G01 X-2.0240 Y0.9275  
G01 X-2.0245 Y0.9279  
G01 X-2.0279 Y0.9331  
G01 X-2.0303 Y0.9388  
G01 X-2.0315 Y0.9449  
G01 X-2.0315 Y0.9807  
G01 X-2.0336 Y0.9957  
G01 X-2.0340 Y0.9972  
G01 X-2.0340 Y0.9985  
G01 X-2.0342 Y0.9998  
G01 X-2.0340 Y1.0013  
G01 X-2.0340 Y1.0028  
G01 X-2.0337 Y1.0041  
G01 X-2.0335 Y1.0054  
G01 X-2.0329 Y1.0068  
G01 X-2.0325 Y1.0083  
G01 X-2.0319 Y1.0094  
G01 X-2.0314 Y1.0107  
G01 X-2.0305 Y1.0119  
G01 X-2.0297 Y1.0132  
G01 X-2.0288 Y1.0141  
G01 X-2.0280 Y1.0152  
G01 X-2.0275 Y1.0156  
G01 X-2.0245 Y1.0201  
G01 X-2.0201 Y1.0245  
G01 X-2.0149 Y1.0279  
G01 X-2.0092 Y1.0303  
G01 X-2.0031 Y1.0315  
G01 X-1.9969 Y1.0315  
G01 X-1.9908 Y1.0303  
G01 X-1.9851 Y1.0279  
G01 X-1.9799 Y1.0245  
G01 X-1.9755 Y1.0201  
G01 X-1.9721 Y1.0149  
G01 X-1.9697 Y1.0092  
G01 X-1.9685 Y1.0031  
G01 X-1.9685 Y0.9449  
G01 X-1.9697 Y0.9388  
G01 X-1.9721 Y0.9331  
G01 X-1.9755 Y0.9279  
G01 X-1.9799 Y0.9235  
G01 X-1.9800 Y0.9234  
G01 X-1.9738 Y0.8790  
G01 X-1.8027 Y0.8790  
G01 X-1.6728 Y0.9127  
G01 X-1.6726 Y0.9128  
G01 X-1.6701 Y0.9134  
G01 X-1.6677 Y0.9140  
G01 X-1.6673 Y0.9140  
G01 X-1.5915 Y0.9314  
G01 X-1.5915 Y0.9330  
G01 X-1.5730 Y0.9515  
G01 X-1.5470 Y0.9515  
G01 X-1.5285 Y0.9330  
G01 X-1.5285 Y0.9070  
G00 Z0.0500  
G00 X-1.6270 Y0.8015  
G01 Z-0.0035 F10    
G01 X-1.6085 Y0.7830  F20    
G01 X-1.6085 Y0.7570  
G01 X-1.6270 Y0.7385  
G01 X-1.6530 Y0.7385  
G01 X-1.6580 Y0.7435  
G01 X-1.6603 Y0.7435  
G01 X-1.6605 Y0.7436  
G01 X-1.7952 Y0.7460  
G01 X-2.0886 Y0.7460  
G01 X-2.1838 Y0.7338  
G01 X-2.2255 Y0.7245  
G01 X-2.2260 Y0.7243  
G01 X-2.2283 Y0.7239  
G01 X-2.2306 Y0.7234  
G01 X-2.2311 Y0.7234  
G01 X-2.3114 Y0.7092  
G01 X-2.3119 Y0.7091  
G01 X-2.3142 Y0.7087  
G01 X-2.3166 Y0.7083  
G01 X-2.3170 Y0.7084  
G01 X-2.6100 Y0.6696  
G01 X-2.6169 Y0.6627  
G01 X-2.6183 Y0.6611  
G01 X-2.6188 Y0.6607  
G01 X-2.6193 Y0.6603  
G01 X-2.6212 Y0.6592  
G01 X-2.6230 Y0.6580  
G01 X-2.6236 Y0.6578  
G01 X-2.6242 Y0.6575  
G01 X-2.6263 Y0.6569  
G01 X-2.6284 Y0.6562  
G01 X-2.6291 Y0.6562  
G01 X-2.6297 Y0.6560  
G01 X-2.6319 Y0.6560  
G01 X-2.8002 Y0.6461  
G01 X-2.8019 Y0.6458  
G01 X-2.8030 Y0.6459  
G01 X-2.8041 Y0.6459  
G01 X-2.8058 Y0.6462  
G01 X-2.8076 Y0.6464  
G01 X-2.8086 Y0.6468  
G01 X-2.8096 Y0.6470  
G01 X-2.8112 Y0.6478  
G01 X-2.8129 Y0.6484  
G01 X-2.8137 Y0.6491  
G01 X-2.8147 Y0.6496  
G01 X-2.8160 Y0.6507  
G01 X-2.9242 Y0.7294  
G01 X-2.9257 Y0.7303  
G01 X-2.9265 Y0.7311  
G01 X-2.9274 Y0.7318  
G01 X-2.9285 Y0.7331  
G01 X-2.9297 Y0.7343  
G01 X-2.9303 Y0.7353  
G01 X-2.9310 Y0.7362  
G01 X-2.9317 Y0.7377  
G01 X-2.9325 Y0.7392  
G01 X-2.9328 Y0.7403  
G01 X-2.9333 Y0.7414  
G01 X-2.9336 Y0.7430  
G01 X-2.9340 Y0.7447  
G01 X-2.9340 Y0.7458  
G01 X-2.9342 Y0.7469  
G01 X-2.9340 Y0.7486  
G01 X-2.9340 Y0.8547  
G01 X-2.9858 Y0.9536  
G01 X-2.9865 Y0.9546  
G01 X-2.9871 Y0.9561  
G01 X-2.9879 Y0.9575  
G01 X-2.9881 Y0.9587  
G01 X-2.9886 Y0.9599  
G01 X-2.9887 Y0.9615  
G01 X-2.9891 Y0.9631  
G01 X-2.9890 Y0.9643  
G01 X-3.0029 Y1.0925  
G01 X-3.0031 Y1.0925  
G01 X-3.0092 Y1.0937  
G01 X-3.0149 Y1.0961  
G01 X-3.0201 Y1.0995  
G01 X-3.0245 Y1.1039  
G01 X-3.0279 Y1.1091  
G01 X-3.0303 Y1.1148  
G01 X-3.0315 Y1.1209  
G01 X-3.0315 Y1.1791  
G01 X-3.0303 Y1.1852  
G01 X-3.0279 Y1.1909  
G01 X-3.0245 Y1.1961  
G01 X-3.0201 Y1.2005  
G01 X-3.0149 Y1.2039  
G01 X-3.0092 Y1.2063  
G01 X-3.0031 Y1.2075  
G01 X-2.9969 Y1.2075  
G01 X-2.9908 Y1.2063  
G01 X-2.9851 Y1.2039  
G01 X-2.9799 Y1.2005  
G01 X-2.9755 Y1.1961  
G01 X-2.9721 Y1.1909  
G01 X-2.9697 Y1.1852  
G01 X-2.9685 Y1.1791  
G01 X-2.9685 Y1.1604  
G01 X-2.9681 Y1.1593  
G01 X-2.9675 Y1.1583  
G01 X-2.9670 Y1.1567  
G01 X-2.9664 Y1.1551  
G01 X-2.9663 Y1.1540  
G01 X-2.9660 Y1.1528  
G01 X-2.9660 Y1.1512  
G01 X-2.9466 Y0.9714  
G01 X-2.8937 Y0.8704  
G01 X-2.8925 Y0.8683  
G01 X-2.8923 Y0.8679  
G01 X-2.8921 Y0.8675  
G01 X-2.8916 Y0.8651  
G01 X-2.8910 Y0.8628  
G01 X-2.8910 Y0.8624  
G01 X-2.8909 Y0.8619  
G01 X-2.8910 Y0.8596  
G01 X-2.8910 Y0.7584  
G01 X-2.7961 Y0.6894  
G01 X-2.6419 Y0.6985  
G01 X-2.6362 Y0.7042  
G01 X-2.6353 Y0.7053  
G01 X-2.6342 Y0.7062  
G01 X-2.6332 Y0.7072  
G01 X-2.6320 Y0.7079  
G01 X-2.6309 Y0.7088  
G01 X-2.6295 Y0.7093  
G01 X-2.6283 Y0.7100  
G01 X-2.6269 Y0.7104  
G01 X-2.6256 Y0.7109  
G01 X-2.6242 Y0.7111  
G01 X-2.6228 Y0.7115  
G01 X-2.6214 Y0.7115  
G01 X-2.3208 Y0.7513  
G01 X-2.2367 Y0.7661  
G01 X-2.1940 Y0.7756  
G01 X-2.1930 Y0.7760  
G01 X-2.1912 Y0.7762  
G01 X-2.1894 Y0.7766  
G01 X-2.1884 Y0.7766  
G01 X-2.0942 Y0.7886  
G01 X-2.0928 Y0.7890  
G01 X-2.0914 Y0.7890  
G01 X-2.0899 Y0.7892  
G01 X-2.0886 Y0.7890  
G01 X-1.7976 Y0.7890  
G01 X-1.7974 Y0.7890  
G01 X-1.7948 Y0.7890  
G01 X-1.7922 Y0.7890  
G01 X-1.7920 Y0.7889  
G01 X-1.6679 Y0.7867  
G01 X-1.6530 Y0.8015  
G01 X-1.6270 Y0.8015  
G00 Z0.0500  
G00 X-1.7299 Y0.5438  
G01 Z-0.0035 F10    
G01 X-1.7015 Y0.5154  F20    
G01 X-1.7015 Y0.4752  
G01 X-1.7299 Y0.4468  
G01 X-1.7701 Y0.4468  
G01 X-1.7985 Y0.4752  
G01 X-1.7985 Y0.5154  
G01 X-1.7701 Y0.5438  
G01 X-1.7299 Y0.5438  
G00 Z0.0500  
G00 X-1.9838 Y0.5438  
G01 Z-0.0035 F10    
G01 X-1.9554 Y0.5154  F20    
G01 X-1.9554 Y0.4752  
G01 X-1.9838 Y0.4468  
G01 X-2.0240 Y0.4468  
G01 X-2.0524 Y0.4752  
G01 X-2.0524 Y0.5154  
G01 X-2.0240 Y0.5438  
G01 X-1.9838 Y0.5438  
G00 Z0.0500  
G00 X-2.0515 Y0.5712  
G01 Z-0.0035 F10    
G01 X-2.0796 Y0.5432  F20    
G01 X-2.0800 Y0.5417  
G01 X-2.0801 Y0.5415  
G01 X-2.0801 Y0.5414  
G01 X-2.0815 Y0.5391  
G01 X-2.0828 Y0.5368  
G01 X-2.0829 Y0.5367  
G01 X-2.1865 Y0.3641  
G01 X-2.1878 Y0.3618  
G01 X-2.1879 Y0.3617  
G01 X-2.1880 Y0.3615  
G01 X-2.1899 Y0.3597  
G01 X-2.1918 Y0.3578  
G01 X-2.1920 Y0.3577  
G01 X-2.1921 Y0.3576  
G01 X-2.1944 Y0.3563  
G01 X-2.1967 Y0.3550  
G01 X-2.1969 Y0.3549  
G01 X-2.1970 Y0.3548  
G01 X-2.1996 Y0.3542  
G01 X-2.2022 Y0.3535  
G01 X-2.2024 Y0.3535  
G01 X-2.2025 Y0.3535  
G01 X-2.2052 Y0.3535  
G01 X-3.5403 Y0.3535  
G01 X-3.5458 Y0.3550  
G01 X-3.5507 Y0.3578  
G01 X-3.5547 Y0.3618  
G01 X-3.5575 Y0.3667  
G01 X-3.5590 Y0.3722  
G01 X-3.5590 Y0.9870  
G01 X-3.5591 Y0.9894  
G01 X-3.5590 Y0.9899  
G01 X-3.5590 Y0.9903  
G01 X-3.5584 Y0.9926  
G01 X-3.5579 Y0.9949  
G01 X-3.5577 Y0.9953  
G01 X-3.5575 Y0.9958  
G01 X-3.5564 Y0.9978  
G01 X-3.5553 Y0.9999  
G01 X-3.5549 Y1.0003  
G01 X-3.5547 Y1.0007  
G01 X-3.5530 Y1.0024  
G01 X-3.4443 Y1.1210  
G01 X-3.4434 Y1.1222  
G01 X-3.4424 Y1.1231  
G01 X-3.4414 Y1.1241  
G01 X-3.4402 Y1.1249  
G01 X-3.4391 Y1.1258  
G01 X-3.4378 Y1.1264  
G01 X-3.4367 Y1.1272  
G01 X-3.4353 Y1.1276  
G01 X-3.3815 Y1.1524  
G01 X-3.3815 Y1.1630  
G01 X-3.3630 Y1.1815  
G01 X-3.3370 Y1.1815  
G01 X-3.3185 Y1.1630  
G01 X-3.3185 Y1.1370  
G01 X-3.3370 Y1.1185  
G01 X-3.3524 Y1.1185  
G01 X-3.3526 Y1.1184  
G01 X-3.3542 Y1.1175  
G01 X-3.3552 Y1.1172  
G01 X-3.4146 Y1.0898  
G01 X-3.5160 Y0.9791  
G01 X-3.5160 Y0.3965  
G01 X-2.2172 Y0.3965  
G01 X-2.1259 Y0.5486  
G01 X-2.1485 Y0.5712  
G01 X-2.1485 Y0.6114  
G01 X-2.1201 Y0.6398  
G01 X-2.0799 Y0.6398  
G01 X-2.0515 Y0.6114  
G01 X-2.0515 Y0.5712  
G00 Z0.0500  
G00 X-2.0755 Y0.9279  
G01 Z-0.0035 F10    
G01 X-2.0799 Y0.9235  F20    
G01 X-2.0851 Y0.9201  
G01 X-2.0908 Y0.9177  
G01 X-2.0969 Y0.9165  
G01 X-2.1031 Y0.9165  
G01 X-2.1092 Y0.9177  
G01 X-2.1149 Y0.9201  
G01 X-2.1201 Y0.9235  
G01 X-2.1245 Y0.9279  
G01 X-2.1279 Y0.9331  
G01 X-2.1303 Y0.9388  
G01 X-2.1315 Y0.9449  
G01 X-2.1315 Y1.0031  
G01 X-2.1303 Y1.0092  
G01 X-2.1279 Y1.0149  
G01 X-2.1245 Y1.0201  
G01 X-2.1201 Y1.0245  
G01 X-2.1149 Y1.0279  
G01 X-2.1092 Y1.0303  
G01 X-2.1031 Y1.0315  
G01 X-2.0969 Y1.0315  
G01 X-2.0908 Y1.0303  
G01 X-2.0851 Y1.0279  
G01 X-2.0799 Y1.0245  
G01 X-2.0755 Y1.0201  
G01 X-2.0721 Y1.0149  
G01 X-2.0697 Y1.0092  
G01 X-2.0685 Y1.0031  
G01 X-2.0685 Y0.9449  
G01 X-2.0697 Y0.9388  
G01 X-2.0721 Y0.9331  
G01 X-2.0755 Y0.9279  
G00 Z0.0500  
G00 X-2.0615 Y1.1810  
G01 Z-0.0035 F10    
G01 X-2.0631 Y1.1827  F20    
G01 X-2.0647 Y1.1843  
G01 X-2.0650 Y1.1848  
G01 X-2.0653 Y1.1852  
G01 X-2.0664 Y1.1872  
G01 X-2.0675 Y1.1892  
G01 X-2.0677 Y1.1897  
G01 X-2.1086 Y1.2696  
G01 X-2.1092 Y1.2697  
G01 X-2.1149 Y1.2721  
G01 X-2.1201 Y1.2755  
G01 X-2.1245 Y1.2799  
G01 X-2.1279 Y1.2851  
G01 X-2.1303 Y1.2908  
G01 X-2.1315 Y1.2969  
G01 X-2.1315 Y1.3551  
G01 X-2.1303 Y1.3612  
G01 X-2.1279 Y1.3669  
G01 X-2.1245 Y1.3721  
G01 X-2.1215 Y1.3750  
G01 X-2.1215 Y1.3911  
G01 X-2.1892 Y1.4588  
G01 X-2.1900 Y1.4585  
G01 X-2.1967 Y1.4575  
G01 X-2.2033 Y1.4575  
G01 X-2.2100 Y1.4585  
G01 X-2.2163 Y1.4606  
G01 X-2.2223 Y1.4637  
G01 X-2.2277 Y1.4676  
G01 X-2.2324 Y1.4723  
G01 X-2.2363 Y1.4777  
G01 X-2.2394 Y1.4837  
G01 X-2.2415 Y1.4900  
G01 X-2.2425 Y1.4967  
G01 X-2.2425 Y1.5033  
G01 X-2.2415 Y1.5100  
G01 X-2.2394 Y1.5163  
G01 X-2.2363 Y1.5223  
G01 X-2.2324 Y1.5277  
G01 X-2.2277 Y1.5324  
G01 X-2.2223 Y1.5363  
G01 X-2.2163 Y1.5394  
G01 X-2.2100 Y1.5415  
G01 X-2.2033 Y1.5425  
G01 X-2.1967 Y1.5425  
G01 X-2.1900 Y1.5415  
G01 X-2.1837 Y1.5394  
G01 X-2.1777 Y1.5363  
G01 X-2.1723 Y1.5324  
G01 X-2.1676 Y1.5277  
G01 X-2.1637 Y1.5223  
G01 X-2.1606 Y1.5163  
G01 X-2.1585 Y1.5100  
G01 X-2.1575 Y1.5033  
G01 X-2.1575 Y1.4967  
G01 X-2.1585 Y1.4900  
G01 X-2.1588 Y1.4892  
G01 X-2.0868 Y1.4172  
G01 X-2.0828 Y1.4132  
G01 X-2.0800 Y1.4083  
G01 X-2.0785 Y1.4028  
G01 X-2.0785 Y1.3750  
G01 X-2.0755 Y1.3721  
G01 X-2.0721 Y1.3669  
G01 X-2.0697 Y1.3612  
G01 X-2.0685 Y1.3551  
G01 X-2.0685 Y1.2969  
G01 X-2.0697 Y1.2908  
G01 X-2.0703 Y1.2893  
G01 X-2.0344 Y1.2190  
G01 X-1.7983 Y1.2190  
G01 X-1.7962 Y1.2191  
G01 X-1.7954 Y1.2190  
G01 X-1.7947 Y1.2190  
G01 X-1.7927 Y1.2185  
G01 X-1.7906 Y1.2181  
G01 X-1.7899 Y1.2177  
G01 X-1.7892 Y1.2175  
G01 X-1.7874 Y1.2165  
G01 X-1.7139 Y1.1807  
G01 X-1.7130 Y1.1815  
G01 X-1.6870 Y1.1815  
G01 X-1.6685 Y1.1630  
G01 X-1.6685 Y1.1370  
G01 X-1.6870 Y1.1185  
G01 X-1.7130 Y1.1185  
G01 X-1.7315 Y1.1370  
G01 X-1.7315 Y1.1414  
G01 X-1.8025 Y1.1760  
G01 X-2.0452 Y1.1760  
G01 X-2.0458 Y1.1759  
G01 X-2.0480 Y1.1760  
G01 X-2.0503 Y1.1760  
G01 X-2.0509 Y1.1761  
G01 X-2.0514 Y1.1762  
G01 X-2.0536 Y1.1769  
G01 X-2.0558 Y1.1775  
G01 X-2.0563 Y1.1777  
G01 X-2.0568 Y1.1779  
G01 X-2.0587 Y1.1791  
G01 X-2.0607 Y1.1803  
G01 X-2.0611 Y1.1807  
G01 X-2.0615 Y1.1810  
G00 Z0.0500  
G00 X-2.0201 Y1.2755  
G01 Z-0.0035 F10    
G01 X-2.0245 Y1.2799  F20    
G01 X-2.0279 Y1.2851  
G01 X-2.0303 Y1.2908  
G01 X-2.0315 Y1.2969  
G01 X-2.0315 Y1.3551  
G01 X-2.0303 Y1.3612  
G01 X-2.0279 Y1.3669  
G01 X-2.0245 Y1.3721  
G01 X-2.0201 Y1.3765  
G01 X-2.0149 Y1.3799  
G01 X-2.0092 Y1.3823  
G01 X-2.0053 Y1.3831  
G01 X-2.0012 Y1.4037  
G01 X-2.0008 Y1.4060  
G01 X-2.0006 Y1.4065  
G01 X-2.0005 Y1.4070  
G01 X-1.9995 Y1.4091  
G01 X-1.9986 Y1.4112  
G01 X-1.9982 Y1.4116  
G01 X-1.9980 Y1.4121  
G01 X-1.9965 Y1.4138  
G01 X-1.9397 Y1.4848  
G01 X-1.9415 Y1.4900  
G01 X-1.9425 Y1.4967  
G01 X-1.9425 Y1.5033  
G01 X-1.9415 Y1.5100  
G01 X-1.9394 Y1.5163  
G01 X-1.9363 Y1.5223  
G01 X-1.9324 Y1.5277  
G01 X-1.9277 Y1.5324  
G01 X-1.9223 Y1.5363  
G01 X-1.9163 Y1.5394  
G01 X-1.9100 Y1.5415  
G01 X-1.9033 Y1.5425  
G01 X-1.8967 Y1.5425  
G01 X-1.8900 Y1.5415  
G01 X-1.8837 Y1.5394  
G01 X-1.8787 Y1.5368  
G01 X-1.8023 Y1.6056  
G01 X-1.8007 Y1.6072  
G01 X-1.8002 Y1.6075  
G01 X-1.7998 Y1.6079  
G01 X-1.7978 Y1.6089  
G01 X-1.7958 Y1.6100  
G01 X-1.7952 Y1.6102  
G01 X-1.7947 Y1.6104  
G01 X-1.7925 Y1.6109  
G01 X-1.7903 Y1.6115  
G01 X-1.7898 Y1.6115  
G01 X-1.7892 Y1.6116  
G01 X-1.7869 Y1.6115  
G01 X-0.7516 Y1.6115  
G01 X-0.7503 Y1.6117  
G01 X-0.7487 Y1.6115  
G01 X-0.7472 Y1.6115  
G01 X-0.7459 Y1.6112  
G01 X-0.7447 Y1.6110  
G01 X-0.7432 Y1.6104  
G01 X-0.7417 Y1.6100  
G01 X-0.7406 Y1.6094  
G01 X-0.7394 Y1.6089  
G01 X-0.7382 Y1.6080  
G01 X-0.7368 Y1.6072  
G01 X-0.7359 Y1.6063  
G01 X-0.7349 Y1.6055  
G01 X-0.7339 Y1.6043  
G01 X-0.7328 Y1.6032  
G01 X-0.7322 Y1.6021  
G01 X-0.6109 Y1.4485  
G01 X-0.5712 Y1.4485  
G01 X-0.5428 Y1.4201  
G01 X-0.5428 Y1.3799  
G01 X-0.5712 Y1.3515  
G01 X-0.6114 Y1.3515  
G01 X-0.6398 Y1.3799  
G01 X-0.6398 Y1.4158  
G01 X-0.7604 Y1.5685  
G01 X-1.7792 Y1.5685  
G01 X-1.8575 Y1.4981  
G01 X-1.8575 Y1.4967  
G01 X-1.8585 Y1.4900  
G01 X-1.8606 Y1.4837  
G01 X-1.8637 Y1.4777  
G01 X-1.8676 Y1.4723  
G01 X-1.8723 Y1.4676  
G01 X-1.8777 Y1.4637  
G01 X-1.8837 Y1.4606  
G01 X-1.8900 Y1.4585  
G01 X-1.8967 Y1.4575  
G01 X-1.9033 Y1.4575  
G01 X-1.9061 Y1.4579  
G01 X-1.9599 Y1.3907  
G01 X-1.9685 Y1.3479  
G01 X-1.9685 Y1.2969  
G01 X-1.9697 Y1.2908  
G01 X-1.9721 Y1.2851  
G01 X-1.9755 Y1.2799  
G01 X-1.9799 Y1.2755  
G01 X-1.9851 Y1.2721  
G01 X-1.9908 Y1.2697  
G01 X-1.9969 Y1.2685  
G01 X-2.0031 Y1.2685  
G01 X-2.0092 Y1.2697  
G01 X-2.0149 Y1.2721  
G01 X-2.0201 Y1.2755  
G00 Z0.0500  
G00 X-1.9201 Y1.2755  
G01 Z-0.0035 F10    
G01 X-1.9245 Y1.2799  F20    
G01 X-1.9279 Y1.2851  
G01 X-1.9303 Y1.2908  
G01 X-1.9315 Y1.2969  
G01 X-1.9315 Y1.3551  
G01 X-1.9303 Y1.3612  
G01 X-1.9279 Y1.3669  
G01 X-1.9245 Y1.3721  
G01 X-1.9201 Y1.3765  
G01 X-1.9149 Y1.3799  
G01 X-1.9092 Y1.3823  
G01 X-1.9031 Y1.3835  
G01 X-1.8969 Y1.3835  
G01 X-1.8908 Y1.3823  
G01 X-1.8851 Y1.3799  
G01 X-1.8799 Y1.3765  
G01 X-1.8755 Y1.3721  
G01 X-1.8721 Y1.3669  
G01 X-1.8697 Y1.3612  
G01 X-1.8685 Y1.3551  
G01 X-1.8685 Y1.2969  
G01 X-1.8697 Y1.2908  
G01 X-1.8721 Y1.2851  
G01 X-1.8755 Y1.2799  
G01 X-1.8799 Y1.2755  
G01 X-1.8851 Y1.2721  
G01 X-1.8908 Y1.2697  
G01 X-1.8969 Y1.2685  
G01 X-1.9031 Y1.2685  
G01 X-1.9092 Y1.2697  
G01 X-1.9149 Y1.2721  
G01 X-1.9201 Y1.2755  
G00 Z0.0500  
G00 X-2.1755 Y1.2799  
G01 Z-0.0035 F10    
G01 X-2.1799 Y1.2755  F20    
G01 X-2.1851 Y1.2721  
G01 X-2.1908 Y1.2697  
G01 X-2.1969 Y1.2685  
G01 X-2.2031 Y1.2685  
G01 X-2.2092 Y1.2697  
G01 X-2.2149 Y1.2721  
G01 X-2.2201 Y1.2755  
G01 X-2.2245 Y1.2799  
G01 X-2.2279 Y1.2851  
G01 X-2.2303 Y1.2908  
G01 X-2.2315 Y1.2969  
G01 X-2.2315 Y1.3551  
G01 X-2.2303 Y1.3612  
G01 X-2.2279 Y1.3669  
G01 X-2.2245 Y1.3721  
G01 X-2.2201 Y1.3765  
G01 X-2.2149 Y1.3799  
G01 X-2.2092 Y1.3823  
G01 X-2.2031 Y1.3835  
G01 X-2.1969 Y1.3835  
G01 X-2.1908 Y1.3823  
G01 X-2.1851 Y1.3799  
G01 X-2.1799 Y1.3765  
G01 X-2.1755 Y1.3721  
G01 X-2.1721 Y1.3669  
G01 X-2.1697 Y1.3612  
G01 X-2.1685 Y1.3551  
G01 X-2.1685 Y1.2969  
G01 X-2.1697 Y1.2908  
G01 X-2.1721 Y1.2851  
G01 X-2.1755 Y1.2799  
G00 Z0.0500  
G00 X-2.3870 Y1.0315  
G01 Z-0.0035 F10    
G01 X-2.3685 Y1.0130  F20    
G01 X-2.3685 Y0.9870  
G01 X-2.3870 Y0.9685  
G01 X-2.4130 Y0.9685  
G01 X-2.4179 Y0.9734  
G01 X-2.5302 Y0.9453  
G01 X-2.5470 Y0.9285  
G01 X-2.5730 Y0.9285  
G01 X-2.5915 Y0.9470  
G01 X-2.5915 Y0.9730  
G01 X-2.5730 Y0.9915  
G01 X-2.5470 Y0.9915  
G01 X-2.5421 Y0.9866  
G01 X-2.4298 Y1.0147  
G01 X-2.4130 Y1.0315  
G01 X-2.3870 Y1.0315  
G00 Z0.0500  
G00 X-2.5755 Y1.1039  
G01 Z-0.0035 F10    
G01 X-2.5799 Y1.0995  F20    
G01 X-2.5851 Y1.0961  
G01 X-2.5908 Y1.0937  
G01 X-2.5969 Y1.0925  
G01 X-2.6031 Y1.0925  
G01 X-2.6092 Y1.0937  
G01 X-2.6149 Y1.0961  
G01 X-2.6201 Y1.0995  
G01 X-2.6245 Y1.1039  
G01 X-2.6279 Y1.1091  
G01 X-2.6303 Y1.1148  
G01 X-2.6315 Y1.1209  
G01 X-2.6315 Y1.1285  
G01 X-2.6685 Y1.1285  
G01 X-2.6685 Y1.1209  
G01 X-2.6697 Y1.1148  
G01 X-2.6721 Y1.1091  
G01 X-2.6755 Y1.1039  
G01 X-2.6799 Y1.0995  
G01 X-2.6851 Y1.0961  
G01 X-2.6908 Y1.0937  
G01 X-2.6969 Y1.0925  
G01 X-2.7031 Y1.0925  
G01 X-2.7092 Y1.0937  
G01 X-2.7149 Y1.0961  
G01 X-2.7201 Y1.0995  
G01 X-2.7245 Y1.1039  
G01 X-2.7279 Y1.1091  
G01 X-2.7303 Y1.1148  
G01 X-2.7315 Y1.1209  
G01 X-2.7315 Y1.1791  
G01 X-2.7303 Y1.1852  
G01 X-2.7279 Y1.1909  
G01 X-2.7245 Y1.1961  
G01 X-2.7201 Y1.2005  
G01 X-2.7149 Y1.2039  
G01 X-2.7092 Y1.2063  
G01 X-2.7031 Y1.2075  
G01 X-2.6969 Y1.2075  
G01 X-2.6908 Y1.2063  
G01 X-2.6851 Y1.2039  
G01 X-2.6799 Y1.2005  
G01 X-2.6755 Y1.1961  
G01 X-2.6721 Y1.1909  
G01 X-2.6697 Y1.1852  
G01 X-2.6685 Y1.1791  
G01 X-2.6685 Y1.1715  
G01 X-2.6315 Y1.1715  
G01 X-2.6315 Y1.1791  
G01 X-2.6303 Y1.1852  
G01 X-2.6279 Y1.1909  
G01 X-2.6245 Y1.1961  
G01 X-2.6215 Y1.1990  
G01 X-2.6215 Y1.2560  
G01 X-2.7959 Y1.2560  
G01 X-2.8785 Y1.2229  
G01 X-2.8785 Y1.1990  
G01 X-2.8755 Y1.1961  
G01 X-2.8721 Y1.1909  
G01 X-2.8697 Y1.1852  
G01 X-2.8685 Y1.1791  
G01 X-2.8685 Y1.1209  
G01 X-2.8697 Y1.1148  
G01 X-2.8721 Y1.1091  
G01 X-2.8755 Y1.1039  
G01 X-2.8799 Y1.0995  
G01 X-2.8851 Y1.0961  
G01 X-2.8908 Y1.0937  
G01 X-2.8969 Y1.0925  
G01 X-2.9031 Y1.0925  
G01 X-2.9092 Y1.0937  
G01 X-2.9149 Y1.0961  
G01 X-2.9201 Y1.0995  
G01 X-2.9245 Y1.1039  
G01 X-2.9279 Y1.1091  
G01 X-2.9303 Y1.1148  
G01 X-2.9315 Y1.1209  
G01 X-2.9315 Y1.1791  
G01 X-2.9303 Y1.1852  
G01 X-2.9279 Y1.1909  
G01 X-2.9245 Y1.1961  
G01 X-2.9215 Y1.1990  
G01 X-2.9215 Y1.2362  
G01 X-2.9217 Y1.2378  
G01 X-2.9215 Y1.2390  
G01 X-2.9215 Y1.2403  
G01 X-2.9211 Y1.2418  
G01 X-2.9209 Y1.2434  
G01 X-2.9204 Y1.2446  
G01 X-2.9200 Y1.2458  
G01 X-2.9193 Y1.2471  
G01 X-2.9186 Y1.2486  
G01 X-2.9178 Y1.2496  
G01 X-2.9172 Y1.2507  
G01 X-2.9161 Y1.2518  
G01 X-2.9151 Y1.2530  
G01 X-2.9141 Y1.2538  
G01 X-2.9132 Y1.2547  
G01 X-2.9119 Y1.2555  
G01 X-2.9106 Y1.2564  
G01 X-2.9094 Y1.2569  
G01 X-2.9083 Y1.2575  
G01 X-2.9068 Y1.2579  
G01 X-2.8215 Y1.2921  
G01 X-2.8215 Y1.3110  
G01 X-2.9593 Y1.3110  
G01 X-2.9614 Y1.3109  
G01 X-2.9621 Y1.3110  
G01 X-2.9628 Y1.3110  
G01 X-2.9649 Y1.3115  
G01 X-2.9670 Y1.3120  
G01 X-2.9676 Y1.3123  
G01 X-2.9683 Y1.3125  
G01 X-2.9701 Y1.3135  
G01 X-2.9720 Y1.3145  
G01 X-2.9726 Y1.3149  
G01 X-2.9732 Y1.3153  
G01 X-2.9747 Y1.3168  
G01 X-2.9763 Y1.3182  
G01 X-2.9767 Y1.3188  
G01 X-2.9772 Y1.3193  
G01 X-2.9783 Y1.3211  
G01 X-2.9794 Y1.3229  
G01 X-2.9797 Y1.3236  
G01 X-2.9800 Y1.3242  
G01 X-2.9806 Y1.3262  
G01 X-3.0031 Y1.3925  
G01 X-3.0092 Y1.3937  
G01 X-3.0149 Y1.3961  
G01 X-3.0201 Y1.3995  
G01 X-3.0245 Y1.4039  
G01 X-3.0279 Y1.4091  
G01 X-3.0303 Y1.4148  
G01 X-3.0315 Y1.4209  
G01 X-3.0315 Y1.4791  
G01 X-3.0303 Y1.4852  
G01 X-3.0279 Y1.4909  
G01 X-3.0245 Y1.4961  
G01 X-3.0201 Y1.5005  
G01 X-3.0149 Y1.5039  
G01 X-3.0092 Y1.5063  
G01 X-3.0031 Y1.5075  
G01 X-2.9969 Y1.5075  
G01 X-2.9908 Y1.5063  
G01 X-2.9851 Y1.5039  
G01 X-2.9799 Y1.5005  
G01 X-2.9755 Y1.4961  
G01 X-2.9721 Y1.4909  
G01 X-2.9697 Y1.4852  
G01 X-2.9685 Y1.4791  
G01 X-2.9685 Y1.4242  
G01 X-2.9446 Y1.3540  
G01 X-2.8215 Y1.3540  
G01 X-2.8215 Y1.4010  
G01 X-2.8245 Y1.4039  
G01 X-2.8279 Y1.4091  
G01 X-2.8303 Y1.4148  
G01 X-2.8315 Y1.4209  
G01 X-2.8315 Y1.4791  
G01 X-2.8303 Y1.4852  
G01 X-2.8279 Y1.4909  
G01 X-2.8245 Y1.4961  
G01 X-2.8201 Y1.5005  
G01 X-2.8149 Y1.5039  
G01 X-2.8092 Y1.5063  
G01 X-2.8031 Y1.5075  
G01 X-2.7969 Y1.5075  
G01 X-2.7908 Y1.5063  
G01 X-2.7851 Y1.5039  
G01 X-2.7799 Y1.5005  
G01 X-2.7755 Y1.4961  
G01 X-2.7721 Y1.4909  
G01 X-2.7697 Y1.4852  
G01 X-2.7685 Y1.4791  
G01 X-2.7685 Y1.4209  
G01 X-2.7697 Y1.4148  
G01 X-2.7721 Y1.4091  
G01 X-2.7755 Y1.4039  
G01 X-2.7785 Y1.4010  
G01 X-2.7785 Y1.2990  
G01 X-2.6215 Y1.2990  
G01 X-2.6215 Y1.4010  
G01 X-2.6245 Y1.4039  
G01 X-2.6279 Y1.4091  
G01 X-2.6303 Y1.4148  
G01 X-2.6315 Y1.4209  
G01 X-2.6315 Y1.4791  
G01 X-2.6303 Y1.4852  
G01 X-2.6279 Y1.4909  
G01 X-2.6245 Y1.4961  
G01 X-2.6201 Y1.5005  
G01 X-2.6149 Y1.5039  
G01 X-2.6092 Y1.5063  
G01 X-2.6031 Y1.5075  
G01 X-2.5969 Y1.5075  
G01 X-2.5908 Y1.5063  
G01 X-2.5851 Y1.5039  
G01 X-2.5799 Y1.5005  
G01 X-2.5755 Y1.4961  
G01 X-2.5721 Y1.4909  
G01 X-2.5697 Y1.4852  
G01 X-2.5685 Y1.4791  
G01 X-2.5685 Y1.4209  
G01 X-2.5697 Y1.4148  
G01 X-2.5721 Y1.4091  
G01 X-2.5755 Y1.4039  
G01 X-2.5785 Y1.4010  
G01 X-2.5785 Y1.1990  
G01 X-2.5755 Y1.1961  
G01 X-2.5721 Y1.1909  
G01 X-2.5697 Y1.1852  
G01 X-2.5685 Y1.1791  
G01 X-2.5685 Y1.1209  
G01 X-2.5697 Y1.1148  
G01 X-2.5721 Y1.1091  
G01 X-2.5755 Y1.1039  
G00 Z0.0500  
G00 X-2.7755 Y1.1039  
G01 Z-0.0035 F10    
G01 X-2.7799 Y1.0995  F20    
G01 X-2.7851 Y1.0961  
G01 X-2.7908 Y1.0937  
G01 X-2.7955 Y1.0928  
G01 X-2.8322 Y0.9767  
G01 X-2.8285 Y0.9730  
G01 X-2.8285 Y0.9470  
G01 X-2.8470 Y0.9285  
G01 X-2.8730 Y0.9285  
G01 X-2.8915 Y0.9470  
G01 X-2.8915 Y0.9730  
G01 X-2.8730 Y0.9915  
G01 X-2.8726 Y0.9915  
G01 X-2.8315 Y1.1216  
G01 X-2.8315 Y1.1791  
G01 X-2.8303 Y1.1852  
G01 X-2.8279 Y1.1909  
G01 X-2.8245 Y1.1961  
G01 X-2.8201 Y1.2005  
G01 X-2.8149 Y1.2039  
G01 X-2.8092 Y1.2063  
G01 X-2.8031 Y1.2075  
G01 X-2.7969 Y1.2075  
G01 X-2.7908 Y1.2063  
G01 X-2.7851 Y1.2039  
G01 X-2.7799 Y1.2005  
G01 X-2.7755 Y1.1961  
G01 X-2.7721 Y1.1909  
G01 X-2.7697 Y1.1852  
G01 X-2.7685 Y1.1791  
G01 X-2.7685 Y1.1209  
G01 X-2.7697 Y1.1148  
G01 X-2.7721 Y1.1091  
G01 X-2.7755 Y1.1039  
G00 Z0.0500  
G00 X-2.7201 Y1.3995  
G01 Z-0.0035 F10    
G01 X-2.7245 Y1.4039  F20    
G01 X-2.7279 Y1.4091  
G01 X-2.7303 Y1.4148  
G01 X-2.7315 Y1.4209  
G01 X-2.7315 Y1.4791  
G01 X-2.7303 Y1.4852  
G01 X-2.7279 Y1.4909  
G01 X-2.7245 Y1.4961  
G01 X-2.7215 Y1.4990  
G01 X-2.7215 Y1.5770  
G01 X-2.7315 Y1.5870  
G01 X-2.7315 Y1.6130  
G01 X-2.7130 Y1.6315  
G01 X-2.6870 Y1.6315  
G01 X-2.6685 Y1.6130  
G01 X-2.6685 Y1.5870  
G01 X-2.6785 Y1.5770  
G01 X-2.6785 Y1.4990  
G01 X-2.6755 Y1.4961  
G01 X-2.6721 Y1.4909  
G01 X-2.6697 Y1.4852  
G01 X-2.6685 Y1.4791  
G01 X-2.6685 Y1.4209  
G01 X-2.6697 Y1.4148  
G01 X-2.6721 Y1.4091  
G01 X-2.6755 Y1.4039  
G01 X-2.6799 Y1.3995  
G01 X-2.6851 Y1.3961  
G01 X-2.6908 Y1.3937  
G01 X-2.6969 Y1.3925  
G01 X-2.7031 Y1.3925  
G01 X-2.7092 Y1.3937  
G01 X-2.7149 Y1.3961  
G01 X-2.7201 Y1.3995  
G00 Z0.0500  
G00 X-2.8755 Y1.4039  
G01 Z-0.0035 F10    
G01 X-2.8799 Y1.3995  F20    
G01 X-2.8851 Y1.3961  
G01 X-2.8908 Y1.3937  
G01 X-2.8969 Y1.3925  
G01 X-2.9031 Y1.3925  
G01 X-2.9092 Y1.3937  
G01 X-2.9149 Y1.3961  
G01 X-2.9201 Y1.3995  
G01 X-2.9245 Y1.4039  
G01 X-2.9279 Y1.4091  
G01 X-2.9303 Y1.4148  
G01 X-2.9315 Y1.4209  
G01 X-2.9315 Y1.4791  
G01 X-2.9303 Y1.4852  
G01 X-2.9279 Y1.4909  
G01 X-2.9245 Y1.4961  
G01 X-2.9215 Y1.4990  
G01 X-2.9215 Y1.5160  
G01 X-3.2536 Y1.5160  
G01 X-3.3185 Y1.4511  
G01 X-3.3185 Y1.4370  
G01 X-3.3370 Y1.4185  
G01 X-3.3630 Y1.4185  
G01 X-3.3815 Y1.4370  
G01 X-3.3815 Y1.4630  
G01 X-3.3630 Y1.4815  
G01 X-3.3489 Y1.4815  
G01 X-3.2757 Y1.5547  
G01 X-3.2708 Y1.5575  
G01 X-3.2653 Y1.5590  
G01 X-2.8972 Y1.5590  
G01 X-2.8917 Y1.5575  
G01 X-2.8868 Y1.5547  
G01 X-2.8828 Y1.5507  
G01 X-2.8800 Y1.5458  
G01 X-2.8785 Y1.5403  
G01 X-2.8785 Y1.4990  
G01 X-2.8755 Y1.4961  
G01 X-2.8721 Y1.4909  
G01 X-2.8697 Y1.4852  
G01 X-2.8685 Y1.4791  
G01 X-2.8685 Y1.4209  
G01 X-2.8697 Y1.4148  
G01 X-2.8721 Y1.4091  
G01 X-2.8755 Y1.4039  
G00 Z0.0500  
G00 X-3.0755 Y1.4039  
G01 Z-0.0035 F10    
G01 X-3.0799 Y1.3995  F20    
G01 X-3.0851 Y1.3961  
G01 X-3.0908 Y1.3937  
G01 X-3.0969 Y1.3925  
G01 X-3.1031 Y1.3925  
G01 X-3.1092 Y1.3937  
G01 X-3.1149 Y1.3961  
G01 X-3.1201 Y1.3995  
G01 X-3.1245 Y1.4039  
G01 X-3.1279 Y1.4091  
G01 X-3.1297 Y1.4133  
G01 X-3.1910 Y1.3860  
G01 X-3.1910 Y1.0895  
G01 X-3.1909 Y1.0888  
G01 X-3.1910 Y1.0867  
G01 X-3.1910 Y1.0847  
G01 X-3.1912 Y1.0839  
G01 X-3.1913 Y1.0831  
G01 X-3.1919 Y1.0812  
G01 X-3.1925 Y1.0792  
G01 X-3.1929 Y1.0785  
G01 X-3.1931 Y1.0778  
G01 X-3.1943 Y1.0761  
G01 X-3.1953 Y1.0743  
G01 X-3.1959 Y1.0737  
G01 X-3.1963 Y1.0731  
G01 X-3.1978 Y1.0717  
G01 X-3.1993 Y1.0703  
G01 X-3.2000 Y1.0699  
G01 X-3.3285 Y0.9588  
G01 X-3.3285 Y0.9470  
G01 X-3.3470 Y0.9285  
G01 X-3.3730 Y0.9285  
G01 X-3.3915 Y0.9470  
G01 X-3.3915 Y0.9730  
G01 X-3.3730 Y0.9915  
G01 X-3.3564 Y0.9915  
G01 X-3.2340 Y1.0973  
G01 X-3.2340 Y1.3983  
G01 X-3.2342 Y1.3994  
G01 X-3.2340 Y1.4011  
G01 X-3.2340 Y1.4028  
G01 X-3.2337 Y1.4039  
G01 X-3.2336 Y1.4051  
G01 X-3.2330 Y1.4067  
G01 X-3.2325 Y1.4083  
G01 X-3.2320 Y1.4093  
G01 X-3.2316 Y1.4104  
G01 X-3.2306 Y1.4117  
G01 X-3.2297 Y1.4132  
G01 X-3.2289 Y1.4140  
G01 X-3.2282 Y1.4149  
G01 X-3.2269 Y1.4160  
G01 X-3.2257 Y1.4172  
G01 X-3.2247 Y1.4178  
G01 X-3.2238 Y1.4185  
G01 X-3.2223 Y1.4192  
G01 X-3.2208 Y1.4200  
G01 X-3.2197 Y1.4203  
G01 X-3.1315 Y1.4595  
G01 X-3.1315 Y1.4791  
G01 X-3.1303 Y1.4852  
G01 X-3.1279 Y1.4909  
G01 X-3.1245 Y1.4961  
G01 X-3.1201 Y1.5005  
G01 X-3.1149 Y1.5039  
G01 X-3.1092 Y1.5063  
G01 X-3.1031 Y1.5075  
G01 X-3.0969 Y1.5075  
G01 X-3.0908 Y1.5063  
G01 X-3.0851 Y1.5039  
G01 X-3.0799 Y1.5005  
G01 X-3.0755 Y1.4961  
G01 X-3.0721 Y1.4909  
G01 X-3.0697 Y1.4852  
G01 X-3.0685 Y1.4791  
G01 X-3.0685 Y1.4209  
G01 X-3.0697 Y1.4148  
G01 X-3.0721 Y1.4091  
G01 X-3.0755 Y1.4039  
G00 Z0.0500  
G00 X-3.0730 Y0.9915  
G01 Z-0.0035 F10    
G01 X-3.0470 Y0.9915  F20    
G01 X-3.0285 Y0.9730  
G01 X-3.0285 Y0.9470  
G01 X-3.0385 Y0.9370  
G01 X-3.0385 Y0.9116  
G01 X-3.0021 Y0.7771  
G01 X-2.9436 Y0.6398  
G01 X-2.9299 Y0.6398  
G01 X-2.9015 Y0.6114  
G01 X-2.9015 Y0.5712  
G01 X-2.9299 Y0.5428  
G01 X-2.9701 Y0.5428  
G01 X-2.9985 Y0.5712  
G01 X-2.9985 Y0.6114  
G01 X-2.9843 Y0.6256  
G01 X-3.0418 Y0.7604  
G01 X-3.0425 Y0.7617  
G01 X-3.0429 Y0.7629  
G01 X-3.0434 Y0.7642  
G01 X-3.0436 Y0.7657  
G01 X-3.0794 Y0.8981  
G01 X-3.0800 Y0.8992  
G01 X-3.0808 Y0.9020  
G01 X-3.0815 Y0.9047  
G01 X-3.0933 Y0.9495  
G01 X-3.0940 Y0.9521  
G01 X-3.0940 Y0.9523  
G01 X-3.0940 Y0.9550  
G01 X-3.0940 Y0.9578  
G01 X-3.0940 Y0.9579  
G01 X-3.0933 Y0.9606  
G01 X-3.0926 Y0.9633  
G01 X-3.0925 Y0.9634  
G01 X-3.0915 Y0.9651  
G01 X-3.0915 Y0.9730  
G01 X-3.0730 Y0.9915  
G00 Z0.0500  
G00 X-3.3770 Y0.7715  
G01 Z-0.0035 F10    
G01 X-3.3585 Y0.7530  F20    
G01 X-3.3585 Y0.7270  
G01 X-3.3685 Y0.7170  
G01 X-3.3685 Y0.6402  
G01 X-3.3681 Y0.6398  
G01 X-3.3299 Y0.6398  
G01 X-3.3015 Y0.6114  
G01 X-3.3015 Y0.5712  
G01 X-3.3299 Y0.5428  
G01 X-3.3701 Y0.5428  
G01 X-3.3985 Y0.5712  
G01 X-3.3985 Y0.6094  
G01 X-3.4072 Y0.6181  
G01 X-3.4100 Y0.6230  
G01 X-3.4115 Y0.6285  
G01 X-3.4115 Y0.7170  
G01 X-3.4215 Y0.7270  
G01 X-3.4215 Y0.7530  
G01 X-3.4030 Y0.7715  
G01 X-3.3770 Y0.7715  
G00 Z0.0500  
G00 X-3.4299 Y0.5438  
G01 Z-0.0035 F10    
G01 X-3.4015 Y0.5154  F20    
G01 X-3.4015 Y0.4752  
G01 X-3.4299 Y0.4468  
G01 X-3.4701 Y0.4468  
G01 X-3.4985 Y0.4752  
G01 X-3.4985 Y0.5154  
G01 X-3.4701 Y0.5438  
G01 X-3.4299 Y0.5438  
G00 Z0.0500  
G00 X-2.9024 Y0.5154  
G01 Z-0.0035 F10    
G01 X-2.8740 Y0.5438  F20    
G01 X-2.8338 Y0.5438  
G01 X-2.8054 Y0.5154  
G01 X-2.8054 Y0.4752  
G01 X-2.8338 Y0.4468  
G01 X-2.8740 Y0.4468  
G01 X-2.9024 Y0.4752  
G01 X-2.9024 Y0.5154  
G00 Z0.0500  
G00 X-2.7515 Y0.5170  
G01 Z-0.0035 F10    
G01 X-2.7515 Y0.5430  F20    
G01 X-2.7383 Y0.5563  
G01 X-2.7340 Y0.5889  
G01 X-2.7340 Y0.5903  
G01 X-2.7336 Y0.5917  
G01 X-2.7335 Y0.5931  
G01 X-2.7329 Y0.5944  
G01 X-2.7325 Y0.5958  
G01 X-2.7318 Y0.5970  
G01 X-2.7313 Y0.5983  
G01 X-2.7304 Y0.5995  
G01 X-2.7297 Y0.6007  
G01 X-2.7287 Y0.6017  
G01 X-2.7279 Y0.6028  
G01 X-2.7267 Y0.6037  
G01 X-2.7257 Y0.6047  
G01 X-2.7245 Y0.6054  
G01 X-2.7234 Y0.6063  
G01 X-2.7220 Y0.6068  
G01 X-2.7208 Y0.6075  
G01 X-2.7194 Y0.6079  
G01 X-2.7181 Y0.6084  
G01 X-2.7167 Y0.6086  
G01 X-2.7153 Y0.6090  
G01 X-2.7139 Y0.6090  
G01 X-2.7125 Y0.6092  
G01 X-2.7111 Y0.6090  
G01 X-2.5485 Y0.6090  
G01 X-2.5485 Y0.6114  
G01 X-2.5201 Y0.6398  
G01 X-2.4799 Y0.6398  
G01 X-2.4515 Y0.6114  
G01 X-2.4515 Y0.5712  
G01 X-2.4799 Y0.5428  
G01 X-2.5201 Y0.5428  
G01 X-2.5433 Y0.5660  
G01 X-2.6936 Y0.5660  
G01 X-2.6957 Y0.5502  
G01 X-2.6885 Y0.5430  
G01 X-2.6885 Y0.5170  
G01 X-2.7070 Y0.4985  
G01 X-2.7330 Y0.4985  
G01 X-2.7515 Y0.5170  
G00 Z0.0500  
G00 X-2.6485 Y0.5154  
G01 Z-0.0035 F10    
G01 X-2.6201 Y0.5438  F20    
G01 X-2.5799 Y0.5438  
G01 X-2.5515 Y0.5154  
G01 X-2.5515 Y0.4752  
G01 X-2.5799 Y0.4468  
G01 X-2.6201 Y0.4468  
G01 X-2.6485 Y0.4752  
G01 X-2.6485 Y0.5154  
G00 Z0.0500  
G00 X-1.4630 Y1.1435  
G01 Z-0.0035 F10    
G01 X-1.4815 Y1.1620  F20    
G01 X-1.4815 Y1.1880  
G01 X-1.4630 Y1.2065  
G01 X-1.4489 Y1.2065  
G01 X-1.2922 Y1.3632  
G01 X-1.2882 Y1.3672  
G01 X-1.2833 Y1.3700  
G01 X-1.2778 Y1.3715  
G01 X-1.2347 Y1.3715  
G01 X-1.2347 Y1.3835  
G01 X-1.2333 Y1.3904  
G01 X-1.2307 Y1.3968  
G01 X-1.2268 Y1.4026  
G01 X-1.2218 Y1.4076  
G01 X-1.2160 Y1.4115  
G01 X-1.2096 Y1.4141  
G01 X-1.2027 Y1.4155  
G01 X-1.1957 Y1.4155  
G01 X-1.1889 Y1.4141  
G01 X-1.1824 Y1.4115  
G01 X-1.1766 Y1.4076  
G01 X-1.1716 Y1.4026  
G01 X-1.1678 Y1.3968  
G01 X-1.1651 Y1.3904  
G01 X-1.1637 Y1.3835  
G01 X-1.1637 Y1.3165  
G01 X-1.1651 Y1.3096  
G01 X-1.1678 Y1.3032  
G01 X-1.1716 Y1.2974  
G01 X-1.1766 Y1.2924  
G01 X-1.1824 Y1.2885  
G01 X-1.1889 Y1.2859  
G01 X-1.1957 Y1.2845  
G01 X-1.2027 Y1.2845  
G01 X-1.2096 Y1.2859  
G01 X-1.2160 Y1.2885  
G01 X-1.2218 Y1.2924  
G01 X-1.2268 Y1.2974  
G01 X-1.2307 Y1.3032  
G01 X-1.2333 Y1.3096  
G01 X-1.2347 Y1.3165  
G01 X-1.2347 Y1.3285  
G01 X-1.2661 Y1.3285  
G01 X-1.4185 Y1.1761  
G01 X-1.4185 Y1.1620  
G01 X-1.4370 Y1.1435  
G01 X-1.4630 Y1.1435  
G00 Z0.0500  
G00 X-1.6685 Y1.4370  
G01 Z-0.0035 F10    
G01 X-1.6870 Y1.4185  F20    
G01 X-1.7130 Y1.4185  
G01 X-1.7315 Y1.4370  
G01 X-1.7315 Y1.4630  
G01 X-1.7130 Y1.4815  
G01 X-1.7013 Y1.4815  
G01 X-1.6576 Y1.5325  
G01 X-1.6572 Y1.5332  
G01 X-1.6558 Y1.5346  
G01 X-1.6545 Y1.5361  
G01 X-1.6538 Y1.5366  
G01 X-1.6532 Y1.5372  
G01 X-1.6515 Y1.5382  
G01 X-1.6498 Y1.5393  
G01 X-1.6490 Y1.5396  
G01 X-1.6483 Y1.5400  
G01 X-1.6464 Y1.5406  
G01 X-1.6445 Y1.5412  
G01 X-1.6436 Y1.5413  
G01 X-1.6428 Y1.5415  
G01 X-1.6408 Y1.5415  
G01 X-1.6388 Y1.5417  
G01 X-1.6380 Y1.5415  
G01 X-0.9413 Y1.5415  
G01 X-0.9398 Y1.5417  
G01 X-0.9385 Y1.5415  
G01 X-0.9372 Y1.5415  
G01 X-0.9357 Y1.5411  
G01 X-0.9342 Y1.5409  
G01 X-0.9330 Y1.5404  
G01 X-0.9317 Y1.5400  
G01 X-0.9304 Y1.5393  
G01 X-0.9290 Y1.5387  
G01 X-0.9279 Y1.5379  
G01 X-0.9268 Y1.5372  
G01 X-0.9257 Y1.5361  
G01 X-0.9245 Y1.5352  
G01 X-0.9237 Y1.5341  
G01 X-0.9228 Y1.5332  
G01 X-0.9220 Y1.5319  
G01 X-0.8337 Y1.4141  
G01 X-0.8328 Y1.4132  
G01 X-0.8320 Y1.4119  
G01 X-0.8311 Y1.4106  
G01 X-0.8306 Y1.4094  
G01 X-0.8300 Y1.4083  
G01 X-0.8296 Y1.4068  
G01 X-0.8290 Y1.4054  
G01 X-0.8288 Y1.4041  
G01 X-0.8285 Y1.4028  
G01 X-0.8285 Y1.4013  
G01 X-0.8283 Y1.3998  
G01 X-0.8285 Y1.3985  
G01 X-0.8285 Y1.1335  
G01 X-0.8187 Y1.1335  
G01 X-0.8122 Y1.1322  
G01 X-0.8061 Y1.1297  
G01 X-0.8006 Y1.1260  
G01 X-0.7961 Y1.1215  
G01 X-0.6972 Y1.1215  
G01 X-0.6917 Y1.1200  
G01 X-0.6868 Y1.1172  
G01 X-0.6828 Y1.1132  
G01 X-0.6148 Y1.0452  
G01 X-0.6114 Y1.0485  
G01 X-0.5712 Y1.0485  
G01 X-0.5428 Y1.0201  
G01 X-0.5428 Y0.9799  
G01 X-0.5712 Y0.9515  
G01 X-0.6114 Y0.9515  
G01 X-0.6398 Y0.9799  
G01 X-0.6398 Y1.0094  
G01 X-0.7089 Y1.0785  
G01 X-0.7961 Y1.0785  
G01 X-0.8006 Y1.0740  
G01 X-0.8061 Y1.0703  
G01 X-0.8122 Y1.0678  
G01 X-0.8187 Y1.0665  
G01 X-0.8813 Y1.0665  
G01 X-0.8878 Y1.0678  
G01 X-0.8939 Y1.0703  
G01 X-0.8994 Y1.0740  
G01 X-0.9040 Y1.0786  
G01 X-0.9077 Y1.0841  
G01 X-0.9102 Y1.0902  
G01 X-0.9115 Y1.0967  
G01 X-0.9115 Y1.1033  
G01 X-0.9102 Y1.1098  
G01 X-0.9077 Y1.1159  
G01 X-0.9040 Y1.1214  
G01 X-0.8994 Y1.1260  
G01 X-0.8939 Y1.1297  
G01 X-0.8878 Y1.1322  
G01 X-0.8813 Y1.1335  
G01 X-0.8715 Y1.1335  
G01 X-0.8715 Y1.3928  
G01 X-0.9507 Y1.4985  
G01 X-1.6301 Y1.4985  
G01 X-1.6685 Y1.4537  
G01 X-1.6685 Y1.4370  
G00 Z0.0500  
G00 X-0.5438 Y1.4760  
G01 Z-0.0035 F10    
G01 X-0.5438 Y1.5162  F20    
G01 X-0.5154 Y1.5446  
G01 X-0.4752 Y1.5446  
G01 X-0.4468 Y1.5162  
G01 X-0.4468 Y1.4760  
G01 X-0.4752 Y1.4476  
G01 X-0.5154 Y1.4476  
G01 X-0.5438 Y1.4760  
G00 Z0.0500  
G00 X-0.5417 Y1.2445  
G01 Z-0.0035 F10    
G01 X-0.4567 Y1.2445  F20    
G01 X-0.4498 Y1.2434  
G01 X-0.4431 Y1.2412  
G01 X-0.4369 Y1.2381  
G01 X-0.4312 Y1.2339  
G01 X-0.4263 Y1.2290  
G01 X-0.4222 Y1.2233  
G01 X-0.4190 Y1.2171  
G01 X-0.4168 Y1.2104  
G01 X-0.4157 Y1.2035  
G01 X-0.4157 Y1.1965  
G01 X-0.4168 Y1.1896  
G01 X-0.4190 Y1.1829  
G01 X-0.4222 Y1.1767  
G01 X-0.4263 Y1.1710  
G01 X-0.4312 Y1.1661  
G01 X-0.4369 Y1.1619  
G01 X-0.4431 Y1.1588  
G01 X-0.4498 Y1.1566  
G01 X-0.4567 Y1.1555  
G01 X-0.5417 Y1.1555  
G01 X-0.5486 Y1.1566  
G01 X-0.5553 Y1.1588  
G01 X-0.5615 Y1.1619  
G01 X-0.5672 Y1.1661  
G01 X-0.5722 Y1.1710  
G01 X-0.5763 Y1.1767  
G01 X-0.5795 Y1.1829  
G01 X-0.5816 Y1.1896  
G01 X-0.5827 Y1.1965  
G01 X-0.5827 Y1.2035  
G01 X-0.5816 Y1.2104  
G01 X-0.5795 Y1.2171  
G01 X-0.5763 Y1.2233  
G01 X-0.5722 Y1.2290  
G01 X-0.5672 Y1.2339  
G01 X-0.5615 Y1.2381  
G01 X-0.5553 Y1.2412  
G01 X-0.5486 Y1.2434  
G01 X-0.5417 Y1.2445  
G00 Z0.0500  
G00 X-0.5154 Y0.9485  
G01 Z-0.0035 F10    
G01 X-0.4752 Y0.9485  F20    
G01 X-0.4468 Y0.9201  
G01 X-0.4468 Y0.8799  
G01 X-0.4752 Y0.8515  
G01 X-0.5154 Y0.8515  
G01 X-0.5438 Y0.8799  
G01 X-0.5438 Y0.9201  
G01 X-0.5154 Y0.9485  
G00 Z0.0500  
G00 X-0.3490 Y0.0820  
G01 Z-0.0035 F10    
G01 X-0.3789 Y0.0521  F20    
G01 X-0.4211 Y0.0521  
G01 X-0.4500 Y0.0810  
G01 X-0.4789 Y0.0521  
G01 X-0.5211 Y0.0521  
G01 X-0.5510 Y0.0820  
G01 X-0.5510 Y0.0885  
G01 X-0.6490 Y0.0885  
G01 X-0.6490 Y0.0820  
G01 X-0.6789 Y0.0521  
G01 X-0.7211 Y0.0521  
G01 X-0.7500 Y0.0810  
G01 X-0.7789 Y0.0521  
G01 X-0.8211 Y0.0521  
G01 X-0.8510 Y0.0820  
G01 X-0.8510 Y0.0885  
G01 X-1.1990 Y0.0885  
G01 X-1.1990 Y0.0820  
G01 X-1.2289 Y0.0521  
G01 X-1.2711 Y0.0521  
G01 X-1.3000 Y0.0810  
G01 X-1.3289 Y0.0521  
G01 X-1.3711 Y0.0521  
G01 X-1.4010 Y0.0820  
G01 X-1.4010 Y0.0885  
G01 X-1.4990 Y0.0885  
G01 X-1.4990 Y0.0820  
G01 X-1.5289 Y0.0521  
G01 X-1.5711 Y0.0521  
G01 X-1.6000 Y0.0810  
G01 X-1.6289 Y0.0521  
G01 X-1.6711 Y0.0521  
G01 X-1.7010 Y0.0820  
G01 X-1.7010 Y0.0885  
G01 X-1.8592 Y0.0885  
G01 X-1.8630 Y0.0869  
G01 X-1.8676 Y0.0860  
G01 X-1.8724 Y0.0860  
G01 X-1.8770 Y0.0869  
G01 X-1.8808 Y0.0885  
G01 X-2.0490 Y0.0885  
G01 X-2.0490 Y0.0820  
G01 X-2.0789 Y0.0521  
G01 X-2.1211 Y0.0521  
G01 X-2.1500 Y0.0810  
G01 X-2.1789 Y0.0521  
G01 X-2.2211 Y0.0521  
G01 X-2.2510 Y0.0820  
G01 X-2.2510 Y0.0885  
G01 X-2.3490 Y0.0885  
G01 X-2.3490 Y0.0820  
G01 X-2.3789 Y0.0521  
G01 X-2.4211 Y0.0521  
G01 X-2.4500 Y0.0810  
G01 X-2.4789 Y0.0521  
G01 X-2.5211 Y0.0521  
G01 X-2.5510 Y0.0820  
G01 X-2.5510 Y0.0885  
G01 X-2.8990 Y0.0885  
G01 X-2.8990 Y0.0820  
G01 X-2.9289 Y0.0521  
G01 X-2.9711 Y0.0521  
G01 X-3.0000 Y0.0810  
G01 X-3.0289 Y0.0521  
G01 X-3.0711 Y0.0521  
G01 X-3.1010 Y0.0820  
G01 X-3.1010 Y0.0885  
G01 X-3.1990 Y0.0885  
G01 X-3.1990 Y0.0820  
G01 X-3.2289 Y0.0521  
G01 X-3.2711 Y0.0521  
G01 X-3.3000 Y0.0810  
G01 X-3.3289 Y0.0521  
G01 X-3.3711 Y0.0521  
G01 X-3.4010 Y0.0820  
G01 X-3.4010 Y0.0905  
G01 X-3.5173 Y0.2431  
G01 X-3.6142 Y0.3206  
G01 X-3.6153 Y0.3214  
G01 X-3.6160 Y0.3221  
G01 X-3.6168 Y0.3227  
G01 X-3.6177 Y0.3238  
G01 X-3.6186 Y0.3247  
G01 X-3.6192 Y0.3256  
G01 X-3.6199 Y0.3264  
G01 X-3.6205 Y0.3275  
G01 X-3.6213 Y0.3286  
G01 X-3.6217 Y0.3296  
G01 X-3.6222 Y0.3305  
G01 X-3.6226 Y0.3318  
G01 X-3.6231 Y0.3330  
G01 X-3.6233 Y0.3340  
G01 X-3.6236 Y0.3350  
G01 X-3.6237 Y0.3363  
G01 X-3.6240 Y0.3376  
G01 X-3.6240 Y0.3387  
G01 X-3.6241 Y0.3397  
G01 X-3.6240 Y0.3410  
G01 X-3.6240 Y1.0524  
G01 X-3.6231 Y1.0570  
G01 X-3.6213 Y1.0614  
G01 X-3.6186 Y1.0653  
G01 X-3.6153 Y1.0686  
G01 X-3.4561 Y1.2278  
G01 X-3.4528 Y1.2311  
G01 X-3.4489 Y1.2338  
G01 X-3.4445 Y1.2356  
G01 X-3.4399 Y1.2365  
G01 X-3.2851 Y1.2365  
G01 X-3.2805 Y1.2356  
G01 X-3.2761 Y1.2338  
G01 X-3.2722 Y1.2311  
G01 X-3.2689 Y1.2278  
G01 X-3.2662 Y1.2239  
G01 X-3.2644 Y1.2195  
G01 X-3.2635 Y1.2149  
G01 X-3.2635 Y1.1226  
G01 X-3.2644 Y1.1180  
G01 X-3.2662 Y1.1136  
G01 X-3.2689 Y1.1097  
G01 X-3.2722 Y1.1064  
G01 X-3.3071 Y1.0714  
G01 X-3.3078 Y1.0706  
G01 X-3.3088 Y1.0698  
G01 X-3.3097 Y1.0689  
G01 X-3.3106 Y1.0683  
G01 X-3.4085 Y0.9863  
G01 X-3.4085 Y0.9201  
G01 X-3.3696 Y0.9015  
G01 X-3.2015 Y0.9015  
G01 X-3.2015 Y0.9993  
G01 X-3.2016 Y1.0010  
G01 X-3.2015 Y1.0017  
G01 X-3.2015 Y1.0024  
G01 X-3.2012 Y1.0040  
G01 X-3.2009 Y1.0057  
G01 X-3.2007 Y1.0063  
G01 X-3.2006 Y1.0070  
G01 X-3.1999 Y1.0085  
G01 X-3.1994 Y1.0101  
G01 X-3.1990 Y1.0107  
G01 X-3.1988 Y1.0114  
G01 X-3.1978 Y1.0128  
G01 X-3.1970 Y1.0142  
G01 X-3.1965 Y1.0147  
G01 X-3.1961 Y1.0153  
G01 X-3.1950 Y1.0165  
G01 X-3.1939 Y1.0177  
G01 X-3.1933 Y1.0181  
G01 X-3.1928 Y1.0186  
G01 X-3.1914 Y1.0196  
G01 X-3.1901 Y1.0206  
G01 X-3.1895 Y1.0209  
G01 X-3.1889 Y1.0213  
G01 X-3.1873 Y1.0219  
G01 X-3.1240 Y1.0525  
G01 X-3.1240 Y1.0999  
G01 X-3.1264 Y1.1023  
G01 X-3.1301 Y1.1079  
G01 X-3.1327 Y1.1141  
G01 X-3.1340 Y1.1207  
G01 X-3.1340 Y1.1793  
G01 X-3.1327 Y1.1859  
G01 X-3.1301 Y1.1921  
G01 X-3.1264 Y1.1977  
G01 X-3.1217 Y1.2024  
G01 X-3.1161 Y1.2061  
G01 X-3.1099 Y1.2087  
G01 X-3.1033 Y1.2100  
G01 X-3.0967 Y1.2100  
G01 X-3.0901 Y1.2087  
G01 X-3.0839 Y1.2061  
G01 X-3.0783 Y1.2024  
G01 X-3.0736 Y1.1977  
G01 X-3.0699 Y1.1921  
G01 X-3.0673 Y1.1859  
G01 X-3.0660 Y1.1793  
G01 X-3.0660 Y1.1207  
G01 X-3.0673 Y1.1141  
G01 X-3.0699 Y1.1079  
G01 X-3.0736 Y1.1023  
G01 X-3.0760 Y1.0999  
G01 X-3.0760 Y1.0382  
G01 X-3.0759 Y1.0365  
G01 X-3.0760 Y1.0358  
G01 X-3.0760 Y1.0351  
G01 X-3.0763 Y1.0335  
G01 X-3.0766 Y1.0318  
G01 X-3.0768 Y1.0312  
G01 X-3.0769 Y1.0305  
G01 X-3.0776 Y1.0290  
G01 X-3.0781 Y1.0274  
G01 X-3.0785 Y1.0268  
G01 X-3.0787 Y1.0261  
G01 X-3.0797 Y1.0247  
G01 X-3.0805 Y1.0233  
G01 X-3.0810 Y1.0228  
G01 X-3.0814 Y1.0222  
G01 X-3.0825 Y1.0210  
G01 X-3.0836 Y1.0198  
G01 X-3.0842 Y1.0194  
G01 X-3.0847 Y1.0189  
G01 X-3.0861 Y1.0179  
G01 X-3.0874 Y1.0169  
G01 X-3.0880 Y1.0166  
G01 X-3.0886 Y1.0162  
G01 X-3.0902 Y1.0156  
G01 X-3.1535 Y0.9850  
G01 X-3.1535 Y0.8788  
G01 X-3.1214 Y0.5755  
G01 X-3.1194 Y0.5741  
G01 X-3.1142 Y0.5688  
G01 X-3.1098 Y0.5628  
G01 X-3.1064 Y0.5563  
G01 X-3.1042 Y0.5492  
G01 X-3.1030 Y0.5419  
G01 X-3.1030 Y0.4565  
G01 X-3.1042 Y0.4492  
G01 X-3.1064 Y0.4422  
G01 X-3.1098 Y0.4356  
G01 X-3.1142 Y0.4296  
G01 X-3.1194 Y0.4244  
G01 X-3.1254 Y0.4200  
G01 X-3.1320 Y0.4167  
G01 X-3.1390 Y0.4144  
G01 X-3.1463 Y0.4132  
G01 X-3.1537 Y0.4132  
G01 X-3.1610 Y0.4144  
G01 X-3.1680 Y0.4167  
G01 X-3.1746 Y0.4200  
G01 X-3.1806 Y0.4244  
G01 X-3.1858 Y0.4296  
G01 X-3.1902 Y0.4356  
G01 X-3.1936 Y0.4422  
G01 X-3.1958 Y0.4492  
G01 X-3.1970 Y0.4565  
G01 X-3.1970 Y0.5419  
G01 X-3.1958 Y0.5492  
G01 X-3.1936 Y0.5563  
G01 X-3.1902 Y0.5628  
G01 X-3.1858 Y0.5688  
G01 X-3.1806 Y0.5741  
G01 X-3.1746 Y0.5784  
G01 X-3.1702 Y0.5807  
G01 X-3.1991 Y0.8535  
G01 X-3.3733 Y0.8535  
G01 X-3.3739 Y0.8534  
G01 X-3.3756 Y0.8535  
G01 X-3.3774 Y0.8535  
G01 X-3.3780 Y0.8536  
G01 X-3.3786 Y0.8537  
G01 X-3.3803 Y0.8541  
G01 X-3.3820 Y0.8544  
G01 X-3.3826 Y0.8547  
G01 X-3.3832 Y0.8548  
G01 X-3.3848 Y0.8556  
G01 X-3.3864 Y0.8562  
G01 X-3.3869 Y0.8566  
G01 X-3.4423 Y0.8831  
G01 X-3.4439 Y0.8837  
G01 X-3.4444 Y0.8841  
G01 X-3.4450 Y0.8844  
G01 X-3.4464 Y0.8854  
G01 X-3.4478 Y0.8864  
G01 X-3.4483 Y0.8868  
G01 X-3.4488 Y0.8872  
G01 X-3.4499 Y0.8885  
G01 X-3.4511 Y0.8897  
G01 X-3.4515 Y0.8902  
G01 X-3.4519 Y0.8907  
G01 X-3.4528 Y0.8922  
G01 X-3.4538 Y0.8936  
G01 X-3.4540 Y0.8942  
G01 X-3.4543 Y0.8948  
G01 X-3.4549 Y0.8964  
G01 X-3.4556 Y0.8980  
G01 X-3.4557 Y0.8986  
G01 X-3.4559 Y0.8992  
G01 X-3.4562 Y0.9009  
G01 X-3.4565 Y0.9026  
G01 X-3.4565 Y0.9033  
G01 X-3.4566 Y0.9039  
G01 X-3.4565 Y0.9056  
G01 X-3.4565 Y0.9962  
G01 X-3.4566 Y0.9973  
G01 X-3.4565 Y0.9986  
G01 X-3.4565 Y0.9999  
G01 X-3.4563 Y1.0009  
G01 X-3.4562 Y1.0020  
G01 X-3.4558 Y1.0032  
G01 X-3.4556 Y1.0045  
G01 X-3.4552 Y1.0055  
G01 X-3.4549 Y1.0065  
G01 X-3.4543 Y1.0077  
G01 X-3.4538 Y1.0089  
G01 X-3.4532 Y1.0098  
G01 X-3.4527 Y1.0107  
G01 X-3.4519 Y1.0117  
G01 X-3.4511 Y1.0128  
G01 X-3.4504 Y1.0136  
G01 X-3.4497 Y1.0144  
G01 X-3.4487 Y1.0152  
G01 X-3.4478 Y1.0161  
G01 X-3.4469 Y1.0167  
G01 X-3.3412 Y1.1052  
G01 X-3.3115 Y1.1349  
G01 X-3.3115 Y1.1885  
G01 X-3.4276 Y1.1885  
G01 X-3.5760 Y1.0401  
G01 X-3.5760 Y0.3515  
G01 X-3.4864 Y0.2798  
G01 X-3.4859 Y0.2796  
G01 X-3.4846 Y0.2784  
G01 X-3.4832 Y0.2773  
G01 X-3.4828 Y0.2768  
G01 X-3.4823 Y0.2764  
G01 X-3.4813 Y0.2750  
G01 X-3.4801 Y0.2736  
G01 X-3.4798 Y0.2731  
G01 X-3.3814 Y0.1439  
G01 X-3.3711 Y0.1541  
G01 X-3.3289 Y0.1541  
G01 X-3.3112 Y0.1365  
G01 X-3.2888 Y0.1365  
G01 X-3.2711 Y0.1541  
G01 X-3.2289 Y0.1541  
G01 X-3.2112 Y0.1365  
G01 X-3.0888 Y0.1365  
G01 X-3.0711 Y0.1541  
G01 X-3.0289 Y0.1541  
G01 X-3.0112 Y0.1365  
G01 X-2.9888 Y0.1365  
G01 X-2.9711 Y0.1541  
G01 X-2.9289 Y0.1541  
G01 X-2.9112 Y0.1365  
G01 X-2.5388 Y0.1365  
G01 X-2.5211 Y0.1541  
G01 X-2.4789 Y0.1541  
G01 X-2.4612 Y0.1365  
G01 X-2.4388 Y0.1365  
G01 X-2.4211 Y0.1541  
G01 X-2.3789 Y0.1541  
G01 X-2.3612 Y0.1365  
G01 X-2.2388 Y0.1365  
G01 X-2.2211 Y0.1541  
G01 X-2.1789 Y0.1541  
G01 X-2.1612 Y0.1365  
G01 X-2.1388 Y0.1365  
G01 X-2.1211 Y0.1541  
G01 X-2.0789 Y0.1541  
G01 X-2.0612 Y0.1365  
G01 X-1.8940 Y0.1365  
G01 X-1.8940 Y0.6535  
G01 X-1.9637 Y0.6535  
G01 X-1.9647 Y0.6534  
G01 X-1.9660 Y0.6535  
G01 X-1.9674 Y0.6535  
G01 X-1.9684 Y0.6537  
G01 X-2.0535 Y0.6610  
G01 X-2.1244 Y0.6610  
G01 X-2.2092 Y0.6387  
G01 X-2.2669 Y0.5716  
G01 X-2.2642 Y0.5688  
G01 X-2.2598 Y0.5628  
G01 X-2.2564 Y0.5563  
G01 X-2.2542 Y0.5492  
G01 X-2.2530 Y0.5419  
G01 X-2.2530 Y0.4565  
G01 X-2.2542 Y0.4492  
G01 X-2.2564 Y0.4422  
G01 X-2.2598 Y0.4356  
G01 X-2.2642 Y0.4296  
G01 X-2.2694 Y0.4244  
G01 X-2.2754 Y0.4200  
G01 X-2.2820 Y0.4167  
G01 X-2.2890 Y0.4144  
G01 X-2.2963 Y0.4132  
G01 X-2.3037 Y0.4132  
G01 X-2.3110 Y0.4144  
G01 X-2.3180 Y0.4167  
G01 X-2.3246 Y0.4200  
G01 X-2.3306 Y0.4244  
G01 X-2.3358 Y0.4296  
G01 X-2.3402 Y0.4356  
G01 X-2.3436 Y0.4422  
G01 X-2.3458 Y0.4492  
G01 X-2.3470 Y0.4565  
G01 X-2.3470 Y0.5419  
G01 X-2.3458 Y0.5492  
G01 X-2.3436 Y0.5563  
G01 X-2.3402 Y0.5628  
G01 X-2.3358 Y0.5688  
G01 X-2.3306 Y0.5741  
G01 X-2.3246 Y0.5784  
G01 X-2.3221 Y0.5797  
G01 X-2.3216 Y0.5805  
G01 X-2.3213 Y0.5814  
G01 X-2.3205 Y0.5826  
G01 X-2.3197 Y0.5839  
G01 X-2.3191 Y0.5846  
G01 X-2.3186 Y0.5853  
G01 X-2.3176 Y0.5863  
G01 X-2.2421 Y0.6740  
G01 X-2.2420 Y0.6741  
G01 X-2.2406 Y0.6758  
G01 X-2.2391 Y0.6775  
G01 X-2.2390 Y0.6776  
G01 X-2.2389 Y0.6777  
G01 X-2.2372 Y0.6790  
G01 X-2.2354 Y0.6804  
G01 X-2.2353 Y0.6804  
G01 X-2.2351 Y0.6805  
G01 X-2.2332 Y0.6815  
G01 X-2.2312 Y0.6825  
G01 X-2.2310 Y0.6825  
G01 X-2.2309 Y0.6826  
G01 X-2.2288 Y0.6832  
G01 X-2.2266 Y0.6838  
G01 X-2.2265 Y0.6838  
G01 X-2.1352 Y0.7078  
G01 X-2.1345 Y0.7081  
G01 X-2.1329 Y0.7084  
G01 X-2.1313 Y0.7088  
G01 X-2.1306 Y0.7089  
G01 X-2.1299 Y0.7090  
G01 X-2.1282 Y0.7090  
G01 X-2.1266 Y0.7091  
G01 X-2.1259 Y0.7090  
G01 X-2.0538 Y0.7090  
G01 X-2.0528 Y0.7091  
G01 X-2.0515 Y0.7090  
G01 X-2.0501 Y0.7090  
G01 X-2.0491 Y0.7088  
G01 X-1.9640 Y0.7015  
G01 X-1.7467 Y0.7015  
G01 X-1.7461 Y0.7016  
G01 X-1.7444 Y0.7015  
G01 X-1.7426 Y0.7015  
G01 X-1.7420 Y0.7014  
G01 X-1.6976 Y0.6990  
G01 X-1.5565 Y0.7076  
G01 X-1.5566 Y0.7086  
G01 X-1.5565 Y0.7092  
G01 X-1.5565 Y0.7099  
G01 X-1.5562 Y0.7116  
G01 X-1.5559 Y0.7133  
G01 X-1.5557 Y0.7139  
G01 X-1.5556 Y0.7145  
G01 X-1.5549 Y0.7161  
G01 X-1.5543 Y0.7177  
G01 X-1.5540 Y0.7183  
G01 X-1.5538 Y0.7189  
G01 X-1.5528 Y0.7203  
G01 X-1.4615 Y0.8741  
G01 X-1.4615 Y0.9851  
G01 X-1.4643 Y0.9992  
G01 X-1.6114 Y0.9837  
G01 X-1.6125 Y0.9835  
G01 X-1.6414 Y0.9547  
G01 X-1.6447 Y0.9514  
G01 X-1.6486 Y0.9487  
G01 X-1.6530 Y0.9469  
G01 X-1.6576 Y0.9460  
G01 X-1.8660 Y0.9460  
G01 X-1.8660 Y0.9447  
G01 X-1.8673 Y0.9381  
G01 X-1.8699 Y0.9319  
G01 X-1.8736 Y0.9263  
G01 X-1.8783 Y0.9216  
G01 X-1.8839 Y0.9179  
G01 X-1.8901 Y0.9153  
G01 X-1.8967 Y0.9140  
G01 X-1.9033 Y0.9140  
G01 X-1.9099 Y0.9153  
G01 X-1.9161 Y0.9179  
G01 X-1.9217 Y0.9216  
G01 X-1.9264 Y0.9263  
G01 X-1.9301 Y0.9319  
G01 X-1.9327 Y0.9381  
G01 X-1.9340 Y0.9447  
G01 X-1.9340 Y1.0033  
G01 X-1.9327 Y1.0099  
G01 X-1.9301 Y1.0161  
G01 X-1.9264 Y1.0217  
G01 X-1.9217 Y1.0264  
G01 X-1.9161 Y1.0301  
G01 X-1.9099 Y1.0327  
G01 X-1.9033 Y1.0340  
G01 X-1.8967 Y1.0340  
G01 X-1.8901 Y1.0327  
G01 X-1.8839 Y1.0301  
G01 X-1.8783 Y1.0264  
G01 X-1.8736 Y1.0217  
G01 X-1.8699 Y1.0161  
G01 X-1.8673 Y1.0099  
G01 X-1.8660 Y1.0033  
G01 X-1.8660 Y0.9999  
G01 X-1.8601 Y0.9940  
G01 X-1.6699 Y0.9940  
G01 X-1.6378 Y1.0261  
G01 X-1.6339 Y1.0288  
G01 X-1.6295 Y1.0306  
G01 X-1.6249 Y1.0315  
G01 X-1.6163 Y1.0315  
G01 X-1.4456 Y1.0495  
G01 X-1.4365 Y1.1021  
G01 X-1.4365 Y1.1024  
G01 X-1.4361 Y1.1044  
G01 X-1.4357 Y1.1064  
G01 X-1.4356 Y1.1067  
G01 X-1.4356 Y1.1070  
G01 X-1.4348 Y1.1089  
G01 X-1.4341 Y1.1108  
G01 X-1.4340 Y1.1141  
G01 X-1.4141 Y1.1340  
G01 X-1.3999 Y1.1340  
G01 X-1.3686 Y1.1653  
G01 X-1.3653 Y1.1686  
G01 X-1.3614 Y1.1713  
G01 X-1.3570 Y1.1731  
G01 X-1.3524 Y1.1740  
G01 X-1.2241 Y1.1740  
G01 X-1.2141 Y1.1840  
G01 X-1.1859 Y1.1840  
G01 X-1.1759 Y1.1740  
G01 X-1.1240 Y1.1740  
G01 X-1.1240 Y1.2898  
G01 X-1.1250 Y1.2905  
G01 X-1.1303 Y1.2958  
G01 X-1.1345 Y1.3020  
G01 X-1.1373 Y1.3089  
G01 X-1.1388 Y1.3163  
G01 X-1.1388 Y1.3837  
G01 X-1.1373 Y1.3911  
G01 X-1.1345 Y1.3980  
G01 X-1.1303 Y1.4042  
G01 X-1.1250 Y1.4095  
G01 X-1.1188 Y1.4137  
G01 X-1.1119 Y1.4165  
G01 X-1.1045 Y1.4180  
G01 X-1.0970 Y1.4180  
G01 X-1.0897 Y1.4165  
G01 X-1.0828 Y1.4137  
G01 X-1.0766 Y1.4095  
G01 X-1.0713 Y1.4042  
G01 X-1.0671 Y1.3980  
G01 X-1.0642 Y1.3911  
G01 X-1.0628 Y1.3837  
G01 X-1.0628 Y1.3163  
G01 X-1.0642 Y1.3089  
G01 X-1.0671 Y1.3020  
G01 X-1.0713 Y1.2958  
G01 X-1.0760 Y1.2910  
G01 X-1.0760 Y1.1799  
G01 X-1.0664 Y1.1895  
G01 X-1.0336 Y1.1895  
G01 X-1.0105 Y1.1664  
G01 X-1.0105 Y1.1336  
G01 X-1.0336 Y1.1105  
G01 X-1.0664 Y1.1105  
G01 X-1.0819 Y1.1260  
G01 X-1.1759 Y1.1260  
G01 X-1.1859 Y1.1160  
G01 X-1.2141 Y1.1160  
G01 X-1.2241 Y1.1260  
G01 X-1.3401 Y1.1260  
G01 X-1.3660 Y1.1001  
G01 X-1.3660 Y1.0859  
G01 X-1.3859 Y1.0660  
G01 X-1.3940 Y1.0660  
G01 X-1.4011 Y1.0246  
G01 X-1.4012 Y1.0234  
G01 X-1.4013 Y1.0232  
G01 X-1.4013 Y1.0230  
G01 X-1.4016 Y1.0220  
G01 X-1.4018 Y1.0211  
G01 X-1.4022 Y1.0200  
G01 X-1.4025 Y1.0189  
G01 X-1.4026 Y1.0186  
G01 X-1.4027 Y1.0184  
G01 X-1.4031 Y1.0176  
G01 X-1.4034 Y1.0167  
G01 X-1.4041 Y1.0157  
G01 X-1.4046 Y1.0146  
G01 X-1.4047 Y1.0144  
G01 X-1.4049 Y1.0142  
G01 X-1.4055 Y1.0135  
G01 X-1.4060 Y1.0127  
G01 X-1.4068 Y1.0118  
G01 X-1.4075 Y1.0109  
G01 X-1.4077 Y1.0107  
G01 X-1.4078 Y1.0106  
G01 X-1.4086 Y1.0100  
G01 X-1.4092 Y1.0093  
G01 X-1.4102 Y1.0086  
G01 X-1.4111 Y1.0078  
G01 X-1.4113 Y1.0077  
G01 X-1.4115 Y1.0075  
G01 X-1.4123 Y1.0071  
G01 X-1.4131 Y1.0065  
G01 X-1.4142 Y1.0061  
G01 X-1.4152 Y1.0055  
G01 X-1.4154 Y1.0054  
G01 X-1.4156 Y1.0053  
G01 X-1.4165 Y1.0050  
G01 X-1.4144 Y0.9945  
G01 X-1.4140 Y0.9922  
G01 X-1.4135 Y0.9899  
G01 X-1.4135 Y0.9875  
G01 X-1.4135 Y0.9852  
G01 X-1.4135 Y0.8681  
G01 X-1.4134 Y0.8664  
G01 X-1.4135 Y0.8658  
G01 X-1.4135 Y0.8651  
G01 X-1.4138 Y0.8634  
G01 X-1.4141 Y0.8617  
G01 X-1.4143 Y0.8611  
G01 X-1.4144 Y0.8605  
G01 X-1.4151 Y0.8589  
G01 X-1.4157 Y0.8573  
G01 X-1.4160 Y0.8567  
G01 X-1.4162 Y0.8561  
G01 X-1.4172 Y0.8547  
G01 X-1.5085 Y0.7009  
G01 X-1.5085 Y0.6904  
G01 X-1.4579 Y0.5846  
G01 X-1.4537 Y0.5852  
G01 X-1.4463 Y0.5852  
G01 X-1.4390 Y0.5841  
G01 X-1.4320 Y0.5818  
G01 X-1.4254 Y0.5784  
G01 X-1.4194 Y0.5741  
G01 X-1.4142 Y0.5688  
G01 X-1.4098 Y0.5628  
G01 X-1.4064 Y0.5563  
G01 X-1.4042 Y0.5492  
G01 X-1.4030 Y0.5419  
G01 X-1.4030 Y0.4565  
G01 X-1.4042 Y0.4492  
G01 X-1.4064 Y0.4422  
G01 X-1.4098 Y0.4356  
G01 X-1.4142 Y0.4296  
G01 X-1.4194 Y0.4244  
G01 X-1.4254 Y0.4200  
G01 X-1.4320 Y0.4167  
G01 X-1.4390 Y0.4144  
G01 X-1.4463 Y0.4132  
G01 X-1.4537 Y0.4132  
G01 X-1.4610 Y0.4144  
G01 X-1.4680 Y0.4167  
G01 X-1.4746 Y0.4200  
G01 X-1.4806 Y0.4244  
G01 X-1.4858 Y0.4296  
G01 X-1.4902 Y0.4356  
G01 X-1.4936 Y0.4422  
G01 X-1.4958 Y0.4492  
G01 X-1.4970 Y0.4565  
G01 X-1.4970 Y0.5419  
G01 X-1.4958 Y0.5492  
G01 X-1.4952 Y0.5513  
G01 X-1.5472 Y0.6601  
G01 X-1.6951 Y0.6511  
G01 X-1.6964 Y0.6509  
G01 X-1.6974 Y0.6510  
G01 X-1.6984 Y0.6509  
G01 X-1.6998 Y0.6511  
G01 X-1.7456 Y0.6535  
G01 X-1.8460 Y0.6535  
G01 X-1.8460 Y0.1365  
G01 X-1.6888 Y0.1365  
G01 X-1.6711 Y0.1541  
G01 X-1.6289 Y0.1541  
G01 X-1.6112 Y0.1365  
G01 X-1.5888 Y0.1365  
G01 X-1.5711 Y0.1541  
G01 X-1.5289 Y0.1541  
G01 X-1.5112 Y0.1365  
G01 X-1.3888 Y0.1365  
G01 X-1.3711 Y0.1541  
G01 X-1.3289 Y0.1541  
G01 X-1.3112 Y0.1365  
G01 X-1.2888 Y0.1365  
G01 X-1.2711 Y0.1541  
G01 X-1.2289 Y0.1541  
G01 X-1.2112 Y0.1365  
G01 X-0.8388 Y0.1365  
G01 X-0.8211 Y0.1541  
G01 X-0.7789 Y0.1541  
G01 X-0.7612 Y0.1365  
G01 X-0.7388 Y0.1365  
G01 X-0.7211 Y0.1541  
G01 X-0.6789 Y0.1541  
G01 X-0.6612 Y0.1365  
G01 X-0.6240 Y0.1365  
G01 X-0.6240 Y0.4197  
G01 X-0.6246 Y0.4200  
G01 X-0.6306 Y0.4244  
G01 X-0.6358 Y0.4296  
G01 X-0.6402 Y0.4356  
G01 X-0.6436 Y0.4422  
G01 X-0.6458 Y0.4492  
G01 X-0.6470 Y0.4565  
G01 X-0.6470 Y0.5419  
G01 X-0.6458 Y0.5492  
G01 X-0.6436 Y0.5563  
G01 X-0.6402 Y0.5628  
G01 X-0.6358 Y0.5688  
G01 X-0.6306 Y0.5741  
G01 X-0.6246 Y0.5784  
G01 X-0.6180 Y0.5818  
G01 X-0.6110 Y0.5841  
G01 X-0.6037 Y0.5852  
G01 X-0.5963 Y0.5852  
G01 X-0.5890 Y0.5841  
G01 X-0.5820 Y0.5818  
G01 X-0.5754 Y0.5784  
G01 X-0.5694 Y0.5741  
G01 X-0.5642 Y0.5688  
G01 X-0.5598 Y0.5628  
G01 X-0.5564 Y0.5563  
G01 X-0.5542 Y0.5492  
G01 X-0.5530 Y0.5419  
G01 X-0.5530 Y0.4565  
G01 X-0.5542 Y0.4492  
G01 X-0.5564 Y0.4422  
G01 X-0.5598 Y0.4356  
G01 X-0.5642 Y0.4296  
G01 X-0.5694 Y0.4244  
G01 X-0.5754 Y0.4200  
G01 X-0.5760 Y0.4197  
G01 X-0.5760 Y0.1365  
G01 X-0.5388 Y0.1365  
G01 X-0.5211 Y0.1541  
G01 X-0.4789 Y0.1541  
G01 X-0.4612 Y0.1365  
G01 X-0.4388 Y0.1365  
G01 X-0.4240 Y0.1513  
G01 X-0.4240 Y0.2024  
G01 X-0.4231 Y0.2070  
G01 X-0.4213 Y0.2114  
G01 X-0.4186 Y0.2153  
G01 X-0.4153 Y0.2186  
G01 X-0.1365 Y0.4974  
G01 X-0.1365 Y0.9612  
G01 X-0.1541 Y0.9789  
G01 X-0.1541 Y1.0211  
G01 X-0.1253 Y1.0500  
G01 X-0.1541 Y1.0789  
G01 X-0.1541 Y1.1211  
G01 X-0.1243 Y1.1510  
G01 X-0.1240 Y1.1510  
G01 X-0.1240 Y1.2490  
G01 X-0.1243 Y1.2490  
G01 X-0.1541 Y1.2789  
G01 X-0.1541 Y1.3211  
G01 X-0.1253 Y1.3500  
G01 X-0.1541 Y1.3789  
G01 X-0.1541 Y1.4211  
G01 X-0.1243 Y1.4510  
G01 X-0.0820 Y1.4510  
G01 X-0.0521 Y1.4211  
G01 X-0.0521 Y1.3789  
G01 X-0.0760 Y1.3550  
G01 X-0.0760 Y1.3450  
G01 X-0.0521 Y1.3211  
G01 X-0.0521 Y1.2789  
G01 X-0.0760 Y1.2550  
G01 X-0.0760 Y1.1450  
G01 X-0.0521 Y1.1211  
G01 X-0.0521 Y1.0789  
G01 X-0.0760 Y1.0550  
G01 X-0.0760 Y1.0450  
G01 X-0.0521 Y1.0211  
G01 X-0.0521 Y0.9789  
G01 X-0.0820 Y0.9490  
G01 X-0.0885 Y0.9490  
G01 X-0.0885 Y0.4851  
G01 X-0.0894 Y0.4805  
G01 X-0.0912 Y0.4761  
G01 X-0.0939 Y0.4722  
G01 X-0.3760 Y0.1901  
G01 X-0.3760 Y0.1513  
G01 X-0.3490 Y0.1243  
G01 X-0.3490 Y0.0820  
G00 Z0.0500  
G00 X-0.3251 Y0.4443  
G01 Z-0.0035 F10    
G01 X-0.3549 Y0.4742  F20    
G01 X-0.3549 Y0.5164  
G01 X-0.3251 Y0.5463  
G01 X-0.2828 Y0.5463  
G01 X-0.2529 Y0.5164  
G01 X-0.2529 Y0.4742  
G01 X-0.2828 Y0.4443  
G01 X-0.3251 Y0.4443  
G00 Z0.0500  
G00 X-0.3490 Y0.5702  
G01 Z-0.0035 F10    
G01 X-0.3789 Y0.5403  F20    
G01 X-0.4211 Y0.5403  
G01 X-0.4510 Y0.5702  
G01 X-0.4510 Y0.6125  
G01 X-0.4211 Y0.6423  
G01 X-0.3829 Y0.6423  
G01 X-0.3240 Y0.7013  
G01 X-0.3240 Y1.5359  
G01 X-0.4862 Y1.6260  
G01 X-1.8980 Y1.6260  
G01 X-2.1957 Y1.5764  
G01 X-2.1976 Y1.5760  
G01 X-2.1980 Y1.5760  
G01 X-2.1984 Y1.5759  
G01 X-2.2004 Y1.5760  
G01 X-2.3759 Y1.5760  
G01 X-2.3859 Y1.5660  
G01 X-2.4141 Y1.5660  
G01 X-2.4340 Y1.5859  
G01 X-2.4340 Y1.6141  
G01 X-2.4141 Y1.6340  
G01 X-2.3859 Y1.6340  
G01 X-2.3759 Y1.6240  
G01 X-2.2020 Y1.6240  
G01 X-1.9043 Y1.6736  
G01 X-1.9024 Y1.6740  
G01 X-1.9020 Y1.6740  
G01 X-1.9016 Y1.6741  
G01 X-1.8996 Y1.6740  
G01 X-0.4810 Y1.6740  
G01 X-0.4796 Y1.6741  
G01 X-0.4786 Y1.6740  
G01 X-0.4776 Y1.6740  
G01 X-0.4763 Y1.6737  
G01 X-0.4749 Y1.6736  
G01 X-0.4740 Y1.6733  
G01 X-0.4730 Y1.6731  
G01 X-0.4717 Y1.6725  
G01 X-0.4704 Y1.6721  
G01 X-0.4695 Y1.6716  
G01 X-0.4686 Y1.6713  
G01 X-0.4675 Y1.6705  
G01 X-0.2895 Y1.5716  
G01 X-0.2886 Y1.5713  
G01 X-0.2875 Y1.5705  
G01 X-0.2863 Y1.5698  
G01 X-0.2855 Y1.5692  
G01 X-0.2847 Y1.5686  
G01 X-0.2837 Y1.5677  
G01 X-0.2827 Y1.5668  
G01 X-0.2821 Y1.5660  
G01 X-0.2814 Y1.5653  
G01 X-0.2806 Y1.5642  
G01 X-0.2797 Y1.5631  
G01 X-0.2793 Y1.5622  
G01 X-0.2787 Y1.5614  
G01 X-0.2782 Y1.5601  
G01 X-0.2776 Y1.5589  
G01 X-0.2773 Y1.5579  
G01 X-0.2769 Y1.5570  
G01 X-0.2767 Y1.5556  
G01 X-0.2763 Y1.5543  
G01 X-0.2762 Y1.5533  
G01 X-0.2760 Y1.5524  
G01 X-0.2760 Y1.5510  
G01 X-0.2759 Y1.5496  
G01 X-0.2760 Y1.5486  
G01 X-0.2760 Y0.6890  
G01 X-0.2769 Y0.6843  
G01 X-0.2787 Y0.6800  
G01 X-0.2814 Y0.6760  
G01 X-0.3490 Y0.6084  
G01 X-0.3490 Y0.5702  
G00 Z0.0500  
G00 X-0.7490 Y0.5702  
G01 Z-0.0035 F10    
G01 X-0.7789 Y0.5403  F20    
G01 X-0.8211 Y0.5403  
G01 X-0.8510 Y0.5702  
G01 X-0.8510 Y0.6125  
G01 X-0.8211 Y0.6423  
G01 X-0.7982 Y0.6423  
G01 X-0.6840 Y0.7947  
G01 X-0.6840 Y0.8141  
G01 X-0.6641 Y0.8340  
G01 X-0.6359 Y0.8340  
G01 X-0.6160 Y0.8141  
G01 X-0.6160 Y0.7859  
G01 X-0.6359 Y0.7660  
G01 X-0.6455 Y0.7660  
G01 X-0.7557 Y0.6191  
G01 X-0.7490 Y0.6125  
G01 X-0.7490 Y0.5702  
G00 Z0.0500  
G00 X-0.8789 Y0.5463  
G01 Z-0.0035 F10    
G01 X-0.8490 Y0.5164  F20    
G01 X-0.8490 Y0.4742  
G01 X-0.8789 Y0.4443  
G01 X-0.9211 Y0.4443  
G01 X-0.9510 Y0.4742  
G01 X-0.9510 Y0.5164  
G01 X-0.9211 Y0.5463  
G01 X-0.8789 Y0.5463  
G00 Z0.0500  
G00 X-1.0214 Y0.5453  
G01 Z-0.0035 F10    
G01 X-1.0187 Y0.5414  F20    
G01 X-1.0169 Y0.5370  
G01 X-1.0160 Y0.5324  
G01 X-1.0160 Y0.4176  
G01 X-1.0169 Y0.4130  
G01 X-1.0187 Y0.4086  
G01 X-1.0214 Y0.4047  
G01 X-1.0714 Y0.3547  
G01 X-1.0747 Y0.3514  
G01 X-1.0786 Y0.3487  
G01 X-1.0830 Y0.3469  
G01 X-1.0876 Y0.3460  
G01 X-1.5824 Y0.3460  
G01 X-1.5870 Y0.3469  
G01 X-1.5914 Y0.3487  
G01 X-1.5953 Y0.3514  
G01 X-1.6653 Y0.4214  
G01 X-1.6686 Y0.4247  
G01 X-1.6713 Y0.4286  
G01 X-1.6731 Y0.4330  
G01 X-1.6740 Y0.4376  
G01 X-1.6740 Y0.5432  
G01 X-1.7010 Y0.5702  
G01 X-1.7010 Y0.6125  
G01 X-1.6711 Y0.6423  
G01 X-1.6289 Y0.6423  
G01 X-1.5990 Y0.6125  
G01 X-1.5990 Y0.5702  
G01 X-1.6260 Y0.5432  
G01 X-1.6260 Y0.4499  
G01 X-1.5701 Y0.3940  
G01 X-1.0999 Y0.3940  
G01 X-1.0640 Y0.4299  
G01 X-1.0640 Y0.5201  
G01 X-1.1186 Y0.5747  
G01 X-1.1213 Y0.5786  
G01 X-1.1231 Y0.5830  
G01 X-1.1240 Y0.5876  
G01 X-1.1240 Y0.6259  
G01 X-1.1340 Y0.6359  
G01 X-1.1340 Y0.6641  
G01 X-1.1141 Y0.6840  
G01 X-1.0859 Y0.6840  
G01 X-1.0660 Y0.6641  
G01 X-1.0660 Y0.6359  
G01 X-1.0760 Y0.6259  
G01 X-1.0760 Y0.5999  
G01 X-1.0247 Y0.5486  
G01 X-1.0214 Y0.5453  
G00 Z0.0500  
G00 X-1.1029 Y0.5164  
G01 Z-0.0035 F10    
G01 X-1.1029 Y0.4742  F20    
G01 X-1.1328 Y0.4443  
G01 X-1.1751 Y0.4443  
G01 X-1.2049 Y0.4742  
G01 X-1.2049 Y0.5164  
G01 X-1.1751 Y0.5463  
G01 X-1.1328 Y0.5463  
G01 X-1.1029 Y0.5164  
G00 Z0.0500  
G00 X-1.1990 Y0.5702  
G01 Z-0.0035 F10    
G01 X-1.2289 Y0.5403  F20    
G01 X-1.2711 Y0.5403  
G01 X-1.3010 Y0.5702  
G01 X-1.3010 Y0.5760  
G01 X-1.3483 Y0.5760  
G01 X-1.3490 Y0.5759  
G01 X-1.3507 Y0.5760  
G01 X-1.3524 Y0.5760  
G01 X-1.3531 Y0.5761  
G01 X-1.3538 Y0.5762  
G01 X-1.3554 Y0.5766  
G01 X-1.3570 Y0.5769  
G01 X-1.3577 Y0.5772  
G01 X-1.3583 Y0.5774  
G01 X-1.3598 Y0.5781  
G01 X-1.3614 Y0.5787  
G01 X-1.3620 Y0.5791  
G01 X-1.3626 Y0.5794  
G01 X-1.3639 Y0.5804  
G01 X-1.3653 Y0.5814  
G01 X-1.3658 Y0.5819  
G01 X-1.3664 Y0.5823  
G01 X-1.3675 Y0.5835  
G01 X-1.3686 Y0.5847  
G01 X-1.3690 Y0.5853  
G01 X-1.3695 Y0.5858  
G01 X-1.3703 Y0.5873  
G01 X-1.3713 Y0.5886  
G01 X-1.3715 Y0.5893  
G01 X-1.3719 Y0.5899  
G01 X-1.3724 Y0.5915  
G01 X-1.3731 Y0.5930  
G01 X-1.3732 Y0.5937  
G01 X-1.3734 Y0.5944  
G01 X-1.3737 Y0.5960  
G01 X-1.3740 Y0.5976  
G01 X-1.3740 Y0.5983  
G01 X-1.3741 Y0.5990  
G01 X-1.3740 Y0.6007  
G01 X-1.3740 Y0.6024  
G01 X-1.3739 Y0.6031  
G01 X-1.3654 Y0.7473  
G01 X-1.3740 Y0.7559  
G01 X-1.3740 Y0.7841  
G01 X-1.3541 Y0.8040  
G01 X-1.3259 Y0.8040  
G01 X-1.3060 Y0.7841  
G01 X-1.3060 Y0.7559  
G01 X-1.3175 Y0.7445  
G01 X-1.3245 Y0.6240  
G01 X-1.2895 Y0.6240  
G01 X-1.2711 Y0.6423  
G01 X-1.2289 Y0.6423  
G01 X-1.1990 Y0.6125  
G01 X-1.1990 Y0.5702  
G00 Z0.0500  
G00 X-1.2260 Y0.9059  
G01 Z-0.0035 F10    
G01 X-1.2459 Y0.8860  F20    
G01 X-1.2741 Y0.8860  
G01 X-1.2940 Y0.9059  
G01 X-1.2940 Y0.9341  
G01 X-1.2741 Y0.9540  
G01 X-1.2707 Y0.9540  
G01 X-1.2333 Y1.0352  
G01 X-1.2340 Y1.0359  
G01 X-1.2340 Y1.0641  
G01 X-1.2141 Y1.0840  
G01 X-1.1859 Y1.0840  
G01 X-1.1759 Y1.0740  
G01 X-1.0815 Y1.0740  
G01 X-1.0807 Y1.0752  
G01 X-1.0752 Y1.0807  
G01 X-1.0687 Y1.0850  
G01 X-1.0615 Y1.0880  
G01 X-1.0539 Y1.0895  
G01 X-1.0461 Y1.0895  
G01 X-1.0385 Y1.0880  
G01 X-1.0349 Y1.0865  
G01 X-0.9990 Y1.1224  
G01 X-0.9990 Y1.4260  
G01 X-1.3501 Y1.4260  
G01 X-1.5748 Y1.1115  
G01 X-1.5340 Y1.1115  
G01 X-1.5340 Y1.1141  
G01 X-1.5141 Y1.1340  
G01 X-1.4859 Y1.1340  
G01 X-1.4660 Y1.1141  
G01 X-1.4660 Y1.0859  
G01 X-1.4859 Y1.0660  
G01 X-1.5017 Y1.0660  
G01 X-1.5055 Y1.0644  
G01 X-1.5101 Y1.0635  
G01 X-1.6401 Y1.0635  
G01 X-1.6534 Y1.0501  
G01 X-1.6542 Y1.0492  
G01 X-1.6551 Y1.0485  
G01 X-1.6560 Y1.0476  
G01 X-1.6569 Y1.0470  
G01 X-1.6578 Y1.0462  
G01 X-1.6589 Y1.0456  
G01 X-1.6599 Y1.0450  
G01 X-1.6610 Y1.0445  
G01 X-1.6620 Y1.0440  
G01 X-1.6631 Y1.0436  
G01 X-1.6642 Y1.0432  
G01 X-1.6654 Y1.0429  
G01 X-1.6665 Y1.0426  
G01 X-1.6677 Y1.0425  
G01 X-1.6689 Y1.0422  
G01 X-1.6701 Y1.0422  
G01 X-1.6712 Y1.0421  
G01 X-1.6724 Y1.0422  
G01 X-1.6736 Y1.0422  
G01 X-1.6748 Y1.0425  
G01 X-1.8387 Y1.0585  
G01 X-2.1760 Y1.0585  
G01 X-2.1760 Y1.0241  
G01 X-2.1736 Y1.0217  
G01 X-2.1699 Y1.0161  
G01 X-2.1673 Y1.0099  
G01 X-2.1660 Y1.0033  
G01 X-2.1660 Y0.9447  
G01 X-2.1673 Y0.9381  
G01 X-2.1699 Y0.9319  
G01 X-2.1736 Y0.9263  
G01 X-2.1783 Y0.9216  
G01 X-2.1839 Y0.9179  
G01 X-2.1901 Y0.9153  
G01 X-2.1967 Y0.9140  
G01 X-2.2033 Y0.9140  
G01 X-2.2099 Y0.9153  
G01 X-2.2161 Y0.9179  
G01 X-2.2217 Y0.9216  
G01 X-2.2264 Y0.9263  
G01 X-2.2301 Y0.9319  
G01 X-2.2327 Y0.9381  
G01 X-2.2340 Y0.9447  
G01 X-2.2340 Y0.9562  
G01 X-2.3660 Y0.8902  
G01 X-2.3660 Y0.8859  
G01 X-2.3859 Y0.8660  
G01 X-2.4141 Y0.8660  
G01 X-2.4190 Y0.8709  
G01 X-2.4351 Y0.8671  
G01 X-2.4355 Y0.8669  
G01 X-2.4374 Y0.8665  
G01 X-2.4393 Y0.8661  
G01 X-2.4397 Y0.8661  
G01 X-2.5482 Y0.8444  
G01 X-2.5485 Y0.8443  
G01 X-2.5506 Y0.8439  
G01 X-2.5526 Y0.8435  
G01 X-2.5529 Y0.8435  
G01 X-2.6860 Y0.8200  
G01 X-2.6860 Y0.8159  
G01 X-2.7059 Y0.7960  
G01 X-2.7341 Y0.7960  
G01 X-2.7540 Y0.8159  
G01 X-2.7540 Y0.8441  
G01 X-2.7341 Y0.8640  
G01 X-2.7129 Y0.8640  
G01 X-2.5594 Y0.8911  
G01 X-2.4476 Y0.9135  
G01 X-2.4306 Y0.9174  
G01 X-2.4141 Y0.9340  
G01 X-2.3859 Y0.9340  
G01 X-2.2324 Y1.0106  
G01 X-2.2301 Y1.0161  
G01 X-2.2264 Y1.0217  
G01 X-2.2240 Y1.0241  
G01 X-2.2240 Y1.1401  
G01 X-2.4802 Y1.3963  
G01 X-2.4839 Y1.3939  
G01 X-2.4901 Y1.3913  
G01 X-2.4967 Y1.3900  
G01 X-2.5033 Y1.3900  
G01 X-2.5099 Y1.3913  
G01 X-2.5161 Y1.3939  
G01 X-2.5217 Y1.3976  
G01 X-2.5264 Y1.4023  
G01 X-2.5301 Y1.4079  
G01 X-2.5327 Y1.4141  
G01 X-2.5340 Y1.4207  
G01 X-2.5340 Y1.4793  
G01 X-2.5327 Y1.4859  
G01 X-2.5301 Y1.4921  
G01 X-2.5264 Y1.4977  
G01 X-2.5240 Y1.5001  
G01 X-2.5240 Y1.5808  
G01 X-2.5264 Y1.5835  
G01 X-2.5437 Y1.6013  
G01 X-2.5620 Y1.6182  
G01 X-2.5811 Y1.6341  
G01 X-2.6010 Y1.6490  
G01 X-2.6217 Y1.6629  
G01 X-2.6268 Y1.6660  
G01 X-2.7743 Y1.6660  
G01 X-2.8479 Y1.6292  
G01 X-2.8486 Y1.6287  
G01 X-2.8500 Y1.6282  
G01 X-2.8514 Y1.6275  
G01 X-2.8522 Y1.6273  
G01 X-2.8530 Y1.6269  
G01 X-2.8545 Y1.6266  
G01 X-2.8559 Y1.6262  
G01 X-2.8568 Y1.6262  
G01 X-2.8576 Y1.6260  
G01 X-2.8591 Y1.6260  
G01 X-2.8607 Y1.6259  
G01 X-2.8615 Y1.6260  
G01 X-3.2901 Y1.6260  
G01 X-3.6660 Y1.2501  
G01 X-3.6660 Y0.7641  
G01 X-3.6560 Y0.7541  
G01 X-3.6560 Y0.7259  
G01 X-3.6759 Y0.7060  
G01 X-3.7041 Y0.7060  
G01 X-3.7240 Y0.7259  
G01 X-3.7240 Y0.7541  
G01 X-3.7140 Y0.7641  
G01 X-3.7140 Y1.2624  
G01 X-3.7131 Y1.2670  
G01 X-3.7113 Y1.2714  
G01 X-3.7086 Y1.2753  
G01 X-3.7053 Y1.2786  
G01 X-3.3186 Y1.6653  
G01 X-3.3153 Y1.6686  
G01 X-3.3114 Y1.6713  
G01 X-3.3070 Y1.6731  
G01 X-3.3024 Y1.6740  
G01 X-2.8657 Y1.6740  
G01 X-2.7921 Y1.7108  
G01 X-2.7914 Y1.7113  
G01 X-2.7900 Y1.7118  
G01 X-2.7886 Y1.7125  
G01 X-2.7878 Y1.7127  
G01 X-2.7870 Y1.7131  
G01 X-2.7855 Y1.7134  
G01 X-2.7841 Y1.7138  
G01 X-2.7832 Y1.7138  
G01 X-2.7824 Y1.7140  
G01 X-2.7809 Y1.7140  
G01 X-2.7793 Y1.7141  
G01 X-2.7785 Y1.7140  
G01 X-2.6206 Y1.7140  
G01 X-2.6189 Y1.7141  
G01 X-2.6183 Y1.7140  
G01 X-2.6176 Y1.7140  
G01 X-2.6159 Y1.7137  
G01 X-2.6142 Y1.7134  
G01 X-2.6136 Y1.7132  
G01 X-2.6130 Y1.7131  
G01 X-2.6114 Y1.7124  
G01 X-2.6097 Y1.7118  
G01 X-2.6092 Y1.7115  
G01 X-2.6086 Y1.7113  
G01 X-2.6072 Y1.7103  
G01 X-2.5959 Y1.7036  
G01 X-2.5732 Y1.6884  
G01 X-2.5512 Y1.6719  
G01 X-2.5302 Y1.6544  
G01 X-2.5101 Y1.6358  
G01 X-2.4910 Y1.6161  
G01 X-2.4825 Y1.6064  
G01 X-2.4814 Y1.6053  
G01 X-2.4809 Y1.6046  
G01 X-2.4804 Y1.6040  
G01 X-2.4796 Y1.6027  
G01 X-2.4787 Y1.6014  
G01 X-2.4784 Y1.6006  
G01 X-2.4780 Y1.5999  
G01 X-2.4775 Y1.5984  
G01 X-2.4769 Y1.5970  
G01 X-2.4768 Y1.5962  
G01 X-2.4765 Y1.5954  
G01 X-2.4763 Y1.5939  
G01 X-2.4760 Y1.5924  
G01 X-2.4760 Y1.5916  
G01 X-2.4759 Y1.5908  
G01 X-2.4760 Y1.5892  
G01 X-2.4760 Y1.5001  
G01 X-2.4736 Y1.4977  
G01 X-2.4699 Y1.4921  
G01 X-2.4673 Y1.4859  
G01 X-2.4660 Y1.4793  
G01 X-2.4660 Y1.4499  
G01 X-2.1847 Y1.1686  
G01 X-2.1814 Y1.1653  
G01 X-2.1787 Y1.1614  
G01 X-2.1769 Y1.1570  
G01 X-2.1760 Y1.1524  
G01 X-2.1760 Y1.1065  
G01 X-1.8387 Y1.1065  
G01 X-1.8375 Y1.1066  
G01 X-1.8363 Y1.1065  
G01 X-1.8351 Y1.1065  
G01 X-1.8340 Y1.1063  
G01 X-1.6802 Y1.0912  
G01 X-1.6653 Y1.1061  
G01 X-1.6614 Y1.1088  
G01 X-1.6570 Y1.1106  
G01 X-1.6524 Y1.1115  
G01 X-1.6337 Y1.1115  
G01 X-1.6336 Y1.1117  
G01 X-1.6334 Y1.1120  
G01 X-1.6322 Y1.1136  
G01 X-1.6311 Y1.1153  
G01 X-1.6309 Y1.1156  
G01 X-1.3822 Y1.4636  
G01 X-1.3811 Y1.4653  
G01 X-1.3809 Y1.4656  
G01 X-1.3807 Y1.4659  
G01 X-1.3792 Y1.4672  
G01 X-1.3778 Y1.4686  
G01 X-1.3775 Y1.4689  
G01 X-1.3772 Y1.4691  
G01 X-1.3755 Y1.4702  
G01 X-1.3739 Y1.4713  
G01 X-1.3735 Y1.4714  
G01 X-1.3732 Y1.4716  
G01 X-1.3713 Y1.4723  
G01 X-1.3695 Y1.4731  
G01 X-1.3691 Y1.4732  
G01 X-1.3688 Y1.4733  
G01 X-1.3668 Y1.4736  
G01 X-1.3649 Y1.4740  
G01 X-1.3645 Y1.4740  
G01 X-1.3641 Y1.4741  
G01 X-1.3621 Y1.4740  
G01 X-0.9726 Y1.4740  
G01 X-0.9680 Y1.4731  
G01 X-0.9636 Y1.4713  
G01 X-0.9597 Y1.4686  
G01 X-0.9564 Y1.4653  
G01 X-0.9537 Y1.4614  
G01 X-0.9519 Y1.4570  
G01 X-0.9510 Y1.4524  
G01 X-0.9510 Y1.1101  
G01 X-0.9519 Y1.1055  
G01 X-0.9537 Y1.1011  
G01 X-0.9564 Y1.0972  
G01 X-0.9597 Y1.0939  
G01 X-1.0098 Y1.0437  
G01 X-0.9901 Y1.0240  
G01 X-0.9049 Y1.0240  
G01 X-0.9009 Y1.0280  
G01 X-0.8951 Y1.0319  
G01 X-0.8885 Y1.0346  
G01 X-0.8815 Y1.0360  
G01 X-0.8185 Y1.0360  
G01 X-0.8115 Y1.0346  
G01 X-0.8049 Y1.0319  
G01 X-0.7991 Y1.0280  
G01 X-0.7940 Y1.0229  
G01 X-0.7901 Y1.0171  
G01 X-0.7874 Y1.0105  
G01 X-0.7860 Y1.0035  
G01 X-0.7860 Y0.9965  
G01 X-0.7874 Y0.9895  
G01 X-0.7901 Y0.9829  
G01 X-0.7940 Y0.9771  
G01 X-0.7991 Y0.9720  
G01 X-0.8049 Y0.9681  
G01 X-0.8115 Y0.9654  
G01 X-0.8185 Y0.9640  
G01 X-0.8815 Y0.9640  
G01 X-0.8885 Y0.9654  
G01 X-0.8951 Y0.9681  
G01 X-0.9009 Y0.9720  
G01 X-0.9049 Y0.9760  
G01 X-1.0024 Y0.9760  
G01 X-1.0070 Y0.9769  
G01 X-1.0114 Y0.9787  
G01 X-1.0153 Y0.9814  
G01 X-1.0447 Y1.0108  
G01 X-1.0461 Y1.0105  
G01 X-1.0539 Y1.0105  
G01 X-1.0615 Y1.0120  
G01 X-1.0687 Y1.0150  
G01 X-1.0752 Y1.0193  
G01 X-1.0807 Y1.0248  
G01 X-1.0815 Y1.0260  
G01 X-1.1759 Y1.0260  
G01 X-1.1859 Y1.0160  
G01 X-1.1893 Y1.0160  
G01 X-1.2086 Y0.9740  
G01 X-1.1241 Y0.9740  
G01 X-1.1141 Y0.9840  
G01 X-1.0859 Y0.9840  
G01 X-1.0660 Y0.9641  
G01 X-1.0660 Y0.9499  
G01 X-0.9501 Y0.8340  
G01 X-0.9359 Y0.8340  
G01 X-0.9160 Y0.8141  
G01 X-0.9160 Y0.7859  
G01 X-0.9359 Y0.7660  
G01 X-0.9641 Y0.7660  
G01 X-0.9840 Y0.7859  
G01 X-0.9840 Y0.8001  
G01 X-1.0999 Y0.9160  
G01 X-1.1141 Y0.9160  
G01 X-1.1241 Y0.9260  
G01 X-1.2201 Y0.9260  
G01 X-1.2260 Y0.9201  
G01 X-1.2260 Y0.9059  
G00 Z0.0500  
G00 X-1.5260 Y0.9059  
G01 Z-0.0035 F10    
G01 X-1.5459 Y0.8860  F20    
G01 X-1.5741 Y0.8860  
G01 X-1.5762 Y0.8882  
G01 X-1.6593 Y0.8692  
G01 X-1.7924 Y0.8347  
G01 X-1.7930 Y0.8344  
G01 X-1.7946 Y0.8341  
G01 X-1.7963 Y0.8337  
G01 X-1.7970 Y0.8336  
G01 X-1.7976 Y0.8335  
G01 X-1.7993 Y0.8335  
G01 X-1.8010 Y0.8334  
G01 X-1.8017 Y0.8335  
G01 X-1.9908 Y0.8335  
G01 X-1.9915 Y0.8334  
G01 X-1.9919 Y0.8334  
G01 X-2.5514 Y0.7740  
G01 X-2.6860 Y0.7163  
G01 X-2.6861 Y0.7162  
G01 X-2.6882 Y0.7154  
G01 X-2.6902 Y0.7145  
G01 X-2.6904 Y0.7145  
G01 X-2.6905 Y0.7144  
G01 X-2.6927 Y0.7140  
G01 X-2.6948 Y0.7135  
G01 X-2.6950 Y0.7135  
G01 X-2.6951 Y0.7135  
G01 X-2.6974 Y0.7135  
G01 X-2.6996 Y0.7135  
G01 X-2.6997 Y0.7135  
G01 X-2.7399 Y0.7135  
G01 X-2.7445 Y0.7144  
G01 X-2.7489 Y0.7162  
G01 X-2.7528 Y0.7189  
G01 X-2.8153 Y0.7814  
G01 X-2.8186 Y0.7847  
G01 X-2.8213 Y0.7886  
G01 X-2.8231 Y0.7930  
G01 X-2.8240 Y0.7976  
G01 X-2.8240 Y0.8849  
G01 X-2.8231 Y0.8895  
G01 X-2.8213 Y0.8939  
G01 X-2.8186 Y0.8978  
G01 X-2.8098 Y0.9066  
G01 X-2.8085 Y0.9080  
G01 X-2.8081 Y0.9083  
G01 X-2.8078 Y0.9086  
G01 X-2.8062 Y0.9097  
G01 X-2.6256 Y1.0408  
G01 X-2.6253 Y1.0412  
G01 X-2.6237 Y1.0422  
G01 X-2.6222 Y1.0433  
G01 X-2.6217 Y1.0435  
G01 X-2.5680 Y1.0793  
G01 X-2.5340 Y1.1389  
G01 X-2.5340 Y1.1793  
G01 X-2.5327 Y1.1859  
G01 X-2.5301 Y1.1921  
G01 X-2.5264 Y1.1977  
G01 X-2.5217 Y1.2024  
G01 X-2.5161 Y1.2061  
G01 X-2.5099 Y1.2087  
G01 X-2.5033 Y1.2100  
G01 X-2.4967 Y1.2100  
G01 X-2.4901 Y1.2087  
G01 X-2.4839 Y1.2061  
G01 X-2.4783 Y1.2024  
G01 X-2.4736 Y1.1977  
G01 X-2.4699 Y1.1921  
G01 X-2.4673 Y1.1859  
G01 X-2.4660 Y1.1793  
G01 X-2.4660 Y1.1207  
G01 X-2.4673 Y1.1141  
G01 X-2.4699 Y1.1079  
G01 X-2.4736 Y1.1023  
G01 X-2.4783 Y1.0976  
G01 X-2.4839 Y1.0939  
G01 X-2.4901 Y1.0913  
G01 X-2.4967 Y1.0900  
G01 X-2.5033 Y1.0900  
G01 X-2.5063 Y1.0906  
G01 X-2.5284 Y1.0519  
G01 X-2.5287 Y1.0511  
G01 X-2.5296 Y1.0499  
G01 X-2.5303 Y1.0485  
G01 X-2.5309 Y1.0479  
G01 X-2.5314 Y1.0472  
G01 X-2.5324 Y1.0461  
G01 X-2.5334 Y1.0450  
G01 X-2.5341 Y1.0444  
G01 X-2.5347 Y1.0438  
G01 X-2.5360 Y1.0430  
G01 X-2.5372 Y1.0421  
G01 X-2.5379 Y1.0417  
G01 X-2.5963 Y1.0028  
G01 X-2.7760 Y0.8723  
G01 X-2.7760 Y0.8099  
G01 X-2.7276 Y0.7615  
G01 X-2.7024 Y0.7615  
G01 X-2.5680 Y0.8191  
G01 X-2.5669 Y0.8197  
G01 X-2.5658 Y0.8200  
G01 X-2.5648 Y0.8205  
G01 X-2.5636 Y0.8207  
G01 X-2.5624 Y0.8211  
G01 X-2.5613 Y0.8212  
G01 X-2.5602 Y0.8215  
G01 X-2.5589 Y0.8215  
G01 X-2.0197 Y0.8787  
G01 X-2.0264 Y0.9263  
G01 X-2.0301 Y0.9319  
